presets/luts/cool.cube
# cool — bundled look for apply_lut/list_luts
LUT_3D_SIZE 5
0.000000 0.000000 0.020000
0.232500 0.000000 0.020000
0.465000 0.000000 0.020000
0.697500 0.000000 0.020000
0.930000 0.000000 0.020000
0.000000 0.250000 0.020000
0.232500 0.250000 0.020000
0.465000 0.250000 0.020000
0.697500 0.250000 0.020000
0.930000 0.250000 0.020000
0.000000 0.500000 0.020000
0.232500 0.500000 0.020000
0.465000 0.500000 0.020000
0.697500 0.500000 0.020000
0.930000 0.500000 0.020000
0.000000 0.750000 0.020000
0.232500 0.750000 0.020000
0.465000 0.750000 0.020000
0.697500 0.750000 0.020000
0.930000 0.750000 0.020000
0.000000 1.000000 0.020000
0.232500 1.000000 0.020000
0.465000 1.000000 0.020000
0.697500 1.000000 0.020000
0.930000 1.000000 0.020000
0.000000 0.000000 0.285000
0.232500 0.000000 0.285000
0.465000 0.000000 0.285000
0.697500 0.000000 0.285000
0.930000 0.000000 0.285000
0.000000 0.250000 0.285000
0.232500 0.250000 0.285000
0.465000 0.250000 0.285000
0.697500 0.250000 0.285000
0.930000 0.250000 0.285000
0.000000 0.500000 0.285000
0.232500 0.500000 0.285000
0.465000 0.500000 0.285000
0.697500 0.500000 0.285000
0.930000 0.500000 0.285000
0.000000 0.750000 0.285000
0.232500 0.750000 0.285000
0.465000 0.750000 0.285000
0.697500 0.750000 0.285000
0.930000 0.750000 0.285000
0.000000 1.000000 0.285000
0.232500 1.000000 0.285000
0.465000 1.000000 0.285000
0.697500 1.000000 0.285000
0.930000 1.000000 0.285000
0.000000 0.000000 0.550000
0.232500 0.000000 0.550000
0.465000 0.000000 0.550000
0.697500 0.000000 0.550000
0.930000 0.000000 0.550000
0.000000 0.250000 0.550000
0.232500 0.250000 0.550000
0.465000 0.250000 0.550000
0.697500 0.250000 0.550000
0.930000 0.250000 0.550000
0.000000 0.500000 0.550000
0.232500 0.500000 0.550000
0.465000 0.500000 0.550000
0.697500 0.500000 0.550000
0.930000 0.500000 0.550000
0.000000 0.750000 0.550000
0.232500 0.750000 0.550000
0.465000 0.750000 0.550000
0.697500 0.750000 0.550000
0.930000 0.750000 0.550000
0.000000 1.000000 0.550000
0.232500 1.000000 0.550000
0.465000 1.000000 0.550000
0.697500 1.000000 0.550000
0.930000 1.000000 0.550000
0.000000 0.000000 0.815000
0.232500 0.000000 0.815000
0.465000 0.000000 0.815000
0.697500 0.000000 0.815000
0.930000 0.000000 0.815000
0.000000 0.250000 0.815000
0.232500 0.250000 0.815000
0.465000 0.250000 0.815000
0.697500 0.250000 0.815000
0.930000 0.250000 0.815000
0.000000 0.500000 0.815000
0.232500 0.500000 0.815000
0.465000 0.500000 0.815000
0.697500 0.500000 0.815000
0.930000 0.500000 0.815000
0.000000 0.750000 0.815000
0.232500 0.750000 0.815000
0.465000 0.750000 0.815000
0.697500 0.750000 0.815000
0.930000 0.750000 0.815000
0.000000 1.000000 0.815000
0.232500 1.000000 0.815000
0.465000 1.000000 0.815000
0.697500 1.000000 0.815000
0.930000 1.000000 0.815000
0.000000 0.000000 1.000000
0.232500 0.000000 1.000000
0.465000 0.000000 1.000000
0.697500 0.000000 1.000000
0.930000 0.000000 1.000000
0.000000 0.250000 1.000000
0.232500 0.250000 1.000000
0.465000 0.250000 1.000000
0.697500 0.250000 1.000000
0.930000 0.250000 1.000000
0.000000 0.500000 1.000000
0.232500 0.500000 1.000000
0.465000 0.500000 1.000000
0.697500 0.500000 1.000000
0.930000 0.500000 1.000000
0.000000 0.750000 1.000000
0.232500 0.750000 1.000000
0.465000 0.750000 1.000000
0.697500 0.750000 1.000000
0.930000 0.750000 1.000000
0.000000 1.000000 1.000000
0.232500 1.000000 1.000000
0.465000 1.000000 1.000000
0.697500 1.000000 1.000000
0.930000 1.000000 1.000000
