presets/luts/cool.cube
# cool — bundled look for apply_lut/list_luts
LUT_3D_SIZE 9
0.000000 0.000000 0.020000
0.116250 0.000000 0.020000
0.232500 0.000000 0.020000
0.348750 0.000000 0.020000
0.465000 0.000000 0.020000
0.581250 0.000000 0.020000
0.697500 0.000000 0.020000
0.813750 0.000000 0.020000
0.930000 0.000000 0.020000
0.000000 0.125000 0.020000
0.116250 0.125000 0.020000
0.232500 0.125000 0.020000
0.348750 0.125000 0.020000
0.465000 0.125000 0.020000
0.581250 0.125000 0.020000
0.697500 0.125000 0.020000
0.813750 0.125000 0.020000
0.930000 0.125000 0.020000
0.000000 0.250000 0.020000
0.116250 0.250000 0.020000
0.232500 0.250000 0.020000
0.348750 0.250000 0.020000
0.465000 0.250000 0.020000
0.581250 0.250000 0.020000
0.697500 0.250000 0.020000
0.813750 0.250000 0.020000
0.930000 0.250000 0.020000
0.000000 0.375000 0.020000
0.116250 0.375000 0.020000
0.232500 0.375000 0.020000
0.348750 0.375000 0.020000
0.465000 0.375000 0.020000
0.581250 0.375000 0.020000
0.697500 0.375000 0.020000
0.813750 0.375000 0.020000
0.930000 0.375000 0.020000
0.000000 0.500000 0.020000
0.116250 0.500000 0.020000
0.232500 0.500000 0.020000
0.348750 0.500000 0.020000
0.465000 0.500000 0.020000
0.581250 0.500000 0.020000
0.697500 0.500000 0.020000
0.813750 0.500000 0.020000
0.930000 0.500000 0.020000
0.000000 0.625000 0.020000
0.116250 0.625000 0.020000
0.232500 0.625000 0.020000
0.348750 0.625000 0.020000
0.465000 0.625000 0.020000
0.581250 0.625000 0.020000
0.697500 0.625000 0.020000
0.813750 0.625000 0.020000
0.930000 0.625000 0.020000
0.000000 0.750000 0.020000
0.116250 0.750000 0.020000
0.232500 0.750000 0.020000
0.348750 0.750000 0.020000
0.465000 0.750000 0.020000
0.581250 0.750000 0.020000
0.697500 0.750000 0.020000
0.813750 0.750000 0.020000
0.930000 0.750000 0.020000
0.000000 0.875000 0.020000
0.116250 0.875000 0.020000
0.232500 0.875000 0.020000
0.348750 0.875000 0.020000
0.465000 0.875000 0.020000
0.581250 0.875000 0.020000
0.697500 0.875000 0.020000
0.813750 0.875000 0.020000
0.930000 0.875000 0.020000
0.000000 1.000000 0.020000
0.116250 1.000000 0.020000
0.232500 1.000000 0.020000
0.348750 1.000000 0.020000
0.465000 1.000000 0.020000
0.581250 1.000000 0.020000
0.697500 1.000000 0.020000
0.813750 1.000000 0.020000
0.930000 1.000000 0.020000
0.000000 0.000000 0.152500
0.116250 0.000000 0.152500
0.232500 0.000000 0.152500
0.348750 0.000000 0.152500
0.465000 0.000000 0.152500
0.581250 0.000000 0.152500
0.697500 0.000000 0.152500
0.813750 0.000000 0.152500
0.930000 0.000000 0.152500
0.000000 0.125000 0.152500
0.116250 0.125000 0.152500
0.232500 0.125000 0.152500
0.348750 0.125000 0.152500
0.465000 0.125000 0.152500
0.581250 0.125000 0.152500
0.697500 0.125000 0.152500
0.813750 0.125000 0.152500
0.930000 0.125000 0.152500
0.000000 0.250000 0.152500
0.116250 0.250000 0.152500
0.232500 0.250000 0.152500
0.348750 0.250000 0.152500
0.465000 0.250000 0.152500
0.581250 0.250000 0.152500
0.697500 0.250000 0.152500
0.813750 0.250000 0.152500
0.930000 0.250000 0.152500
0.000000 0.375000 0.152500
0.116250 0.375000 0.152500
0.232500 0.375000 0.152500
0.348750 0.375000 0.152500
0.465000 0.375000 0.152500
0.581250 0.375000 0.152500
0.697500 0.375000 0.152500
0.813750 0.375000 0.152500
0.930000 0.375000 0.152500
0.000000 0.500000 0.152500
0.116250 0.500000 0.152500
0.232500 0.500000 0.152500
0.348750 0.500000 0.152500
0.465000 0.500000 0.152500
0.581250 0.500000 0.152500
0.697500 0.500000 0.152500
0.813750 0.500000 0.152500
0.930000 0.500000 0.152500
0.000000 0.625000 0.152500
0.116250 0.625000 0.152500
0.232500 0.625000 0.152500
0.348750 0.625000 0.152500
0.465000 0.625000 0.152500
0.581250 0.625000 0.152500
0.697500 0.625000 0.152500
0.813750 0.625000 0.152500
0.930000 0.625000 0.152500
0.000000 0.750000 0.152500
0.116250 0.750000 0.152500
0.232500 0.750000 0.152500
0.348750 0.750000 0.152500
0.465000 0.750000 0.152500
0.581250 0.750000 0.152500
0.697500 0.750000 0.152500
0.813750 0.750000 0.152500
0.930000 0.750000 0.152500
0.000000 0.875000 0.152500
0.116250 0.875000 0.152500
0.232500 0.875000 0.152500
0.348750 0.875000 0.152500
0.465000 0.875000 0.152500
0.581250 0.875000 0.152500
0.697500 0.875000 0.152500
0.813750 0.875000 0.152500
0.930000 0.875000 0.152500
0.000000 1.000000 0.152500
0.116250 1.000000 0.152500
0.232500 1.000000 0.152500
0.348750 1.000000 0.152500
0.465000 1.000000 0.152500
0.581250 1.000000 0.152500
0.697500 1.000000 0.152500
0.813750 1.000000 0.152500
0.930000 1.000000 0.152500
0.000000 0.000000 0.285000
0.116250 0.000000 0.285000
0.232500 0.000000 0.285000
0.348750 0.000000 0.285000
0.465000 0.000000 0.285000
0.581250 0.000000 0.285000
0.697500 0.000000 0.285000
0.813750 0.000000 0.285000
0.930000 0.000000 0.285000
0.000000 0.125000 0.285000
0.116250 0.125000 0.285000
0.232500 0.125000 0.285000
0.348750 0.125000 0.285000
0.465000 0.125000 0.285000
0.581250 0.125000 0.285000
0.697500 0.125000 0.285000
0.813750 0.125000 0.285000
0.930000 0.125000 0.285000
0.000000 0.250000 0.285000
0.116250 0.250000 0.285000
0.232500 0.250000 0.285000
0.348750 0.250000 0.285000
0.465000 0.250000 0.285000
0.581250 0.250000 0.285000
0.697500 0.250000 0.285000
0.813750 0.250000 0.285000
0.930000 0.250000 0.285000
0.000000 0.375000 0.285000
0.116250 0.375000 0.285000
0.232500 0.375000 0.285000
0.348750 0.375000 0.285000
0.465000 0.375000 0.285000
0.581250 0.375000 0.285000
0.697500 0.375000 0.285000
0.813750 0.375000 0.285000
0.930000 0.375000 0.285000
0.000000 0.500000 0.285000
0.116250 0.500000 0.285000
0.232500 0.500000 0.285000
0.348750 0.500000 0.285000
0.465000 0.500000 0.285000
0.581250 0.500000 0.285000
0.697500 0.500000 0.285000
0.813750 0.500000 0.285000
0.930000 0.500000 0.285000
0.000000 0.625000 0.285000
0.116250 0.625000 0.285000
0.232500 0.625000 0.285000
0.348750 0.625000 0.285000
0.465000 0.625000 0.285000
0.581250 0.625000 0.285000
0.697500 0.625000 0.285000
0.813750 0.625000 0.285000
0.930000 0.625000 0.285000
0.000000 0.750000 0.285000
0.116250 0.750000 0.285000
0.232500 0.750000 0.285000
0.348750 0.750000 0.285000
0.465000 0.750000 0.285000
0.581250 0.750000 0.285000
0.697500 0.750000 0.285000
0.813750 0.750000 0.285000
0.930000 0.750000 0.285000
0.000000 0.875000 0.285000
0.116250 0.875000 0.285000
0.232500 0.875000 0.285000
0.348750 0.875000 0.285000
0.465000 0.875000 0.285000
0.581250 0.875000 0.285000
0.697500 0.875000 0.285000
0.813750 0.875000 0.285000
0.930000 0.875000 0.285000
0.000000 1.000000 0.285000
0.116250 1.000000 0.285000
0.232500 1.000000 0.285000
0.348750 1.000000 0.285000
0.465000 1.000000 0.285000
0.581250 1.000000 0.285000
0.697500 1.000000 0.285000
0.813750 1.000000 0.285000
0.930000 1.000000 0.285000
0.000000 0.000000 0.417500
0.116250 0.000000 0.417500
0.232500 0.000000 0.417500
0.348750 0.000000 0.417500
0.465000 0.000000 0.417500
0.581250 0.000000 0.417500
0.697500 0.000000 0.417500
0.813750 0.000000 0.417500
0.930000 0.000000 0.417500
0.000000 0.125000 0.417500
0.116250 0.125000 0.417500
0.232500 0.125000 0.417500
0.348750 0.125000 0.417500
0.465000 0.125000 0.417500
0.581250 0.125000 0.417500
0.697500 0.125000 0.417500
0.813750 0.125000 0.417500
0.930000 0.125000 0.417500
0.000000 0.250000 0.417500
0.116250 0.250000 0.417500
0.232500 0.250000 0.417500
0.348750 0.250000 0.417500
0.465000 0.250000 0.417500
0.581250 0.250000 0.417500
0.697500 0.250000 0.417500
0.813750 0.250000 0.417500
0.930000 0.250000 0.417500
0.000000 0.375000 0.417500
0.116250 0.375000 0.417500
0.232500 0.375000 0.417500
0.348750 0.375000 0.417500
0.465000 0.375000 0.417500
0.581250 0.375000 0.417500
0.697500 0.375000 0.417500
0.813750 0.375000 0.417500
0.930000 0.375000 0.417500
0.000000 0.500000 0.417500
0.116250 0.500000 0.417500
0.232500 0.500000 0.417500
0.348750 0.500000 0.417500
0.465000 0.500000 0.417500
0.581250 0.500000 0.417500
0.697500 0.500000 0.417500
0.813750 0.500000 0.417500
0.930000 0.500000 0.417500
0.000000 0.625000 0.417500
0.116250 0.625000 0.417500
0.232500 0.625000 0.417500
0.348750 0.625000 0.417500
0.465000 0.625000 0.417500
0.581250 0.625000 0.417500
0.697500 0.625000 0.417500
0.813750 0.625000 0.417500
0.930000 0.625000 0.417500
0.000000 0.750000 0.417500
0.116250 0.750000 0.417500
0.232500 0.750000 0.417500
0.348750 0.750000 0.417500
0.465000 0.750000 0.417500
0.581250 0.750000 0.417500
0.697500 0.750000 0.417500
0.813750 0.750000 0.417500
0.930000 0.750000 0.417500
0.000000 0.875000 0.417500
0.116250 0.875000 0.417500
0.232500 0.875000 0.417500
0.348750 0.875000 0.417500
0.465000 0.875000 0.417500
0.581250 0.875000 0.417500
0.697500 0.875000 0.417500
0.813750 0.875000 0.417500
0.930000 0.875000 0.417500
0.000000 1.000000 0.417500
0.116250 1.000000 0.417500
0.232500 1.000000 0.417500
0.348750 1.000000 0.417500
0.465000 1.000000 0.417500
0.581250 1.000000 0.417500
0.697500 1.000000 0.417500
0.813750 1.000000 0.417500
0.930000 1.000000 0.417500
0.000000 0.000000 0.550000
0.116250 0.000000 0.550000
0.232500 0.000000 0.550000
0.348750 0.000000 0.550000
0.465000 0.000000 0.550000
0.581250 0.000000 0.550000
0.697500 0.000000 0.550000
0.813750 0.000000 0.550000
0.930000 0.000000 0.550000
0.000000 0.125000 0.550000
0.116250 0.125000 0.550000
0.232500 0.125000 0.550000
0.348750 0.125000 0.550000
0.465000 0.125000 0.550000
0.581250 0.125000 0.550000
0.697500 0.125000 0.550000
0.813750 0.125000 0.550000
0.930000 0.125000 0.550000
0.000000 0.250000 0.550000
0.116250 0.250000 0.550000
0.232500 0.250000 0.550000
0.348750 0.250000 0.550000
0.465000 0.250000 0.550000
0.581250 0.250000 0.550000
0.697500 0.250000 0.550000
0.813750 0.250000 0.550000
0.930000 0.250000 0.550000
0.000000 0.375000 0.550000
0.116250 0.375000 0.550000
0.232500 0.375000 0.550000
0.348750 0.375000 0.550000
0.465000 0.375000 0.550000
0.581250 0.375000 0.550000
0.697500 0.375000 0.550000
0.813750 0.375000 0.550000
0.930000 0.375000 0.550000
0.000000 0.500000 0.550000
0.116250 0.500000 0.550000
0.232500 0.500000 0.550000
0.348750 0.500000 0.550000
0.465000 0.500000 0.550000
0.581250 0.500000 0.550000
0.697500 0.500000 0.550000
0.813750 0.500000 0.550000
0.930000 0.500000 0.550000
0.000000 0.625000 0.550000
0.116250 0.625000 0.550000
0.232500 0.625000 0.550000
0.348750 0.625000 0.550000
0.465000 0.625000 0.550000
0.581250 0.625000 0.550000
0.697500 0.625000 0.550000
0.813750 0.625000 0.550000
0.930000 0.625000 0.550000
0.000000 0.750000 0.550000
0.116250 0.750000 0.550000
0.232500 0.750000 0.550000
0.348750 0.750000 0.550000
0.465000 0.750000 0.550000
0.581250 0.750000 0.550000
0.697500 0.750000 0.550000
0.813750 0.750000 0.550000
0.930000 0.750000 0.550000
0.000000 0.875000 0.550000
0.116250 0.875000 0.550000
0.232500 0.875000 0.550000
0.348750 0.875000 0.550000
0.465000 0.875000 0.550000
0.581250 0.875000 0.550000
0.697500 0.875000 0.550000
0.813750 0.875000 0.550000
0.930000 0.875000 0.550000
0.000000 1.000000 0.550000
0.116250 1.000000 0.550000
0.232500 1.000000 0.550000
0.348750 1.000000 0.550000
0.465000 1.000000 0.550000
0.581250 1.000000 0.550000
0.697500 1.000000 0.550000
0.813750 1.000000 0.550000
0.930000 1.000000 0.550000
0.000000 0.000000 0.682500
0.116250 0.000000 0.682500
0.232500 0.000000 0.682500
0.348750 0.000000 0.682500
0.465000 0.000000 0.682500
0.581250 0.000000 0.682500
0.697500 0.000000 0.682500
0.813750 0.000000 0.682500
0.930000 0.000000 0.682500
0.000000 0.125000 0.682500
0.116250 0.125000 0.682500
0.232500 0.125000 0.682500
0.348750 0.125000 0.682500
0.465000 0.125000 0.682500
0.581250 0.125000 0.682500
0.697500 0.125000 0.682500
0.813750 0.125000 0.682500
0.930000 0.125000 0.682500
0.000000 0.250000 0.682500
0.116250 0.250000 0.682500
0.232500 0.250000 0.682500
0.348750 0.250000 0.682500
0.465000 0.250000 0.682500
0.581250 0.250000 0.682500
0.697500 0.250000 0.682500
0.813750 0.250000 0.682500
0.930000 0.250000 0.682500
0.000000 0.375000 0.682500
0.116250 0.375000 0.682500
0.232500 0.375000 0.682500
0.348750 0.375000 0.682500
0.465000 0.375000 0.682500
0.581250 0.375000 0.682500
0.697500 0.375000 0.682500
0.813750 0.375000 0.682500
0.930000 0.375000 0.682500
0.000000 0.500000 0.682500
0.116250 0.500000 0.682500
0.232500 0.500000 0.682500
0.348750 0.500000 0.682500
0.465000 0.500000 0.682500
0.581250 0.500000 0.682500
0.697500 0.500000 0.682500
0.813750 0.500000 0.682500
0.930000 0.500000 0.682500
0.000000 0.625000 0.682500
0.116250 0.625000 0.682500
0.232500 0.625000 0.682500
0.348750 0.625000 0.682500
0.465000 0.625000 0.682500
0.581250 0.625000 0.682500
0.697500 0.625000 0.682500
0.813750 0.625000 0.682500
0.930000 0.625000 0.682500
0.000000 0.750000 0.682500
0.116250 0.750000 0.682500
0.232500 0.750000 0.682500
0.348750 0.750000 0.682500
0.465000 0.750000 0.682500
0.581250 0.750000 0.682500
0.697500 0.750000 0.682500
0.813750 0.750000 0.682500
0.930000 0.750000 0.682500
0.000000 0.875000 0.682500
0.116250 0.875000 0.682500
0.232500 0.875000 0.682500
0.348750 0.875000 0.682500
0.465000 0.875000 0.682500
0.581250 0.875000 0.682500
0.697500 0.875000 0.682500
0.813750 0.875000 0.682500
0.930000 0.875000 0.682500
0.000000 1.000000 0.682500
0.116250 1.000000 0.682500
0.232500 1.000000 0.682500
0.348750 1.000000 0.682500
0.465000 1.000000 0.682500
0.581250 1.000000 0.682500
0.697500 1.000000 0.682500
0.813750 1.000000 0.682500
0.930000 1.000000 0.682500
0.000000 0.000000 0.815000
0.116250 0.000000 0.815000
0.232500 0.000000 0.815000
0.348750 0.000000 0.815000
0.465000 0.000000 0.815000
0.581250 0.000000 0.815000
0.697500 0.000000 0.815000
0.813750 0.000000 0.815000
0.930000 0.000000 0.815000
0.000000 0.125000 0.815000
0.116250 0.125000 0.815000
0.232500 0.125000 0.815000
0.348750 0.125000 0.815000
0.465000 0.125000 0.815000
0.581250 0.125000 0.815000
0.697500 0.125000 0.815000
0.813750 0.125000 0.815000
0.930000 0.125000 0.815000
0.000000 0.250000 0.815000
0.116250 0.250000 0.815000
0.232500 0.250000 0.815000
0.348750 0.250000 0.815000
0.465000 0.250000 0.815000
0.581250 0.250000 0.815000
0.697500 0.250000 0.815000
0.813750 0.250000 0.815000
0.930000 0.250000 0.815000
0.000000 0.375000 0.815000
0.116250 0.375000 0.815000
0.232500 0.375000 0.815000
0.348750 0.375000 0.815000
0.465000 0.375000 0.815000
0.581250 0.375000 0.815000
0.697500 0.375000 0.815000
0.813750 0.375000 0.815000
0.930000 0.375000 0.815000
0.000000 0.500000 0.815000
0.116250 0.500000 0.815000
0.232500 0.500000 0.815000
0.348750 0.500000 0.815000
0.465000 0.500000 0.815000
0.581250 0.500000 0.815000
0.697500 0.500000 0.815000
0.813750 0.500000 0.815000
0.930000 0.500000 0.815000
0.000000 0.625000 0.815000
0.116250 0.625000 0.815000
0.232500 0.625000 0.815000
0.348750 0.625000 0.815000
0.465000 0.625000 0.815000
0.581250 0.625000 0.815000
0.697500 0.625000 0.815000
0.813750 0.625000 0.815000
0.930000 0.625000 0.815000
0.000000 0.750000 0.815000
0.116250 0.750000 0.815000
0.232500 0.750000 0.815000
0.348750 0.750000 0.815000
0.465000 0.750000 0.815000
0.581250 0.750000 0.815000
0.697500 0.750000 0.815000
0.813750 0.750000 0.815000
0.930000 0.750000 0.815000
0.000000 0.875000 0.815000
0.116250 0.875000 0.815000
0.232500 0.875000 0.815000
0.348750 0.875000 0.815000
0.465000 0.875000 0.815000
0.581250 0.875000 0.815000
0.697500 0.875000 0.815000
0.813750 0.875000 0.815000
0.930000 0.875000 0.815000
0.000000 1.000000 0.815000
0.116250 1.000000 0.815000
0.232500 1.000000 0.815000
0.348750 1.000000 0.815000
0.465000 1.000000 0.815000
0.581250 1.000000 0.815000
0.697500 1.000000 0.815000
0.813750 1.000000 0.815000
0.930000 1.000000 0.815000
0.000000 0.000000 0.947500
0.116250 0.000000 0.947500
0.232500 0.000000 0.947500
0.348750 0.000000 0.947500
0.465000 0.000000 0.947500
0.581250 0.000000 0.947500
0.697500 0.000000 0.947500
0.813750 0.000000 0.947500
0.930000 0.000000 0.947500
0.000000 0.125000 0.947500
0.116250 0.125000 0.947500
0.232500 0.125000 0.947500
0.348750 0.125000 0.947500
0.465000 0.125000 0.947500
0.581250 0.125000 0.947500
0.697500 0.125000 0.947500
0.813750 0.125000 0.947500
0.930000 0.125000 0.947500
0.000000 0.250000 0.947500
0.116250 0.250000 0.947500
0.232500 0.250000 0.947500
0.348750 0.250000 0.947500
0.465000 0.250000 0.947500
0.581250 0.250000 0.947500
0.697500 0.250000 0.947500
0.813750 0.250000 0.947500
0.930000 0.250000 0.947500
0.000000 0.375000 0.947500
0.116250 0.375000 0.947500
0.232500 0.375000 0.947500
0.348750 0.375000 0.947500
0.465000 0.375000 0.947500
0.581250 0.375000 0.947500
0.697500 0.375000 0.947500
0.813750 0.375000 0.947500
0.930000 0.375000 0.947500
0.000000 0.500000 0.947500
0.116250 0.500000 0.947500
0.232500 0.500000 0.947500
0.348750 0.500000 0.947500
0.465000 0.500000 0.947500
0.581250 0.500000 0.947500
0.697500 0.500000 0.947500
0.813750 0.500000 0.947500
0.930000 0.500000 0.947500
0.000000 0.625000 0.947500
0.116250 0.625000 0.947500
0.232500 0.625000 0.947500
0.348750 0.625000 0.947500
0.465000 0.625000 0.947500
0.581250 0.625000 0.947500
0.697500 0.625000 0.947500
0.813750 0.625000 0.947500
0.930000 0.625000 0.947500
0.000000 0.750000 0.947500
0.116250 0.750000 0.947500
0.232500 0.750000 0.947500
0.348750 0.750000 0.947500
0.465000 0.750000 0.947500
0.581250 0.750000 0.947500
0.697500 0.750000 0.947500
0.813750 0.750000 0.947500
0.930000 0.750000 0.947500
0.000000 0.875000 0.947500
0.116250 0.875000 0.947500
0.232500 0.875000 0.947500
0.348750 0.875000 0.947500
0.465000 0.875000 0.947500
0.581250 0.875000 0.947500
0.697500 0.875000 0.947500
0.813750 0.875000 0.947500
0.930000 0.875000 0.947500
0.000000 1.000000 0.947500
0.116250 1.000000 0.947500
0.232500 1.000000 0.947500
0.348750 1.000000 0.947500
0.465000 1.000000 0.947500
0.581250 1.000000 0.947500
0.697500 1.000000 0.947500
0.813750 1.000000 0.947500
0.930000 1.000000 0.947500
0.000000 0.000000 1.000000
0.116250 0.000000 1.000000
0.232500 0.000000 1.000000
0.348750 0.000000 1.000000
0.465000 0.000000 1.000000
0.581250 0.000000 1.000000
0.697500 0.000000 1.000000
0.813750 0.000000 1.000000
0.930000 0.000000 1.000000
0.000000 0.125000 1.000000
0.116250 0.125000 1.000000
0.232500 0.125000 1.000000
0.348750 0.125000 1.000000
0.465000 0.125000 1.000000
0.581250 0.125000 1.000000
0.697500 0.125000 1.000000
0.813750 0.125000 1.000000
0.930000 0.125000 1.000000
0.000000 0.250000 1.000000
0.116250 0.250000 1.000000
0.232500 0.250000 1.000000
0.348750 0.250000 1.000000
0.465000 0.250000 1.000000
0.581250 0.250000 1.000000
0.697500 0.250000 1.000000
0.813750 0.250000 1.000000
0.930000 0.250000 1.000000
0.000000 0.375000 1.000000
0.116250 0.375000 1.000000
0.232500 0.375000 1.000000
0.348750 0.375000 1.000000
0.465000 0.375000 1.000000
0.581250 0.375000 1.000000
0.697500 0.375000 1.000000
0.813750 0.375000 1.000000
0.930000 0.375000 1.000000
0.000000 0.500000 1.000000
0.116250 0.500000 1.000000
0.232500 0.500000 1.000000
0.348750 0.500000 1.000000
0.465000 0.500000 1.000000
0.581250 0.500000 1.000000
0.697500 0.500000 1.000000
0.813750 0.500000 1.000000
0.930000 0.500000 1.000000
0.000000 0.625000 1.000000
0.116250 0.625000 1.000000
0.232500 0.625000 1.000000
0.348750 0.625000 1.000000
0.465000 0.625000 1.000000
0.581250 0.625000 1.000000
0.697500 0.625000 1.000000
0.813750 0.625000 1.000000
0.930000 0.625000 1.000000
0.000000 0.750000 1.000000
0.116250 0.750000 1.000000
0.232500 0.750000 1.000000
0.348750 0.750000 1.000000
0.465000 0.750000 1.000000
0.581250 0.750000 1.000000
0.697500 0.750000 1.000000
0.813750 0.750000 1.000000
0.930000 0.750000 1.000000
0.000000 0.875000 1.000000
0.116250 0.875000 1.000000
0.232500 0.875000 1.000000
0.348750 0.875000 1.000000
0.465000 0.875000 1.000000
0.581250 0.875000 1.000000
0.697500 0.875000 1.000000
0.813750 0.875000 1.000000
0.930000 0.875000 1.000000
0.000000 1.000000 1.000000
0.116250 1.000000 1.000000
0.232500 1.000000 1.000000
0.348750 1.000000 1.000000
0.465000 1.000000 1.000000
0.581250 1.000000 1.000000
0.697500 1.000000 1.000000
0.813750 1.000000 1.000000
0.930000 1.000000 1.000000
