presets/luts/cool.cube
# cool — bundled look for apply_lut/list_luts
LUT_3D_SIZE 17
0.000000 0.000000 0.020000
0.058125 0.000000 0.020000
0.116250 0.000000 0.020000
0.174375 0.000000 0.020000
0.232500 0.000000 0.020000
0.290625 0.000000 0.020000
0.348750 0.000000 0.020000
0.406875 0.000000 0.020000
0.465000 0.000000 0.020000
0.523125 0.000000 0.020000
0.581250 0.000000 0.020000
0.639375 0.000000 0.020000
0.697500 0.000000 0.020000
0.755625 0.000000 0.020000
0.813750 0.000000 0.020000
0.871875 0.000000 0.020000
0.930000 0.000000 0.020000
0.000000 0.062500 0.020000
0.058125 0.062500 0.020000
0.116250 0.062500 0.020000
0.174375 0.062500 0.020000
0.232500 0.062500 0.020000
0.290625 0.062500 0.020000
0.348750 0.062500 0.020000
0.406875 0.062500 0.020000
0.465000 0.062500 0.020000
0.523125 0.062500 0.020000
0.581250 0.062500 0.020000
0.639375 0.062500 0.020000
0.697500 0.062500 0.020000
0.755625 0.062500 0.020000
0.813750 0.062500 0.020000
0.871875 0.062500 0.020000
0.930000 0.062500 0.020000
0.000000 0.125000 0.020000
0.058125 0.125000 0.020000
0.116250 0.125000 0.020000
0.174375 0.125000 0.020000
0.232500 0.125000 0.020000
0.290625 0.125000 0.020000
0.348750 0.125000 0.020000
0.406875 0.125000 0.020000
0.465000 0.125000 0.020000
0.523125 0.125000 0.020000
0.581250 0.125000 0.020000
0.639375 0.125000 0.020000
0.697500 0.125000 0.020000
0.755625 0.125000 0.020000
0.813750 0.125000 0.020000
0.871875 0.125000 0.020000
0.930000 0.125000 0.020000
0.000000 0.187500 0.020000
0.058125 0.187500 0.020000
0.116250 0.187500 0.020000
0.174375 0.187500 0.020000
0.232500 0.187500 0.020000
0.290625 0.187500 0.020000
0.348750 0.187500 0.020000
0.406875 0.187500 0.020000
0.465000 0.187500 0.020000
0.523125 0.187500 0.020000
0.581250 0.187500 0.020000
0.639375 0.187500 0.020000
0.697500 0.187500 0.020000
0.755625 0.187500 0.020000
0.813750 0.187500 0.020000
0.871875 0.187500 0.020000
0.930000 0.187500 0.020000
0.000000 0.250000 0.020000
0.058125 0.250000 0.020000
0.116250 0.250000 0.020000
0.174375 0.250000 0.020000
0.232500 0.250000 0.020000
0.290625 0.250000 0.020000
0.348750 0.250000 0.020000
0.406875 0.250000 0.020000
0.465000 0.250000 0.020000
0.523125 0.250000 0.020000
0.581250 0.250000 0.020000
0.639375 0.250000 0.020000
0.697500 0.250000 0.020000
0.755625 0.250000 0.020000
0.813750 0.250000 0.020000
0.871875 0.250000 0.020000
0.930000 0.250000 0.020000
0.000000 0.312500 0.020000
0.058125 0.312500 0.020000
0.116250 0.312500 0.020000
0.174375 0.312500 0.020000
0.232500 0.312500 0.020000
0.290625 0.312500 0.020000
0.348750 0.312500 0.020000
0.406875 0.312500 0.020000
0.465000 0.312500 0.020000
0.523125 0.312500 0.020000
0.581250 0.312500 0.020000
0.639375 0.312500 0.020000
0.697500 0.312500 0.020000
0.755625 0.312500 0.020000
0.813750 0.312500 0.020000
0.871875 0.312500 0.020000
0.930000 0.312500 0.020000
0.000000 0.375000 0.020000
0.058125 0.375000 0.020000
0.116250 0.375000 0.020000
0.174375 0.375000 0.020000
0.232500 0.375000 0.020000
0.290625 0.375000 0.020000
0.348750 0.375000 0.020000
0.406875 0.375000 0.020000
0.465000 0.375000 0.020000
0.523125 0.375000 0.020000
0.581250 0.375000 0.020000
0.639375 0.375000 0.020000
0.697500 0.375000 0.020000
0.755625 0.375000 0.020000
0.813750 0.375000 0.020000
0.871875 0.375000 0.020000
0.930000 0.375000 0.020000
0.000000 0.437500 0.020000
0.058125 0.437500 0.020000
0.116250 0.437500 0.020000
0.174375 0.437500 0.020000
0.232500 0.437500 0.020000
0.290625 0.437500 0.020000
0.348750 0.437500 0.020000
0.406875 0.437500 0.020000
0.465000 0.437500 0.020000
0.523125 0.437500 0.020000
0.581250 0.437500 0.020000
0.639375 0.437500 0.020000
0.697500 0.437500 0.020000
0.755625 0.437500 0.020000
0.813750 0.437500 0.020000
0.871875 0.437500 0.020000
0.930000 0.437500 0.020000
0.000000 0.500000 0.020000
0.058125 0.500000 0.020000
0.116250 0.500000 0.020000
0.174375 0.500000 0.020000
0.232500 0.500000 0.020000
0.290625 0.500000 0.020000
0.348750 0.500000 0.020000
0.406875 0.500000 0.020000
0.465000 0.500000 0.020000
0.523125 0.500000 0.020000
0.581250 0.500000 0.020000
0.639375 0.500000 0.020000
0.697500 0.500000 0.020000
0.755625 0.500000 0.020000
0.813750 0.500000 0.020000
0.871875 0.500000 0.020000
0.930000 0.500000 0.020000
0.000000 0.562500 0.020000
0.058125 0.562500 0.020000
0.116250 0.562500 0.020000
0.174375 0.562500 0.020000
0.232500 0.562500 0.020000
0.290625 0.562500 0.020000
0.348750 0.562500 0.020000
0.406875 0.562500 0.020000
0.465000 0.562500 0.020000
0.523125 0.562500 0.020000
0.581250 0.562500 0.020000
0.639375 0.562500 0.020000
0.697500 0.562500 0.020000
0.755625 0.562500 0.020000
0.813750 0.562500 0.020000
0.871875 0.562500 0.020000
0.930000 0.562500 0.020000
0.000000 0.625000 0.020000
0.058125 0.625000 0.020000
0.116250 0.625000 0.020000
0.174375 0.625000 0.020000
0.232500 0.625000 0.020000
0.290625 0.625000 0.020000
0.348750 0.625000 0.020000
0.406875 0.625000 0.020000
0.465000 0.625000 0.020000
0.523125 0.625000 0.020000
0.581250 0.625000 0.020000
0.639375 0.625000 0.020000
0.697500 0.625000 0.020000
0.755625 0.625000 0.020000
0.813750 0.625000 0.020000
0.871875 0.625000 0.020000
0.930000 0.625000 0.020000
0.000000 0.687500 0.020000
0.058125 0.687500 0.020000
0.116250 0.687500 0.020000
0.174375 0.687500 0.020000
0.232500 0.687500 0.020000
0.290625 0.687500 0.020000
0.348750 0.687500 0.020000
0.406875 0.687500 0.020000
0.465000 0.687500 0.020000
0.523125 0.687500 0.020000
0.581250 0.687500 0.020000
0.639375 0.687500 0.020000
0.697500 0.687500 0.020000
0.755625 0.687500 0.020000
0.813750 0.687500 0.020000
0.871875 0.687500 0.020000
0.930000 0.687500 0.020000
0.000000 0.750000 0.020000
0.058125 0.750000 0.020000
0.116250 0.750000 0.020000
0.174375 0.750000 0.020000
0.232500 0.750000 0.020000
0.290625 0.750000 0.020000
0.348750 0.750000 0.020000
0.406875 0.750000 0.020000
0.465000 0.750000 0.020000
0.523125 0.750000 0.020000
0.581250 0.750000 0.020000
0.639375 0.750000 0.020000
0.697500 0.750000 0.020000
0.755625 0.750000 0.020000
0.813750 0.750000 0.020000
0.871875 0.750000 0.020000
0.930000 0.750000 0.020000
0.000000 0.812500 0.020000
0.058125 0.812500 0.020000
0.116250 0.812500 0.020000
0.174375 0.812500 0.020000
0.232500 0.812500 0.020000
0.290625 0.812500 0.020000
0.348750 0.812500 0.020000
0.406875 0.812500 0.020000
0.465000 0.812500 0.020000
0.523125 0.812500 0.020000
0.581250 0.812500 0.020000
0.639375 0.812500 0.020000
0.697500 0.812500 0.020000
0.755625 0.812500 0.020000
0.813750 0.812500 0.020000
0.871875 0.812500 0.020000
0.930000 0.812500 0.020000
0.000000 0.875000 0.020000
0.058125 0.875000 0.020000
0.116250 0.875000 0.020000
0.174375 0.875000 0.020000
0.232500 0.875000 0.020000
0.290625 0.875000 0.020000
0.348750 0.875000 0.020000
0.406875 0.875000 0.020000
0.465000 0.875000 0.020000
0.523125 0.875000 0.020000
0.581250 0.875000 0.020000
0.639375 0.875000 0.020000
0.697500 0.875000 0.020000
0.755625 0.875000 0.020000
0.813750 0.875000 0.020000
0.871875 0.875000 0.020000
0.930000 0.875000 0.020000
0.000000 0.937500 0.020000
0.058125 0.937500 0.020000
0.116250 0.937500 0.020000
0.174375 0.937500 0.020000
0.232500 0.937500 0.020000
0.290625 0.937500 0.020000
0.348750 0.937500 0.020000
0.406875 0.937500 0.020000
0.465000 0.937500 0.020000
0.523125 0.937500 0.020000
0.581250 0.937500 0.020000
0.639375 0.937500 0.020000
0.697500 0.937500 0.020000
0.755625 0.937500 0.020000
0.813750 0.937500 0.020000
0.871875 0.937500 0.020000
0.930000 0.937500 0.020000
0.000000 1.000000 0.020000
0.058125 1.000000 0.020000
0.116250 1.000000 0.020000
0.174375 1.000000 0.020000
0.232500 1.000000 0.020000
0.290625 1.000000 0.020000
0.348750 1.000000 0.020000
0.406875 1.000000 0.020000
0.465000 1.000000 0.020000
0.523125 1.000000 0.020000
0.581250 1.000000 0.020000
0.639375 1.000000 0.020000
0.697500 1.000000 0.020000
0.755625 1.000000 0.020000
0.813750 1.000000 0.020000
0.871875 1.000000 0.020000
0.930000 1.000000 0.020000
0.000000 0.000000 0.086250
0.058125 0.000000 0.086250
0.116250 0.000000 0.086250
0.174375 0.000000 0.086250
0.232500 0.000000 0.086250
0.290625 0.000000 0.086250
0.348750 0.000000 0.086250
0.406875 0.000000 0.086250
0.465000 0.000000 0.086250
0.523125 0.000000 0.086250
0.581250 0.000000 0.086250
0.639375 0.000000 0.086250
0.697500 0.000000 0.086250
0.755625 0.000000 0.086250
0.813750 0.000000 0.086250
0.871875 0.000000 0.086250
0.930000 0.000000 0.086250
0.000000 0.062500 0.086250
0.058125 0.062500 0.086250
0.116250 0.062500 0.086250
0.174375 0.062500 0.086250
0.232500 0.062500 0.086250
0.290625 0.062500 0.086250
0.348750 0.062500 0.086250
0.406875 0.062500 0.086250
0.465000 0.062500 0.086250
0.523125 0.062500 0.086250
0.581250 0.062500 0.086250
0.639375 0.062500 0.086250
0.697500 0.062500 0.086250
0.755625 0.062500 0.086250
0.813750 0.062500 0.086250
0.871875 0.062500 0.086250
0.930000 0.062500 0.086250
0.000000 0.125000 0.086250
0.058125 0.125000 0.086250
0.116250 0.125000 0.086250
0.174375 0.125000 0.086250
0.232500 0.125000 0.086250
0.290625 0.125000 0.086250
0.348750 0.125000 0.086250
0.406875 0.125000 0.086250
0.465000 0.125000 0.086250
0.523125 0.125000 0.086250
0.581250 0.125000 0.086250
0.639375 0.125000 0.086250
0.697500 0.125000 0.086250
0.755625 0.125000 0.086250
0.813750 0.125000 0.086250
0.871875 0.125000 0.086250
0.930000 0.125000 0.086250
0.000000 0.187500 0.086250
0.058125 0.187500 0.086250
0.116250 0.187500 0.086250
0.174375 0.187500 0.086250
0.232500 0.187500 0.086250
0.290625 0.187500 0.086250
0.348750 0.187500 0.086250
0.406875 0.187500 0.086250
0.465000 0.187500 0.086250
0.523125 0.187500 0.086250
0.581250 0.187500 0.086250
0.639375 0.187500 0.086250
0.697500 0.187500 0.086250
0.755625 0.187500 0.086250
0.813750 0.187500 0.086250
0.871875 0.187500 0.086250
0.930000 0.187500 0.086250
0.000000 0.250000 0.086250
0.058125 0.250000 0.086250
0.116250 0.250000 0.086250
0.174375 0.250000 0.086250
0.232500 0.250000 0.086250
0.290625 0.250000 0.086250
0.348750 0.250000 0.086250
0.406875 0.250000 0.086250
0.465000 0.250000 0.086250
0.523125 0.250000 0.086250
0.581250 0.250000 0.086250
0.639375 0.250000 0.086250
0.697500 0.250000 0.086250
0.755625 0.250000 0.086250
0.813750 0.250000 0.086250
0.871875 0.250000 0.086250
0.930000 0.250000 0.086250
0.000000 0.312500 0.086250
0.058125 0.312500 0.086250
0.116250 0.312500 0.086250
0.174375 0.312500 0.086250
0.232500 0.312500 0.086250
0.290625 0.312500 0.086250
0.348750 0.312500 0.086250
0.406875 0.312500 0.086250
0.465000 0.312500 0.086250
0.523125 0.312500 0.086250
0.581250 0.312500 0.086250
0.639375 0.312500 0.086250
0.697500 0.312500 0.086250
0.755625 0.312500 0.086250
0.813750 0.312500 0.086250
0.871875 0.312500 0.086250
0.930000 0.312500 0.086250
0.000000 0.375000 0.086250
0.058125 0.375000 0.086250
0.116250 0.375000 0.086250
0.174375 0.375000 0.086250
0.232500 0.375000 0.086250
0.290625 0.375000 0.086250
0.348750 0.375000 0.086250
0.406875 0.375000 0.086250
0.465000 0.375000 0.086250
0.523125 0.375000 0.086250
0.581250 0.375000 0.086250
0.639375 0.375000 0.086250
0.697500 0.375000 0.086250
0.755625 0.375000 0.086250
0.813750 0.375000 0.086250
0.871875 0.375000 0.086250
0.930000 0.375000 0.086250
0.000000 0.437500 0.086250
0.058125 0.437500 0.086250
0.116250 0.437500 0.086250
0.174375 0.437500 0.086250
0.232500 0.437500 0.086250
0.290625 0.437500 0.086250
0.348750 0.437500 0.086250
0.406875 0.437500 0.086250
0.465000 0.437500 0.086250
0.523125 0.437500 0.086250
0.581250 0.437500 0.086250
0.639375 0.437500 0.086250
0.697500 0.437500 0.086250
0.755625 0.437500 0.086250
0.813750 0.437500 0.086250
0.871875 0.437500 0.086250
0.930000 0.437500 0.086250
0.000000 0.500000 0.086250
0.058125 0.500000 0.086250
0.116250 0.500000 0.086250
0.174375 0.500000 0.086250
0.232500 0.500000 0.086250
0.290625 0.500000 0.086250
0.348750 0.500000 0.086250
0.406875 0.500000 0.086250
0.465000 0.500000 0.086250
0.523125 0.500000 0.086250
0.581250 0.500000 0.086250
0.639375 0.500000 0.086250
0.697500 0.500000 0.086250
0.755625 0.500000 0.086250
0.813750 0.500000 0.086250
0.871875 0.500000 0.086250
0.930000 0.500000 0.086250
0.000000 0.562500 0.086250
0.058125 0.562500 0.086250
0.116250 0.562500 0.086250
0.174375 0.562500 0.086250
0.232500 0.562500 0.086250
0.290625 0.562500 0.086250
0.348750 0.562500 0.086250
0.406875 0.562500 0.086250
0.465000 0.562500 0.086250
0.523125 0.562500 0.086250
0.581250 0.562500 0.086250
0.639375 0.562500 0.086250
0.697500 0.562500 0.086250
0.755625 0.562500 0.086250
0.813750 0.562500 0.086250
0.871875 0.562500 0.086250
0.930000 0.562500 0.086250
0.000000 0.625000 0.086250
0.058125 0.625000 0.086250
0.116250 0.625000 0.086250
0.174375 0.625000 0.086250
0.232500 0.625000 0.086250
0.290625 0.625000 0.086250
0.348750 0.625000 0.086250
0.406875 0.625000 0.086250
0.465000 0.625000 0.086250
0.523125 0.625000 0.086250
0.581250 0.625000 0.086250
0.639375 0.625000 0.086250
0.697500 0.625000 0.086250
0.755625 0.625000 0.086250
0.813750 0.625000 0.086250
0.871875 0.625000 0.086250
0.930000 0.625000 0.086250
0.000000 0.687500 0.086250
0.058125 0.687500 0.086250
0.116250 0.687500 0.086250
0.174375 0.687500 0.086250
0.232500 0.687500 0.086250
0.290625 0.687500 0.086250
0.348750 0.687500 0.086250
0.406875 0.687500 0.086250
0.465000 0.687500 0.086250
0.523125 0.687500 0.086250
0.581250 0.687500 0.086250
0.639375 0.687500 0.086250
0.697500 0.687500 0.086250
0.755625 0.687500 0.086250
0.813750 0.687500 0.086250
0.871875 0.687500 0.086250
0.930000 0.687500 0.086250
0.000000 0.750000 0.086250
0.058125 0.750000 0.086250
0.116250 0.750000 0.086250
0.174375 0.750000 0.086250
0.232500 0.750000 0.086250
0.290625 0.750000 0.086250
0.348750 0.750000 0.086250
0.406875 0.750000 0.086250
0.465000 0.750000 0.086250
0.523125 0.750000 0.086250
0.581250 0.750000 0.086250
0.639375 0.750000 0.086250
0.697500 0.750000 0.086250
0.755625 0.750000 0.086250
0.813750 0.750000 0.086250
0.871875 0.750000 0.086250
0.930000 0.750000 0.086250
0.000000 0.812500 0.086250
0.058125 0.812500 0.086250
0.116250 0.812500 0.086250
0.174375 0.812500 0.086250
0.232500 0.812500 0.086250
0.290625 0.812500 0.086250
0.348750 0.812500 0.086250
0.406875 0.812500 0.086250
0.465000 0.812500 0.086250
0.523125 0.812500 0.086250
0.581250 0.812500 0.086250
0.639375 0.812500 0.086250
0.697500 0.812500 0.086250
0.755625 0.812500 0.086250
0.813750 0.812500 0.086250
0.871875 0.812500 0.086250
0.930000 0.812500 0.086250
0.000000 0.875000 0.086250
0.058125 0.875000 0.086250
0.116250 0.875000 0.086250
0.174375 0.875000 0.086250
0.232500 0.875000 0.086250
0.290625 0.875000 0.086250
0.348750 0.875000 0.086250
0.406875 0.875000 0.086250
0.465000 0.875000 0.086250
0.523125 0.875000 0.086250
0.581250 0.875000 0.086250
0.639375 0.875000 0.086250
0.697500 0.875000 0.086250
0.755625 0.875000 0.086250
0.813750 0.875000 0.086250
0.871875 0.875000 0.086250
0.930000 0.875000 0.086250
0.000000 0.937500 0.086250
0.058125 0.937500 0.086250
0.116250 0.937500 0.086250
0.174375 0.937500 0.086250
0.232500 0.937500 0.086250
0.290625 0.937500 0.086250
0.348750 0.937500 0.086250
0.406875 0.937500 0.086250
0.465000 0.937500 0.086250
0.523125 0.937500 0.086250
0.581250 0.937500 0.086250
0.639375 0.937500 0.086250
0.697500 0.937500 0.086250
0.755625 0.937500 0.086250
0.813750 0.937500 0.086250
0.871875 0.937500 0.086250
0.930000 0.937500 0.086250
0.000000 1.000000 0.086250
0.058125 1.000000 0.086250
0.116250 1.000000 0.086250
0.174375 1.000000 0.086250
0.232500 1.000000 0.086250
0.290625 1.000000 0.086250
0.348750 1.000000 0.086250
0.406875 1.000000 0.086250
0.465000 1.000000 0.086250
0.523125 1.000000 0.086250
0.581250 1.000000 0.086250
0.639375 1.000000 0.086250
0.697500 1.000000 0.086250
0.755625 1.000000 0.086250
0.813750 1.000000 0.086250
0.871875 1.000000 0.086250
0.930000 1.000000 0.086250
0.000000 0.000000 0.152500
0.058125 0.000000 0.152500
0.116250 0.000000 0.152500
0.174375 0.000000 0.152500
0.232500 0.000000 0.152500
0.290625 0.000000 0.152500
0.348750 0.000000 0.152500
0.406875 0.000000 0.152500
0.465000 0.000000 0.152500
0.523125 0.000000 0.152500
0.581250 0.000000 0.152500
0.639375 0.000000 0.152500
0.697500 0.000000 0.152500
0.755625 0.000000 0.152500
0.813750 0.000000 0.152500
0.871875 0.000000 0.152500
0.930000 0.000000 0.152500
0.000000 0.062500 0.152500
0.058125 0.062500 0.152500
0.116250 0.062500 0.152500
0.174375 0.062500 0.152500
0.232500 0.062500 0.152500
0.290625 0.062500 0.152500
0.348750 0.062500 0.152500
0.406875 0.062500 0.152500
0.465000 0.062500 0.152500
0.523125 0.062500 0.152500
0.581250 0.062500 0.152500
0.639375 0.062500 0.152500
0.697500 0.062500 0.152500
0.755625 0.062500 0.152500
0.813750 0.062500 0.152500
0.871875 0.062500 0.152500
0.930000 0.062500 0.152500
0.000000 0.125000 0.152500
0.058125 0.125000 0.152500
0.116250 0.125000 0.152500
0.174375 0.125000 0.152500
0.232500 0.125000 0.152500
0.290625 0.125000 0.152500
0.348750 0.125000 0.152500
0.406875 0.125000 0.152500
0.465000 0.125000 0.152500
0.523125 0.125000 0.152500
0.581250 0.125000 0.152500
0.639375 0.125000 0.152500
0.697500 0.125000 0.152500
0.755625 0.125000 0.152500
0.813750 0.125000 0.152500
0.871875 0.125000 0.152500
0.930000 0.125000 0.152500
0.000000 0.187500 0.152500
0.058125 0.187500 0.152500
0.116250 0.187500 0.152500
0.174375 0.187500 0.152500
0.232500 0.187500 0.152500
0.290625 0.187500 0.152500
0.348750 0.187500 0.152500
0.406875 0.187500 0.152500
0.465000 0.187500 0.152500
0.523125 0.187500 0.152500
0.581250 0.187500 0.152500
0.639375 0.187500 0.152500
0.697500 0.187500 0.152500
0.755625 0.187500 0.152500
0.813750 0.187500 0.152500
0.871875 0.187500 0.152500
0.930000 0.187500 0.152500
0.000000 0.250000 0.152500
0.058125 0.250000 0.152500
0.116250 0.250000 0.152500
0.174375 0.250000 0.152500
0.232500 0.250000 0.152500
0.290625 0.250000 0.152500
0.348750 0.250000 0.152500
0.406875 0.250000 0.152500
0.465000 0.250000 0.152500
0.523125 0.250000 0.152500
0.581250 0.250000 0.152500
0.639375 0.250000 0.152500
0.697500 0.250000 0.152500
0.755625 0.250000 0.152500
0.813750 0.250000 0.152500
0.871875 0.250000 0.152500
0.930000 0.250000 0.152500
0.000000 0.312500 0.152500
0.058125 0.312500 0.152500
0.116250 0.312500 0.152500
0.174375 0.312500 0.152500
0.232500 0.312500 0.152500
0.290625 0.312500 0.152500
0.348750 0.312500 0.152500
0.406875 0.312500 0.152500
0.465000 0.312500 0.152500
0.523125 0.312500 0.152500
0.581250 0.312500 0.152500
0.639375 0.312500 0.152500
0.697500 0.312500 0.152500
0.755625 0.312500 0.152500
0.813750 0.312500 0.152500
0.871875 0.312500 0.152500
0.930000 0.312500 0.152500
0.000000 0.375000 0.152500
0.058125 0.375000 0.152500
0.116250 0.375000 0.152500
0.174375 0.375000 0.152500
0.232500 0.375000 0.152500
0.290625 0.375000 0.152500
0.348750 0.375000 0.152500
0.406875 0.375000 0.152500
0.465000 0.375000 0.152500
0.523125 0.375000 0.152500
0.581250 0.375000 0.152500
0.639375 0.375000 0.152500
0.697500 0.375000 0.152500
0.755625 0.375000 0.152500
0.813750 0.375000 0.152500
0.871875 0.375000 0.152500
0.930000 0.375000 0.152500
0.000000 0.437500 0.152500
0.058125 0.437500 0.152500
0.116250 0.437500 0.152500
0.174375 0.437500 0.152500
0.232500 0.437500 0.152500
0.290625 0.437500 0.152500
0.348750 0.437500 0.152500
0.406875 0.437500 0.152500
0.465000 0.437500 0.152500
0.523125 0.437500 0.152500
0.581250 0.437500 0.152500
0.639375 0.437500 0.152500
0.697500 0.437500 0.152500
0.755625 0.437500 0.152500
0.813750 0.437500 0.152500
0.871875 0.437500 0.152500
0.930000 0.437500 0.152500
0.000000 0.500000 0.152500
0.058125 0.500000 0.152500
0.116250 0.500000 0.152500
0.174375 0.500000 0.152500
0.232500 0.500000 0.152500
0.290625 0.500000 0.152500
0.348750 0.500000 0.152500
0.406875 0.500000 0.152500
0.465000 0.500000 0.152500
0.523125 0.500000 0.152500
0.581250 0.500000 0.152500
0.639375 0.500000 0.152500
0.697500 0.500000 0.152500
0.755625 0.500000 0.152500
0.813750 0.500000 0.152500
0.871875 0.500000 0.152500
0.930000 0.500000 0.152500
0.000000 0.562500 0.152500
0.058125 0.562500 0.152500
0.116250 0.562500 0.152500
0.174375 0.562500 0.152500
0.232500 0.562500 0.152500
0.290625 0.562500 0.152500
0.348750 0.562500 0.152500
0.406875 0.562500 0.152500
0.465000 0.562500 0.152500
0.523125 0.562500 0.152500
0.581250 0.562500 0.152500
0.639375 0.562500 0.152500
0.697500 0.562500 0.152500
0.755625 0.562500 0.152500
0.813750 0.562500 0.152500
0.871875 0.562500 0.152500
0.930000 0.562500 0.152500
0.000000 0.625000 0.152500
0.058125 0.625000 0.152500
0.116250 0.625000 0.152500
0.174375 0.625000 0.152500
0.232500 0.625000 0.152500
0.290625 0.625000 0.152500
0.348750 0.625000 0.152500
0.406875 0.625000 0.152500
0.465000 0.625000 0.152500
0.523125 0.625000 0.152500
0.581250 0.625000 0.152500
0.639375 0.625000 0.152500
0.697500 0.625000 0.152500
0.755625 0.625000 0.152500
0.813750 0.625000 0.152500
0.871875 0.625000 0.152500
0.930000 0.625000 0.152500
0.000000 0.687500 0.152500
0.058125 0.687500 0.152500
0.116250 0.687500 0.152500
0.174375 0.687500 0.152500
0.232500 0.687500 0.152500
0.290625 0.687500 0.152500
0.348750 0.687500 0.152500
0.406875 0.687500 0.152500
0.465000 0.687500 0.152500
0.523125 0.687500 0.152500
0.581250 0.687500 0.152500
0.639375 0.687500 0.152500
0.697500 0.687500 0.152500
0.755625 0.687500 0.152500
0.813750 0.687500 0.152500
0.871875 0.687500 0.152500
0.930000 0.687500 0.152500
0.000000 0.750000 0.152500
0.058125 0.750000 0.152500
0.116250 0.750000 0.152500
0.174375 0.750000 0.152500
0.232500 0.750000 0.152500
0.290625 0.750000 0.152500
0.348750 0.750000 0.152500
0.406875 0.750000 0.152500
0.465000 0.750000 0.152500
0.523125 0.750000 0.152500
0.581250 0.750000 0.152500
0.639375 0.750000 0.152500
0.697500 0.750000 0.152500
0.755625 0.750000 0.152500
0.813750 0.750000 0.152500
0.871875 0.750000 0.152500
0.930000 0.750000 0.152500
0.000000 0.812500 0.152500
0.058125 0.812500 0.152500
0.116250 0.812500 0.152500
0.174375 0.812500 0.152500
0.232500 0.812500 0.152500
0.290625 0.812500 0.152500
0.348750 0.812500 0.152500
0.406875 0.812500 0.152500
0.465000 0.812500 0.152500
0.523125 0.812500 0.152500
0.581250 0.812500 0.152500
0.639375 0.812500 0.152500
0.697500 0.812500 0.152500
0.755625 0.812500 0.152500
0.813750 0.812500 0.152500
0.871875 0.812500 0.152500
0.930000 0.812500 0.152500
0.000000 0.875000 0.152500
0.058125 0.875000 0.152500
0.116250 0.875000 0.152500
0.174375 0.875000 0.152500
0.232500 0.875000 0.152500
0.290625 0.875000 0.152500
0.348750 0.875000 0.152500
0.406875 0.875000 0.152500
0.465000 0.875000 0.152500
0.523125 0.875000 0.152500
0.581250 0.875000 0.152500
0.639375 0.875000 0.152500
0.697500 0.875000 0.152500
0.755625 0.875000 0.152500
0.813750 0.875000 0.152500
0.871875 0.875000 0.152500
0.930000 0.875000 0.152500
0.000000 0.937500 0.152500
0.058125 0.937500 0.152500
0.116250 0.937500 0.152500
0.174375 0.937500 0.152500
0.232500 0.937500 0.152500
0.290625 0.937500 0.152500
0.348750 0.937500 0.152500
0.406875 0.937500 0.152500
0.465000 0.937500 0.152500
0.523125 0.937500 0.152500
0.581250 0.937500 0.152500
0.639375 0.937500 0.152500
0.697500 0.937500 0.152500
0.755625 0.937500 0.152500
0.813750 0.937500 0.152500
0.871875 0.937500 0.152500
0.930000 0.937500 0.152500
0.000000 1.000000 0.152500
0.058125 1.000000 0.152500
0.116250 1.000000 0.152500
0.174375 1.000000 0.152500
0.232500 1.000000 0.152500
0.290625 1.000000 0.152500
0.348750 1.000000 0.152500
0.406875 1.000000 0.152500
0.465000 1.000000 0.152500
0.523125 1.000000 0.152500
0.581250 1.000000 0.152500
0.639375 1.000000 0.152500
0.697500 1.000000 0.152500
0.755625 1.000000 0.152500
0.813750 1.000000 0.152500
0.871875 1.000000 0.152500
0.930000 1.000000 0.152500
0.000000 0.000000 0.218750
0.058125 0.000000 0.218750
0.116250 0.000000 0.218750
0.174375 0.000000 0.218750
0.232500 0.000000 0.218750
0.290625 0.000000 0.218750
0.348750 0.000000 0.218750
0.406875 0.000000 0.218750
0.465000 0.000000 0.218750
0.523125 0.000000 0.218750
0.581250 0.000000 0.218750
0.639375 0.000000 0.218750
0.697500 0.000000 0.218750
0.755625 0.000000 0.218750
0.813750 0.000000 0.218750
0.871875 0.000000 0.218750
0.930000 0.000000 0.218750
0.000000 0.062500 0.218750
0.058125 0.062500 0.218750
