presets/luts/faded.cube
# faded — bundled look for apply_lut/list_luts
LUT_3D_SIZE 17
0.050000 0.050000 0.050000
0.100709 0.051834 0.051834
0.151417 0.053667 0.053667
0.202126 0.055501 0.055501
0.252835 0.057335 0.057335
0.303543 0.059168 0.059168
0.354252 0.061002 0.061002
0.404961 0.062836 0.062836
0.455669 0.064669 0.064669
0.506378 0.066503 0.066503
0.557087 0.068337 0.068337
0.607795 0.070170 0.070170
0.658504 0.072004 0.072004
0.709213 0.073838 0.073838
0.759921 0.075671 0.075671
0.810630 0.077505 0.077505
0.861339 0.079339 0.079339
0.056169 0.105044 0.056169
0.106877 0.106877 0.058002
0.157586 0.108711 0.059836
0.208295 0.110545 0.061670
0.259003 0.112378 0.063503
0.309712 0.114212 0.065337
0.360421 0.116046 0.067171
0.411129 0.117879 0.069004
0.461838 0.119713 0.070838
0.512547 0.121547 0.072672
0.563255 0.123380 0.074505
0.613964 0.125214 0.076339
0.664673 0.127048 0.078173
0.715381 0.128881 0.080006
0.766090 0.130715 0.081840
0.816799 0.132549 0.083674
0.867507 0.134382 0.085507
0.062337 0.160087 0.062337
0.113046 0.161921 0.064171
0.163755 0.163755 0.066005
0.214463 0.165588 0.067838
0.265172 0.167422 0.069672
0.315881 0.169256 0.071506
0.366589 0.171089 0.073339
0.417298 0.172923 0.075173
0.468007 0.174757 0.077007
0.518715 0.176590 0.078840
0.569424 0.178424 0.080674
0.620133 0.180258 0.082508
0.670841 0.182091 0.084341
0.721550 0.183925 0.086175
0.772259 0.185759 0.088009
0.822967 0.187592 0.089842
0.873676 0.189426 0.091676
0.068506 0.215131 0.068506
0.119214 0.216964 0.070339
0.169923 0.218798 0.072173
0.220632 0.220632 0.074007
0.271340 0.222465 0.075841
0.322049 0.224299 0.077674
0.372758 0.226133 0.079508
0.423467 0.227967 0.081342
0.474175 0.229800 0.083175
0.524884 0.231634 0.085009
0.575593 0.233468 0.086843
0.626301 0.235301 0.088676
0.677010 0.237135 0.090510
0.727719 0.238969 0.092344
0.778427 0.240802 0.094177
0.829136 0.242636 0.096011
0.879845 0.244470 0.097845
0.074674 0.270174 0.074674
0.125383 0.272008 0.076508
0.176092 0.273842 0.078342
0.226800 0.275675 0.080175
0.277509 0.277509 0.082009
0.328218 0.279343 0.083843
0.378926 0.281176 0.085676
0.429635 0.283010 0.087510
0.480344 0.284844 0.089344
0.531052 0.286677 0.091177
0.581761 0.288511 0.093011
0.632470 0.290345 0.094845
0.683179 0.292179 0.096679
0.733887 0.294012 0.098512
0.784596 0.295846 0.100346
0.835305 0.297680 0.102180
0.886013 0.299513 0.104013
0.080843 0.325218 0.080843
0.131552 0.327052 0.082677
0.182260 0.328885 0.084510
0.232969 0.330719 0.086344
0.283678 0.332553 0.088178
0.334386 0.334386 0.090011
0.385095 0.336220 0.091845
0.435804 0.338054 0.093679
0.486512 0.339887 0.095512
0.537221 0.341721 0.097346
0.587930 0.343555 0.099180
0.638638 0.345388 0.101013
0.689347 0.347222 0.102847
0.740056 0.349056 0.104681
0.790764 0.350889 0.106514
0.841473 0.352723 0.108348
0.892182 0.354557 0.110182
0.087012 0.380262 0.087012
0.137720 0.382095 0.088845
0.188429 0.383929 0.090679
0.239138 0.385763 0.092513
0.289846 0.387596 0.094346
0.340555 0.389430 0.096180
0.391264 0.391264 0.098014
0.441972 0.393097 0.099847
0.492681 0.394931 0.101681
0.543390 0.396765 0.103515
0.594098 0.398598 0.105348
0.644807 0.400432 0.107182
0.695516 0.402266 0.109016
0.746224 0.404099 0.110849
0.796933 0.405933 0.112683
0.847642 0.407767 0.114517
0.898350 0.409600 0.116350
0.093180 0.435305 0.093180
0.143889 0.437139 0.095014
0.194598 0.438973 0.096848
0.245306 0.440806 0.098681
0.296015 0.442640 0.100515
0.346724 0.444474 0.102349
0.397432 0.446307 0.104182
0.448141 0.448141 0.106016
0.498850 0.449975 0.107850
0.549558 0.451808 0.109683
0.600267 0.453642 0.111517
0.650976 0.455476 0.113351
0.701684 0.457309 0.115184
0.752393 0.459143 0.117018
0.803102 0.460977 0.118852
0.853810 0.462810 0.120685
0.904519 0.464644 0.122519
0.099349 0.490349 0.099349
0.150057 0.492182 0.101182
0.200766 0.494016 0.103016
0.251475 0.495850 0.104850
0.302183 0.497684 0.106683
0.352892 0.499517 0.108517
0.403601 0.501351 0.110351
0.454310 0.503185 0.112185
0.505018 0.505018 0.114018
0.555727 0.506852 0.115852
0.606436 0.508686 0.117686
0.657144 0.510519 0.119519
0.707853 0.512353 0.121353
0.758562 0.514187 0.123187
0.809270 0.516020 0.125020
0.859979 0.517854 0.126854
0.910688 0.519688 0.128688
0.105517 0.545392 0.105517
0.156226 0.547226 0.107351
0.206935 0.549060 0.109185
0.257643 0.550893 0.111018
0.308352 0.552727 0.112852
0.359061 0.554561 0.114686
0.409769 0.556394 0.116519
0.460478 0.558228 0.118353
0.511187 0.560062 0.120187
0.561895 0.561895 0.122020
0.612604 0.563729 0.123854
0.663313 0.565563 0.125688
0.714022 0.567396 0.127522
0.764730 0.569230 0.129355
0.815439 0.571064 0.131189
0.866148 0.572898 0.133023
0.916856 0.574731 0.134856
0.111686 0.600436 0.111686
0.162395 0.602270 0.113520
0.213103 0.604103 0.115353
0.263812 0.605937 0.117187
0.314521 0.607771 0.119021
0.365229 0.609604 0.120854
0.415938 0.611438 0.122688
0.466647 0.613272 0.124522
0.517355 0.615105 0.126355
0.568064 0.616939 0.128189
0.618773 0.618773 0.130023
0.669481 0.620606 0.131856
0.720190 0.622440 0.133690
0.770899 0.624274 0.135524
0.821607 0.626107 0.137357
0.872316 0.627941 0.139191
0.923025 0.629775 0.141025
0.117855 0.655480 0.117855
0.168563 0.657313 0.119688
0.219272 0.659147 0.121522
0.269981 0.660981 0.123356
0.320689 0.662814 0.125189
0.371398 0.664648 0.127023
0.422107 0.666482 0.128857
0.472815 0.668315 0.130690
0.523524 0.670149 0.132524
0.574233 0.671983 0.134358
0.624941 0.673816 0.136191
0.675650 0.675650 0.138025
0.726359 0.677484 0.139859
0.777067 0.679317 0.141692
0.827776 0.681151 0.143526
0.878485 0.682985 0.145360
0.929193 0.684818 0.147193
0.124023 0.710523 0.124023
0.174732 0.712357 0.125857
0.225441 0.714191 0.127691
0.276149 0.716024 0.129524
0.326858 0.717858 0.131358
0.377567 0.719692 0.133192
0.428275 0.721525 0.135025
0.478984 0.723359 0.136859
0.529693 0.725193 0.138693
0.580401 0.727026 0.140526
0.631110 0.728860 0.142360
0.681819 0.730694 0.144194
0.732527 0.732527 0.146027
0.783236 0.734361 0.147861
0.833945 0.736195 0.149695
0.884653 0.738028 0.151528
0.935362 0.739862 0.153362
0.130192 0.765567 0.130192
0.180900 0.767400 0.132025
0.231609 0.769234 0.133859
0.282318 0.771068 0.135693
0.333027 0.772902 0.137526
0.383735 0.774735 0.139360
0.434444 0.776569 0.141194
0.485153 0.778403 0.143028
0.535861 0.780236 0.144861
0.586570 0.782070 0.146695
0.637279 0.783904 0.148529
0.687987 0.785737 0.150362
0.738696 0.787571 0.152196
0.789405 0.789405 0.154030
0.840113 0.791238 0.155863
0.890822 0.793072 0.157697
0.941531 0.794906 0.159531
0.136360 0.820610 0.136360
0.187069 0.822444 0.138194
0.237778 0.824278 0.140028
0.288486 0.826111 0.141861
0.339195 0.827945 0.143695
0.389904 0.829779 0.145529
0.440612 0.831612 0.147362
0.491321 0.833446 0.149196
0.542030 0.835280 0.151030
0.592738 0.837113 0.152863
0.643447 0.838947 0.154697
0.694156 0.840781 0.156531
0.744864 0.842615 0.158364
0.795573 0.844448 0.160198
0.846282 0.846282 0.162032
0.896991 0.848116 0.163866
0.947699 0.849949 0.165699
0.142529 0.875654 0.142529
0.193238 0.877488 0.144363
0.243946 0.879321 0.146196
0.294655 0.881155 0.148030
0.345364 0.882989 0.149864
0.396072 0.884822 0.151697
0.446781 0.886656 0.153531
0.497490 0.888490 0.155365
0.548198 0.890323 0.157198
0.598907 0.892157 0.159032
0.649616 0.893991 0.160866
0.700324 0.895824 0.162699
0.751033 0.897658 0.164533
0.801742 0.899492 0.166367
0.852450 0.901325 0.168200
0.903159 0.903159 0.170034
0.953868 0.904993 0.171868
0.148698 0.930698 0.148698
0.199406 0.932531 0.150531
0.250115 0.934365 0.152365
0.300824 0.936199 0.154199
0.351532 0.938032 0.156032
0.402241 0.939866 0.157866
0.452950 0.941700 0.159700
0.503658 0.943533 0.161533
0.554367 0.945367 0.163367
0.605076 0.947201 0.165201
0.655784 0.949034 0.167034
0.706493 0.950868 0.168868
0.757202 0.952702 0.170702
0.807910 0.954535 0.172535
0.858619 0.956369 0.174369
0.909328 0.958203 0.176203
0.960036 0.960036 0.178036
0.050623 0.050623 0.099498
0.101331 0.052456 0.101331
0.152040 0.054290 0.103165
0.202749 0.056124 0.104999
0.253457 0.057957 0.106832
0.304166 0.059791 0.108666
0.354875 0.061625 0.110500
0.405583 0.063458 0.112333
0.456292 0.065292 0.114167
0.507001 0.067126 0.116001
0.557709 0.068959 0.117834
0.608418 0.070793 0.119668
0.659127 0.072627 0.121502
0.709835 0.074461 0.123336
0.760544 0.076294 0.125169
0.811253 0.078128 0.127003
0.861962 0.079962 0.128837
0.056791 0.105666 0.105666
0.107500 0.107500 0.107500
0.158209 0.109334 0.109334
0.208917 0.111167 0.111167
0.259626 0.113001 0.113001
0.310335 0.114835 0.114835
0.361043 0.116668 0.116668
0.411752 0.118502 0.118502
0.462461 0.120336 0.120336
0.513169 0.122169 0.122169
0.563878 0.124003 0.124003
0.614587 0.125837 0.125837
0.665295 0.127670 0.127670
0.716004 0.129504 0.129504
0.766713 0.131338 0.131338
0.817421 0.133171 0.133171
0.868130 0.135005 0.135005
0.062960 0.160710 0.111835
0.113669 0.162544 0.113669
0.164377 0.164377 0.115502
0.215086 0.166211 0.117336
0.265795 0.168045 0.119170
0.316503 0.169878 0.121003
0.367212 0.171712 0.122837
0.417921 0.173546 0.124671
0.468629 0.175379 0.126504
0.519338 0.177213 0.128338
0.570047 0.179047 0.130172
0.620755 0.180880 0.132005
0.671464 0.182714 0.133839
0.722173 0.184548 0.135673
0.772881 0.186381 0.137506
0.823590 0.188215 0.139340
0.874299 0.190049 0.141174
0.069129 0.215754 0.118004
0.119837 0.217587 0.119837
0.170546 0.219421 0.121671
0.221255 0.221255 0.123505
0.271963 0.223088 0.125338
0.322672 0.224922 0.127172
0.373381 0.226756 0.129006
0.424089 0.228589 0.130839
0.474798 0.230423 0.132673
0.525507 0.232257 0.134507
0.576215 0.234090 0.136340
0.626924 0.235924 0.138174
0.677633 0.237758 0.140008
0.728341 0.239591 0.141841
0.779050 0.241425 0.143675
0.829759 0.243259 0.145509
0.880467 0.245092 0.147342
0.075297 0.270797 0.124172
0.126006 0.272631 0.126006
0.176714 0.274464 0.127839
0.227423 0.276298 0.129673
0.278132 0.278132 0.131507
0.328841 0.279965 0.133341
0.379549 0.281799 0.135174
0.430258 0.283633 0.137008
0.480967 0.285467 0.138842
0.531675 0.287300 0.140675
0.582384 0.289134 0.142509
0.633093 0.290968 0.144343
0.683801 0.292801 0.146176
0.734510 0.294635 0.148010
0.785219 0.296469 0.149844
0.835927 0.298302 0.151677
0.886636 0.300136 0.153511
0.081466 0.325841 0.130341
0.132174 0.327674 0.132174
0.182883 0.329508 0.134008
0.233592 0.331342 0.135842
0.284300 0.333175 0.137675
0.335009 0.335009 0.139509
0.385718 0.336843 0.141343
0.436426 0.338676 0.143176
0.487135 0.340510 0.145010
0.537844 0.342344 0.146844
0.588552 0.344177 0.148677
0.639261 0.346011 0.150511
0.689970 0.347845 0.152345
0.740679 0.349679 0.154178
0.791387 0.351512 0.156012
0.842096 0.353346 0.157846
0.892805 0.355180 0.159680
0.087634 0.380884 0.136509
0.138343 0.382718 0.138343
0.189052 0.384552 0.140177
0.239760 0.386385 0.142010
0.290469 0.388219 0.143844
0.341178 0.390053 0.145678
0.391886 0.391886 0.147511
0.442595 0.393720 0.149345
0.493304 0.395554 0.151179
0.544012 0.397387 0.153012
0.594721 0.399221 0.154846
0.645430 0.401055 0.156680
0.696138 0.402888 0.158513
0.746847 0.404722 0.160347
0.797556 0.406556 0.162181
0.848264 0.408389 0.164014
0.898973 0.410223 0.165848
0.093803 0.435928 0.142678
0.144512 0.437762 0.144512
0.195220 0.439595 0.146345
0.245929 0.441429 0.148179
0.296638 0.443263 0.150013
0.347346 0.445096 0.151846
0.398055 0.446930 0.153680
0.448764 0.448764 0.155514
0.499472 0.450597 0.157347
0.550181 0.452431 0.159181
0.600890 0.454265 0.161015
0.651598 0.456098 0.162848
0.702307 0.457932 0.164682
0.753016 0.459766 0.166516
0.803724 0.461599 0.168349
0.854433 0.463433 0.170183
0.905142 0.465267 0.172017
0.099972 0.490972 0.148847
0.150680 0.492805 0.150680
0.201389 0.494639 0.152514
0.252098 0.496473 0.154348
0.302806 0.498306 0.156181
0.353515 0.500140 0.158015
0.404224 0.501974 0.159849
0.454932 0.503807 0.161682
0.505641 0.505641 0.163516
0.556350 0.507475 0.165350
0.607058 0.509308 0.167183
0.657767 0.511142 0.169017
0.708476 0.512976 0.170851
0.759184 0.514809 0.172684
0.809893 0.516643 0.174518
0.860602 0.518477 0.176352
0.911310 0.520310 0.178185
0.106140 0.546015 0.155015
0.156849 0.547849 0.156849
0.207557 0.549682 0.158682
0.258266 0.551516 0.160516
0.308975 0.553350 0.162350
0.359683 0.555184 0.164183
0.410392 0.557017 0.166017
0.461101 0.558851 0.167851
0.511810 0.560685 0.169685
0.562518 0.562518 0.171518
0.613227 0.564352 0.173352
0.663936 0.566186 0.175186
0.714644 0.568019 0.177019
0.765353 0.569853 0.178853
0.816062 0.571687 0.180687
0.866770 0.573520 0.182520
0.917479 0.575354 0.184354
0.112309 0.601059 0.161184
0.163017 0.602892 0.163017
0.213726 0.604726 0.164851
0.264435 0.606560 0.166685
0.315143 0.608393 0.168518
0.365852 0.610227 0.170352
0.416561 0.612061 0.172186
0.467269 0.613894 0.174019
0.517978 0.615728 0.175853
0.568687 0.617562 0.177687
0.619395 0.619395 0.179520
0.670104 0.621229 0.181354
0.720813 0.623063 0.183188
0.771522 0.624897 0.185022
0.822230 0.626730 0.186855
0.872939 0.628564 0.188689
0.923648 0.630398 0.190523
0.118477 0.656102 0.167352
0.169186 0.657936 0.169186
0.219895 0.659770 0.171020
0.270603 0.661603 0.172853
0.321312 0.663437 0.174687
0.372021 0.665271 0.176521
0.422729 0.667104 0.178354
0.473438 0.668938 0.180188
0.524147 0.670772 0.182022
0.574855 0.672605 0.183855
0.625564 0.674439 0.185689
0.676273 0.676273 0.187523
0.726981 0.678106 0.189356
0.777690 0.679940 0.191190
0.828399 0.681774 0.193024
0.879107 0.683607 0.194857
0.929816 0.685441 0.196691
0.124646 0.711146 0.173521
0.175355 0.712980 0.175355
0.226063 0.714813 0.177188
0.276772 0.716647 0.179022
0.327481 0.718481 0.180856
0.378189 0.720314 0.182689
0.428898 0.722148 0.184523
0.479607 0.723982 0.186357
0.530315 0.725815 0.188190
0.581024 0.727649 0.190024
0.631733 0.729483 0.191858
0.682441 0.731316 0.193691
0.733150 0.733150 0.195525
0.783859 0.734984 0.197359
0.834567 0.736817 0.199192
0.885276 0.738651 0.201026
0.935985 0.740485 0.202860
0.130815 0.766190 0.179690
0.181523 0.768023 0.181523
0.232232 0.769857 0.183357
0.282941 0.771691 0.185191
0.333649 0.773524 0.187024
0.384358 0.775358 0.188858
0.435067 0.777192 0.190692
0.485775 0.779025 0.192525
0.536484 0.780859 0.194359
0.587193 0.782693 0.196193
0.637901 0.784526 0.198026
0.688610 0.786360 0.199860
0.739319 0.788194 0.201694
0.790027 0.790027 0.203527
0.840736 0.791861 0.205361
0.891445 0.793695 0.207195
0.942153 0.795528 0.209028
0.136983 0.821233 0.185858
0.187692 0.823067 0.187692
0.238400 0.824900 0.189525
0.289109 0.826734 0.191359
0.339818 0.828568 0.193193
0.390526 0.830402 0.195026
0.441235 0.832235 0.196860
0.491944 0.834069 0.198694
0.542653 0.835903 0.200528
0.593361 0.837736 0.202361
0.644070 0.839570 0.204195
0.694779 0.841404 0.206029
0.745487 0.843237 0.207862
0.796196 0.845071 0.209696
0.846905 0.846905 0.211530
0.897613 0.848738 0.213363
0.948322 0.850572 0.215197
0.143152 0.876277 0.192027
0.193860 0.878110 0.193860
0.244569 0.879944 0.195694
0.295278 0.881778 0.197528
0.345986 0.883611 0.199361
0.396695 0.885445 0.201195
0.447404 0.887279 0.203029
0.498112 0.889112 0.204862
0.548821 0.890946 0.206696
0.599530 0.892780 0.208530
0.650238 0.894613 0.210363
0.700947 0.896447 0.212197
0.751656 0.898281 0.214031
0.802364 0.900115 0.215865
0.853073 0.901948 0.217698
0.903782 0.903782 0.219532
0.954491 0.905616 0.221366
0.149320 0.931320 0.198195
0.200029 0.933154 0.200029
0.250738 0.934988 0.201863
0.301446 0.936821 0.203696
0.352155 0.938655 0.205530
0.402864 0.940489 0.207364
0.453572 0.942322 0.209197
0.504281 0.944156 0.211031
0.554990 0.945990 0.212865
0.605698 0.947823 0.214698
0.656407 0.949657 0.216532
0.707116 0.951491 0.218366
0.757824 0.953324 0.220199
0.808533 0.955158 0.222033
0.859242 0.956992 0.223867
0.909950 0.958825 0.225700
0.960659 0.960659 0.227534
0.051245 0.051245 0.148995
0.101954 0.053079 0.150829
0.152663 0.054913 0.152663
0.203371 0.056746 0.154496
0.254080 0.058580 0.156330
0.304789 0.060414 0.158164
0.355497 0.062248 0.159998
0.406206 0.064081 0.161831
0.456915 0.065915 0.163665
0.507624 0.067749 0.165499
0.558332 0.069582 0.167332
0.609041 0.071416 0.169166
0.659750 0.073250 0.171000
0.710458 0.075083 0.172833
0.761167 0.076917 0.174667
0.811876 0.078751 0.176501
0.862584 0.080584 0.178334
0.057414 0.106289 0.155164
0.108123 0.108123 0.156998
0.158831 0.109956 0.158831
0.209540 0.111790 0.160665
0.260249 0.113624 0.162499
0.310957 0.115457 0.164332
0.361666 0.117291 0.166166
0.412375 0.119125 0.168000
0.463083 0.120958 0.169833
0.513792 0.122792 0.171667
0.564501 0.124626 0.173501
0.615209 0.126459 0.175334
0.665918 0.128293 0.177168
0.716627 0.130127 0.179002
0.767336 0.131960 0.180835
0.818044 0.133794 0.182669
0.868753 0.135628 0.184503
0.063583 0.161333 0.161333
0.114291 0.163166 0.163166
0.165000 0.165000 0.165000
0.215709 0.166834 0.166834
0.266417 0.168667 0.168667
0.317126 0.170501 0.170501
0.367835 0.172335 0.172335
0.418543 0.174168 0.174168
0.469252 0.176002 0.176002
0.519961 0.177836 0.177836
0.570669 0.179669 0.179669
0.621378 0.181503 0.181503
0.672087 0.183337 0.183337
0.722795 0.185170 0.185170
0.773504 0.187004 0.187004
0.824213 0.188838 0.188838
0.874921 0.190671 0.190671
0.069751 0.216376 0.167501
0.120460 0.218210 0.169335
0.171169 0.220044 0.171169
0.221877 0.221877 0.173002
0.272586 0.223711 0.174836
0.323295 0.225545 0.176670
0.374003 0.227378 0.178503
0.424712 0.229212 0.180337
0.475421 0.231046 0.182171
0.526129 0.232879 0.184004
0.576838 0.234713 0.185838
0.627547 0.236547 0.187672
0.678255 0.238380 0.189505
0.728964 0.240214 0.191339
0.779673 0.242048 0.193173
0.830381 0.243881 0.195006
0.881090 0.245715 0.196840
0.075920 0.271420 0.173670
0.126629 0.273254 0.175504
0.177337 0.275087 0.177337
0.228046 0.276921 0.179171
0.278755 0.278755 0.181005
0.329463 0.280588 0.182838
0.380172 0.282422 0.184672
0.430881 0.284256 0.186506
0.481589 0.286089 0.188339
0.532298 0.287923 0.190173
0.583007 0.289757 0.192007
0.633715 0.291590 0.193840
0.684424 0.293424 0.195674
0.735133 0.295258 0.197508
0.785841 0.297091 0.199341
0.836550 0.298925 0.201175
0.887259 0.300759 0.203009
0.082088 0.326463 0.179838
0.132797 0.328297 0.181672
0.183506 0.330131 0.183506
0.234214 0.331964 0.185339
0.284923 0.333798 0.187173
0.335632 0.335632 0.189007
0.386340 0.337465 0.190841
0.437049 0.339299 0.192674
0.487758 0.341133 0.194508
0.538467 0.342967 0.196342
0.589175 0.344800 0.198175
0.639884 0.346634 0.200009
0.690593 0.348468 0.201843
0.741301 0.350301 0.203676
0.792010 0.352135 0.205510
0.842719 0.353969 0.207344
0.893427 0.355802 0.209177
0.088257 0.381507 0.186007
0.138966 0.383341 0.187841
0.189674 0.385174 0.189674
0.240383 0.387008 0.191508
0.291092 0.388842 0.193342
0.341800 0.390675 0.195175
0.392509 0.392509 0.197009
0.443218 0.394343 0.198843
0.493926 0.396176 0.200676
0.544635 0.398010 0.202510
0.595344 0.399844 0.204344
0.646052 0.401677 0.206177
0.696761 0.403511 0.208011
0.747470 0.405345 0.209845
0.798179 0.407178 0.211678
0.848887 0.409012 0.213512
0.899596 0.410846 0.215346
0.094426 0.436551 0.192176
0.145134 0.438384 0.194009
0.195843 0.440218 0.195843
0.246552 0.442052 0.197677
0.297260 0.443885 0.199510
0.347969 0.445719 0.201344
0.398678 0.447553 0.203178
0.449386 0.449386 0.205011
0.500095 0.451220 0.206845
0.550804 0.453054 0.208679
0.601512 0.454887 0.210512
0.652221 0.456721 0.212346
0.702930 0.458555 0.214180
0.753638 0.460388 0.216013
0.804347 0.462222 0.217847
0.855056 0.464056 0.219681
0.905764 0.465889 0.221514
0.100594 0.491594 0.198344
0.151303 0.493428 0.200178
0.202012 0.495262 0.202012
0.252720 0.497095 0.203845
0.303429 0.498929 0.205679
0.354138 0.500763 0.207513
0.404846 0.502596 0.209346
0.455555 0.504430 0.211180
0.506264 0.506264 0.213014
0.556972 0.508097 0.214847
0.607681 0.509931 0.216681
0.658390 0.511765 0.218515
0.709098 0.513598 0.220348
0.759807 0.515432 0.222182
0.810516 0.517266 0.224016
0.861224 0.519099 0.225849
0.911933 0.520933 0.227683
0.106763 0.546638 0.204513
0.157472 0.548472 0.206347
0.208180 0.550305 0.208180
0.258889 0.552139 0.210014
0.309598 0.553973 0.211848
0.360306 0.555806 0.213681
0.411015 0.557640 0.215515
0.461724 0.559474 0.217349
0.512432 0.561307 0.219182
0.563141 0.563141 0.221016
0.613850 0.564975 0.222850
0.664558 0.566808 0.224683
0.715267 0.568642 0.226517
0.765976 0.570476 0.228351
0.816684 0.572309 0.230184
0.867393 0.574143 0.232018
0.918102 0.575977 0.233852
0.112931 0.601681 0.210681
0.163640 0.603515 0.212515
0.214349 0.605349 0.214349
0.265057 0.607182 0.216182
0.315766 0.609016 0.218016
0.366475 0.610850 0.219850
0.417183 0.612684 0.221683
0.467892 0.614517 0.223517
0.518601 0.616351 0.225351
0.569310 0.618185 0.227185
0.620018 0.620018 0.229018
0.670727 0.621852 0.230852
0.721436 0.623686 0.232686
0.772144 0.625519 0.234519
0.822853 0.627353 0.236353
0.873562 0.629187 0.238187
0.924270 0.631020 0.240020
0.119100 0.656725 0.216850
0.169809 0.658559 0.218684
0.220517 0.660392 0.220517
0.271226 0.662226 0.222351
0.321935 0.664060 0.224185
0.372643 0.665893 0.226018
0.423352 0.667727 0.227852
0.474061 0.669561 0.229686
0.524769 0.671394 0.231519
0.575478 0.673228 0.233353
0.626187 0.675062 0.235187
0.676895 0.676895 0.237020
0.727604 0.678729 0.238854
0.778313 0.680563 0.240688
0.829022 0.682396 0.242522
0.879730 0.684230 0.244355
0.930439 0.686064 0.246189
0.125269 0.711769 0.223019
0.175977 0.713602 0.224852
0.226686 0.715436 0.226686
0.277395 0.717270 0.228520
0.328103 0.719103 0.230353
0.378812 0.720937 0.232187
0.429521 0.722771 0.234021
0.480229 0.724604 0.235854
0.530938 0.726438 0.237688
0.581647 0.728272 0.239522
0.632355 0.730105 0.241355
0.683064 0.731939 0.243189
0.733773 0.733773 0.245023
0.784481 0.735606 0.246856
0.835190 0.737440 0.248690
0.885899 0.739274 0.250524
0.936607 0.741107 0.252357
0.131437 0.766812 0.229187
0.182146 0.768646 0.231021
0.232855 0.770480 0.232855
0.283563 0.772313 0.234688
0.334272 0.774147 0.236522
0.384981 0.775981 0.238356
0.435689 0.777814 0.240189
0.486398 0.779648 0.242023
0.537107 0.781482 0.243857
0.587815 0.783315 0.245690
0.638524 0.785149 0.247524
0.689233 0.786983 0.249358
0.739941 0.788816 0.251191
0.790650 0.790650 0.253025
0.841359 0.792484 0.254859
0.892067 0.794317 0.256692
0.942776 0.796151 0.258526
0.137606 0.821856 0.235356
0.188315 0.823690 0.237190
0.239023 0.825523 0.239023
0.289732 0.827357 0.240857
0.340441 0.829191 0.242691
0.391149 0.831024 0.244524
0.441858 0.832858 0.246358
0.492567 0.834692 0.248192
0.543275 0.836525 0.250025
0.593984 0.838359 0.251859
0.644693 0.840193 0.253693
0.695401 0.842026 0.255526
0.746110 0.843860 0.257360
0.796819 0.845694 0.259194
0.847527 0.847527 0.261027
0.898236 0.849361 0.262861
0.948945 0.851195 0.264695
0.143774 0.876899 0.241524
0.194483 0.878733 0.243358
0.245192 0.880567 0.245192
0.295900 0.882400 0.247025
0.346609 0.884234 0.248859
0.397318 0.886068 0.250693
0.448026 0.887902 0.252526
0.498735 0.889735 0.254360
0.549444 0.891569 0.256194
0.600153 0.893403 0.258028
0.650861 0.895236 0.259861
0.701570 0.897070 0.261695
0.752279 0.898904 0.263529
0.802987 0.900737 0.265362
0.853696 0.902571 0.267196
0.904405 0.904405 0.269030
0.955113 0.906238 0.270863
0.149943 0.931943 0.247693
0.200652 0.933777 0.249527
0.251360 0.935610 0.251360
0.302069 0.937444 0.253194
0.352778 0.939278 0.255028
0.403486 0.941111 0.256861
0.454195 0.942945 0.258695
0.504904 0.944779 0.260529
0.555612 0.946612 0.262362
0.606321 0.948446 0.264196
0.657030 0.950280 0.266030
0.707738 0.952113 0.267863
0.758447 0.953947 0.269697
0.809156 0.955781 0.271531
0.859865 0.957615 0.273365
0.910573 0.959448 0.275198
0.961282 0.961282 0.277032
0.051868 0.051868 0.198493
0.102577 0.053702 0.200327
0.153286 0.055536 0.202161
0.203994 0.057369 0.203994
0.254703 0.059203 0.205828
0.305412 0.061037 0.207662
0.356120 0.062870 0.209495
0.406829 0.064704 0.211329
0.457538 0.066538 0.213163
0.508246 0.068371 0.214996
0.558955 0.070205 0.216830
0.609664 0.072039 0.218664
0.660372 0.073872 0.220497
0.711081 0.075706 0.222331
0.761790 0.077540 0.224165
0.812498 0.079373 0.225998
0.863207 0.081207 0.227832
0.058037 0.106912 0.204662
0.108745 0.108745 0.206495
