presets/luts/faded.cube
# faded — bundled look for apply_lut/list_luts
LUT_3D_SIZE 9
0.050000 0.050000 0.050000
0.151417 0.053667 0.053667
0.252835 0.057335 0.057335
0.354252 0.061002 0.061002
0.455669 0.064669 0.064669
0.557087 0.068337 0.068337
0.658504 0.072004 0.072004
0.759921 0.075671 0.075671
0.861339 0.079339 0.079339
0.062337 0.160087 0.062337
0.163755 0.163755 0.066005
0.265172 0.167422 0.069672
0.366589 0.171089 0.073339
0.468007 0.174757 0.077007
0.569424 0.178424 0.080674
0.670841 0.182091 0.084341
0.772259 0.185759 0.088009
0.873676 0.189426 0.091676
0.074674 0.270174 0.074674
0.176092 0.273842 0.078342
0.277509 0.277509 0.082009
0.378926 0.281176 0.085676
0.480344 0.284844 0.089344
0.581761 0.288511 0.093011
0.683179 0.292179 0.096679
0.784596 0.295846 0.100346
0.886013 0.299513 0.104013
0.087012 0.380262 0.087012
0.188429 0.383929 0.090679
0.289846 0.387596 0.094346
0.391264 0.391264 0.098014
0.492681 0.394931 0.101681
0.594098 0.398598 0.105348
0.695516 0.402266 0.109016
0.796933 0.405933 0.112683
0.898350 0.409600 0.116350
0.099349 0.490349 0.099349
0.200766 0.494016 0.103016
0.302183 0.497684 0.106683
0.403601 0.501351 0.110351
0.505018 0.505018 0.114018
0.606436 0.508686 0.117686
0.707853 0.512353 0.121353
0.809270 0.516020 0.125020
0.910688 0.519688 0.128688
0.111686 0.600436 0.111686
0.213103 0.604103 0.115353
0.314521 0.607771 0.119021
0.415938 0.611438 0.122688
0.517355 0.615105 0.126355
0.618773 0.618773 0.130023
0.720190 0.622440 0.133690
0.821607 0.626107 0.137357
0.923025 0.629775 0.141025
0.124023 0.710523 0.124023
0.225441 0.714191 0.127691
0.326858 0.717858 0.131358
0.428275 0.721525 0.135025
0.529693 0.725193 0.138693
0.631110 0.728860 0.142360
0.732527 0.732527 0.146027
0.833945 0.736195 0.149695
0.935362 0.739862 0.153362
0.136360 0.820610 0.136360
0.237778 0.824278 0.140028
0.339195 0.827945 0.143695
0.440612 0.831612 0.147362
0.542030 0.835280 0.151030
0.643447 0.838947 0.154697
0.744864 0.842615 0.158364
0.846282 0.846282 0.162032
0.947699 0.849949 0.165699
0.148698 0.930698 0.148698
0.250115 0.934365 0.152365
0.351532 0.938032 0.156032
0.452950 0.941700 0.159700
0.554367 0.945367 0.163367
0.655784 0.949034 0.167034
0.757202 0.952702 0.170702
0.858619 0.956369 0.174369
0.960036 0.960036 0.178036
0.051245 0.051245 0.148995
0.152663 0.054913 0.152663
0.254080 0.058580 0.156330
0.355497 0.062248 0.159998
0.456915 0.065915 0.163665
0.558332 0.069582 0.167332
0.659750 0.073250 0.171000
0.761167 0.076917 0.174667
0.862584 0.080584 0.178334
0.063583 0.161333 0.161333
0.165000 0.165000 0.165000
0.266417 0.168667 0.168667
0.367835 0.172335 0.172335
0.469252 0.176002 0.176002
0.570669 0.179669 0.179669
0.672087 0.183337 0.183337
0.773504 0.187004 0.187004
0.874921 0.190671 0.190671
0.075920 0.271420 0.173670
0.177337 0.275087 0.177337
0.278755 0.278755 0.181005
0.380172 0.282422 0.184672
0.481589 0.286089 0.188339
0.583007 0.289757 0.192007
0.684424 0.293424 0.195674
0.785841 0.297091 0.199341
0.887259 0.300759 0.203009
0.088257 0.381507 0.186007
0.189674 0.385174 0.189674
0.291092 0.388842 0.193342
0.392509 0.392509 0.197009
0.493926 0.396176 0.200676
0.595344 0.399844 0.204344
0.696761 0.403511 0.208011
0.798179 0.407178 0.211678
0.899596 0.410846 0.215346
0.100594 0.491594 0.198344
0.202012 0.495262 0.202012
0.303429 0.498929 0.205679
0.404846 0.502596 0.209346
0.506264 0.506264 0.213014
0.607681 0.509931 0.216681
0.709098 0.513598 0.220348
0.810516 0.517266 0.224016
0.911933 0.520933 0.227683
0.112931 0.601681 0.210681
0.214349 0.605349 0.214349
0.315766 0.609016 0.218016
0.417183 0.612684 0.221683
0.518601 0.616351 0.225351
0.620018 0.620018 0.229018
0.721436 0.623686 0.232686
0.822853 0.627353 0.236353
0.924270 0.631020 0.240020
0.125269 0.711769 0.223019
0.226686 0.715436 0.226686
0.328103 0.719103 0.230353
0.429521 0.722771 0.234021
0.530938 0.726438 0.237688
0.632355 0.730105 0.241355
0.733773 0.733773 0.245023
0.835190 0.737440 0.248690
0.936607 0.741107 0.252357
0.137606 0.821856 0.235356
0.239023 0.825523 0.239023
0.340441 0.829191 0.242691
0.441858 0.832858 0.246358
0.543275 0.836525 0.250025
0.644693 0.840193 0.253693
0.746110 0.843860 0.257360
0.847527 0.847527 0.261027
0.948945 0.851195 0.264695
0.149943 0.931943 0.247693
0.251360 0.935610 0.251360
0.352778 0.939278 0.255028
0.454195 0.942945 0.258695
0.555612 0.946612 0.262362
0.657030 0.950280 0.266030
0.758447 0.953947 0.269697
0.859865 0.957615 0.273365
0.961282 0.961282 0.277032
0.052491 0.052491 0.247991
0.153908 0.056158 0.251658
0.255326 0.059826 0.255326
0.356743 0.063493 0.258993
0.458160 0.067160 0.262660
0.559578 0.070828 0.266328
0.660995 0.074495 0.269995
0.762412 0.078162 0.273662
0.863830 0.081830 0.277330
0.064828 0.162578 0.260328
0.166245 0.166245 0.263995
0.267663 0.169913 0.267663
0.369080 0.173580 0.271330
0.470498 0.177248 0.274998
0.571915 0.180915 0.278665
0.673332 0.184582 0.282332
0.774750 0.188250 0.286000
0.876167 0.191917 0.289667
0.077165 0.272665 0.272665
0.178583 0.276333 0.276333
0.280000 0.280000 0.280000
0.381417 0.283667 0.283667
0.482835 0.287335 0.287335
0.584252 0.291002 0.291002
0.685669 0.294669 0.294669
0.787087 0.298337 0.298337
0.888504 0.302004 0.302004
0.089502 0.382752 0.285002
0.190920 0.386420 0.288670
0.292337 0.390087 0.292337
0.393755 0.393755 0.296005
0.495172 0.397422 0.299672
0.596589 0.401089 0.303339
0.698007 0.404757 0.307007
0.799424 0.408424 0.310674
0.900841 0.412091 0.314341
0.101840 0.492840 0.297340
0.203257 0.496507 0.301007
0.304674 0.500174 0.304674
0.406092 0.503842 0.308342
0.507509 0.507509 0.312009
0.608926 0.511176 0.315676
0.710344 0.514844 0.319344
0.811761 0.518511 0.323011
0.913179 0.522179 0.326678
0.114177 0.602927 0.309677
0.215594 0.606594 0.313344
0.317012 0.610262 0.317012
0.418429 0.613929 0.320679
0.519846 0.617596 0.324346
0.621264 0.621264 0.328014
0.722681 0.624931 0.331681
0.824098 0.628598 0.335348
0.925516 0.632266 0.339016
0.126514 0.713014 0.322014
0.227931 0.716681 0.325681
0.329349 0.720349 0.329349
0.430766 0.724016 0.333016
0.532184 0.727684 0.336684
0.633601 0.731351 0.340351
0.735018 0.735018 0.344018
0.836436 0.738686 0.347686
0.937853 0.742353 0.351353
0.138851 0.823101 0.334351
0.240269 0.826769 0.338019
0.341686 0.830436 0.341686
0.443103 0.834103 0.345353
0.544521 0.837771 0.349021
0.645938 0.841438 0.352688
0.747355 0.845105 0.356355
0.848773 0.848773 0.360023
0.950190 0.852440 0.363690
0.151189 0.933189 0.346689
0.252606 0.936856 0.350356
0.354023 0.940523 0.354023
0.455441 0.944191 0.357691
0.556858 0.947858 0.361358
0.658275 0.951525 0.365025
0.759693 0.955193 0.368693
0.861110 0.958860 0.372360
0.962527 0.962527 0.376027
0.053736 0.053736 0.346986
0.155154 0.057404 0.350654
0.256571 0.061071 0.354321
0.357988 0.064738 0.357988
0.459406 0.068406 0.361656
0.560823 0.072073 0.365323
0.662240 0.075740 0.368990
0.763658 0.079408 0.372658
0.865075 0.083075 0.376325
0.066074 0.163824 0.359324
0.167491 0.167491 0.362991
0.268908 0.171158 0.366658
0.370326 0.174826 0.370326
0.471743 0.178493 0.373993
0.573160 0.182160 0.377660
0.674578 0.185828 0.381328
0.775995 0.189495 0.384995
0.877412 0.193162 0.388662
0.078411 0.273911 0.371661
0.179828 0.277578 0.375328
0.281245 0.281245 0.378995
0.382663 0.284913 0.382663
0.484080 0.288580 0.386330
0.585498 0.292247 0.389997
0.686915 0.295915 0.393665
0.788332 0.299582 0.397332
0.889750 0.303250 0.401000
0.090748 0.383998 0.383998
0.192165 0.387665 0.387665
0.293583 0.391333 0.391333
0.395000 0.395000 0.395000
0.496417 0.398667 0.398667
0.597835 0.402335 0.402335
0.699252 0.406002 0.406002
0.800669 0.409669 0.409669
0.902087 0.413337 0.413337
0.103085 0.494085 0.396335
0.204502 0.497752 0.400002
0.305920 0.501420 0.403670
0.407337 0.505087 0.407337
0.508755 0.508755 0.411005
0.610172 0.512422 0.414672
0.711589 0.516089 0.418339
0.813007 0.519757 0.422007
0.914424 0.523424 0.425674
0.115422 0.604172 0.408672
0.216840 0.607840 0.412340
0.318257 0.611507 0.416007
0.419674 0.615174 0.419674
0.521092 0.618842 0.423342
0.622509 0.622509 0.427009
0.723926 0.626176 0.430676
0.825344 0.629844 0.434344
0.926761 0.633511 0.438011
0.127760 0.714260 0.421010
0.229177 0.717927 0.424677
0.330594 0.721594 0.428344
0.432012 0.725262 0.432012
0.533429 0.728929 0.435679
0.634846 0.732596 0.439346
0.736264 0.736264 0.443014
0.837681 0.739931 0.446681
0.939098 0.743598 0.450348
0.140097 0.824347 0.433347
0.241514 0.828014 0.437014
0.342931 0.831681 0.440681
0.444349 0.835349 0.444349
0.545766 0.839016 0.448016
0.647184 0.842684 0.451683
0.748601 0.846351 0.455351
0.850018 0.850018 0.459018
0.951436 0.853686 0.462686
0.152434 0.934434 0.445684
0.253851 0.938101 0.449351
0.355269 0.941769 0.453019
0.456686 0.945436 0.456686
0.558103 0.949103 0.460353
0.659521 0.952771 0.464021
0.760938 0.956438 0.467688
0.862355 0.960105 0.471355
0.963773 0.963773 0.475023
0.054982 0.054982 0.445982
0.156399 0.058649 0.449649
0.257817 0.062317 0.453317
0.359234 0.065984 0.456984
0.460651 0.069651 0.460651
0.562069 0.073319 0.464319
0.663486 0.076986 0.467986
0.764903 0.080653 0.471653
0.866321 0.084321 0.475321
0.067319 0.165069 0.458319
0.168736 0.168736 0.461986
0.270154 0.172404 0.465654
0.371571 0.176071 0.469321
0.472988 0.179738 0.472988
0.574406 0.183406 0.476656
0.675823 0.187073 0.480323
0.777240 0.190740 0.483990
0.878658 0.194408 0.487658
0.079656 0.275156 0.470656
0.181074 0.278824 0.474324
0.282491 0.282491 0.477991
0.383908 0.286158 0.481658
0.485326 0.289826 0.485326
0.586743 0.293493 0.488993
0.688160 0.297160 0.492660
0.789578 0.300828 0.496328
0.890995 0.304495 0.499995
0.091993 0.385243 0.482993
0.193411 0.388911 0.486661
0.294828 0.392578 0.490328
0.396245 0.396245 0.493995
0.497663 0.399913 0.497663
0.599080 0.403580 0.501330
0.700497 0.407247 0.504998
0.801915 0.410915 0.508665
0.903332 0.414582 0.512332
0.104331 0.495331 0.495331
0.205748 0.498998 0.498998
0.307165 0.502665 0.502665
0.408583 0.506333 0.506333
0.510000 0.510000 0.510000
0.611417 0.513667 0.513667
0.712835 0.517335 0.517335
0.814252 0.521002 0.521002
0.915669 0.524669 0.524669
0.116668 0.605418 0.507668
0.218085 0.609085 0.511335
0.319502 0.612753 0.515003
0.420920 0.616420 0.518670
0.522337 0.620087 0.522337
0.623755 0.623755 0.526005
0.725172 0.627422 0.529672
0.826589 0.631089 0.533339
0.928007 0.634757 0.537007
0.129005 0.715505 0.520005
0.230422 0.719172 0.523672
0.331840 0.722840 0.527340
0.433257 0.726507 0.531007
0.534674 0.730174 0.534674
0.636092 0.733842 0.538342
0.737509 0.737509 0.542009
0.838926 0.741176 0.545676
0.940344 0.744844 0.549344
0.141342 0.825592 0.532342
0.242760 0.829260 0.536010
0.344177 0.832927 0.539677
0.445594 0.836594 0.543344
0.547012 0.840262 0.547012
0.648429 0.843929 0.550679
0.749846 0.847596 0.554346
0.851264 0.851264 0.558014
0.952681 0.854931 0.561681
0.153679 0.935679 0.544679
0.255097 0.939347 0.548347
0.356514 0.943014 0.552014
0.457931 0.946681 0.555681
0.559349 0.950349 0.559349
0.660766 0.954016 0.563016
0.762184 0.957684 0.566684
0.863601 0.961351 0.570351
0.965018 0.965018 0.574018
0.056227 0.056227 0.544977
0.157645 0.059895 0.548645
0.259062 0.063562 0.552312
0.360479 0.067229 0.555979
0.461897 0.070897 0.559647
0.563314 0.074564 0.563314
0.664731 0.078231 0.566981
0.766149 0.081899 0.570649
0.867566 0.085566 0.574316
0.068564 0.166314 0.557314
0.169982 0.169982 0.560982
0.271399 0.173649 0.564649
0.372816 0.177316 0.568317
0.474234 0.180984 0.571984
0.575651 0.184651 0.575651
0.677069 0.188319 0.579319
0.778486 0.191986 0.582986
0.879903 0.195653 0.586653
0.080902 0.276402 0.569652
0.182319 0.280069 0.573319
0.283736 0.283736 0.576986
0.385154 0.287404 0.580654
0.486571 0.291071 0.584321
0.587988 0.294738 0.587988
0.689406 0.298406 0.591656
0.790823 0.302073 0.595323
0.892240 0.305740 0.598990
0.093239 0.386489 0.581989
0.194656 0.390156 0.585656
0.296074 0.393824 0.589324
0.397491 0.397491 0.592991
0.498908 0.401158 0.596658
0.600326 0.404826 0.600326
0.701743 0.408493 0.603993
0.803160 0.412160 0.607660
0.904578 0.415828 0.611328
0.105576 0.496576 0.594326
0.206993 0.500243 0.597993
0.308411 0.503911 0.601661
0.409828 0.507578 0.605328
0.511245 0.511245 0.608995
0.612663 0.514913 0.612663
0.714080 0.518580 0.616330
0.815498 0.522247 0.619998
0.916915 0.525915 0.623665
0.117913 0.606663 0.606663
0.219331 0.610331 0.610331
0.320748 0.613998 0.613998
0.422165 0.617665 0.617665
0.523583 0.621333 0.621333
0.625000 0.625000 0.625000
0.726417 0.628667 0.628667
0.827835 0.632335 0.632335
0.929252 0.636002 0.636002
0.130250 0.716750 0.619000
0.231668 0.720418 0.622668
0.333085 0.724085 0.626335
0.434502 0.727753 0.630003
0.535920 0.731420 0.633670
0.637337 0.735087 0.637337
0.738755 0.738755 0.641005
0.840172 0.742422 0.644672
0.941589 0.746089 0.648339
0.142588 0.826838 0.631338
0.244005 0.830505 0.635005
0.345422 0.834172 0.638672
0.446840 0.837840 0.642340
0.548257 0.841507 0.646007
0.649674 0.845174 0.649674
0.751092 0.848842 0.653342
0.852509 0.852509 0.657009
0.953926 0.856176 0.660676
0.154925 0.936925 0.643675
0.256342 0.940592 0.647342
0.357760 0.944260 0.651010
0.459177 0.947927 0.654677
0.560594 0.951594 0.658344
0.662012 0.955262 0.662012
0.763429 0.958929 0.665679
0.864846 0.962596 0.669346
0.966264 0.966264 0.673014
0.057473 0.057473 0.643973
0.158890 0.061140 0.647640
0.260307 0.064807 0.651307
0.361725 0.068475 0.654975
0.463142 0.072142 0.658642
0.564559 0.075809 0.662309
0.665977 0.079477 0.665977
0.767394 0.083144 0.669644
0.868812 0.086812 0.673312
0.069810 0.167560 0.656310
0.171227 0.171227 0.659977
0.272645 0.174895 0.663645
0.374062 0.178562 0.667312
0.475479 0.182229 0.670979
0.576897 0.185897 0.674647
0.678314 0.189564 0.678314
0.779731 0.193231 0.681981
0.881149 0.196899 0.685649
0.082147 0.277647 0.668647
0.183564 0.281314 0.672314
0.284982 0.284982 0.675982
0.386399 0.288649 0.679649
0.487817 0.292317 0.683316
0.589234 0.295984 0.686984
0.690651 0.299651 0.690651
0.792069 0.303319 0.694319
0.893486 0.306986 0.697986
0.094484 0.387734 0.680984
0.195902 0.391402 0.684652
0.297319 0.395069 0.688319
0.398736 0.398736 0.691986
0.500154 0.402404 0.695654
0.601571 0.406071 0.699321
0.702988 0.409738 0.702988
0.804406 0.413406 0.706656
0.905823 0.417073 0.710323
0.106821 0.497821 0.693321
0.208239 0.501489 0.696989
0.309656 0.505156 0.700656
0.411074 0.508824 0.704324
0.512491 0.512491 0.707991
0.613908 0.516158 0.711658
0.715326 0.519826 0.715326
0.816743 0.523493 0.718993
0.918160 0.527160 0.722660
0.119159 0.607909 0.705659
0.220576 0.611576 0.709326
0.321993 0.615243 0.712993
0.423411 0.618911 0.716661
0.524828 0.622578 0.720328
0.626245 0.626245 0.723995
0.727663 0.629913 0.727663
0.829080 0.633580 0.731330
0.930497 0.637248 0.734997
0.131496 0.717996 0.717996
0.232913 0.721663 0.721663
0.334331 0.725331 0.725331
0.435748 0.728998 0.728998
0.537165 0.732665 0.732665
0.638583 0.736333 0.736333
0.740000 0.740000 0.740000
0.841417 0.743667 0.743667
0.942835 0.747335 0.747335
0.143833 0.828083 0.730333
0.245250 0.831750 0.734000
0.346668 0.835418 0.737668
0.448085 0.839085 0.741335
0.549503 0.842753 0.745003
0.650920 0.846420 0.748670
0.752337 0.850087 0.752337
0.853755 0.853755 0.756005
0.955172 0.857422 0.759672
0.156170 0.938170 0.742670
0.257588 0.941838 0.746338
0.359005 0.945505 0.750005
0.460422 0.949172 0.753672
0.561840 0.952840 0.757340
0.663257 0.956507 0.761007
0.764674 0.960174 0.764674
0.866092 0.963842 0.768342
0.967509 0.967509 0.772009
0.058718 0.058718 0.742968
0.160136 0.062386 0.746636
0.261553 0.066053 0.750303
0.362970 0.069720 0.753970
0.464388 0.073388 0.757638
0.565805 0.077055 0.761305
0.667222 0.080722 0.764972
0.768640 0.084390 0.768640
0.870057 0.088057 0.772307
0.071055 0.168805 0.755305
0.172473 0.172473 0.758973
0.273890 0.176140 0.762640
0.375307 0.179807 0.766307
0.476725 0.183475 0.769975
0.578142 0.187142 0.773642
0.679559 0.190809 0.777309
0.780977 0.194477 0.780977
0.882394 0.198144 0.784644
0.083393 0.278893 0.767643
0.184810 0.282560 0.771310
0.286227 0.286227 0.774977
0.387645 0.289895 0.778645
0.489062 0.293562 0.782312
0.590479 0.297229 0.785979
0.691897 0.300897 0.789647
0.793314 0.304564 0.793314
0.894731 0.308231 0.796981
0.095730 0.388980 0.779980
0.197147 0.392647 0.783647
0.298564 0.396314 0.787314
0.399982 0.399982 0.790982
0.501399 0.403649 0.794649
0.602817 0.407317 0.798317
0.704234 0.410984 0.801984
0.805651 0.414651 0.805651
0.907069 0.418319 0.809319
0.108067 0.499067 0.792317
0.209484 0.502734 0.795984
0.310902 0.506402 0.799652
0.412319 0.510069 0.803319
0.513736 0.513736 0.806986
0.615154 0.517404 0.810654
0.716571 0.521071 0.814321
0.817988 0.524738 0.817988
0.919406 0.528406 0.821656
0.120404 0.609154 0.804654
0.221822 0.612822 0.808322
0.323239 0.616489 0.811989
0.424656 0.620156 0.815656
0.526074 0.623824 0.819324
0.627491 0.627491 0.822991
0.728908 0.631158 0.826658
0.830326 0.634826 0.830326
0.931743 0.638493 0.833993
0.132741 0.719241 0.816991
0.234159 0.722909 0.820659
0.335576 0.726576 0.824326
0.436993 0.730243 0.827993
0.538411 0.733911 0.831661
0.639828 0.737578 0.835328
0.741245 0.741245 0.838995
0.842663 0.744913 0.842663
0.944080 0.748580 0.846330
0.145079 0.829329 0.829329
0.246496 0.832996 0.832996
0.347913 0.836663 0.836663
0.449331 0.840331 0.840331
0.550748 0.843998 0.843998
0.652165 0.847665 0.847665
0.753583 0.851333 0.851333
0.855000 0.855000 0.855000
0.956417 0.858667 0.858667
0.157416 0.939416 0.841666
0.258833 0.943083 0.845333
0.360250 0.946750 0.849000
0.461668 0.950418 0.852668
0.563085 0.954085 0.856335
0.664502 0.957753 0.860003
0.765920 0.961420 0.863670
0.867337 0.965087 0.867337
0.968755 0.968755 0.871005
0.059964 0.059964 0.841964
0.161381 0.063631 0.845631
0.262798 0.067298 0.849298
0.364216 0.070966 0.852966
0.465633 0.074633 0.856633
0.567050 0.078300 0.860300
0.668468 0.081968 0.863968
0.769885 0.085635 0.867635
0.871302 0.089302 0.871302
0.072301 0.170051 0.854301
0.173718 0.173718 0.857968
0.275136 0.177385 0.861635
0.376553 0.181053 0.865303
0.477970 0.184720 0.868970
0.579388 0.188388 0.872638
0.680805 0.192055 0.876305
0.782222 0.195722 0.879972
0.883640 0.199390 0.883640
0.084638 0.280138 0.866638
0.186055 0.283805 0.870305
0.287473 0.287473 0.873973
0.388890 0.291140 0.877640
0.490307 0.294807 0.881307
0.591725 0.298475 0.884975
0.693142 0.302142 0.888642
0.794559 0.305809 0.892309
0.895977 0.309477 0.895977
0.096975 0.390225 0.878975
0.198393 0.393893 0.882643
0.299810 0.397560 0.886310
0.401227 0.401227 0.889977
0.502645 0.404895 0.893645
0.604062 0.408562 0.897312
0.705479 0.412229 0.900979
0.806897 0.415897 0.904647
0.908314 0.419564 0.908314
0.109312 0.500312 0.891312
0.210730 0.503980 0.894980
0.312147 0.507647 0.898647
0.413564 0.511314 0.902314
0.514982 0.514982 0.905982
0.616399 0.518649 0.909649
0.717817 0.522317 0.913316
0.819234 0.525984 0.916984
0.920651 0.529651 0.920651
0.121650 0.610400 0.903650
0.223067 0.614067 0.907317
0.324484 0.617734 0.910984
0.425902 0.621402 0.914652
0.527319 0.625069 0.918319
0.628736 0.628736 0.921986
0.730154 0.632404 0.925654
0.831571 0.636071 0.929321
0.932988 0.639738 0.932988
0.133987 0.720487 0.915987
0.235404 0.724154 0.919654
0.336821 0.727822 0.923322
0.438239 0.731489 0.926989
0.539656 0.735156 0.930656
0.641074 0.738824 0.934324
0.742491 0.742491 0.937991
0.843908 0.746158 0.941658
0.945326 0.749826 0.945326
0.146324 0.830574 0.928324
0.247741 0.834241 0.931991
0.349159 0.837909 0.935659
0.450576 0.841576 0.939326
0.551993 0.845243 0.942993
0.653411 0.848911 0.946661
0.754828 0.852578 0.950328
0.856245 0.856245 0.953995
0.957663 0.859913 0.957663
0.158661 0.940661 0.940661
0.260079 0.944329 0.944329
0.361496 0.947996 0.947996
0.462913 0.951663 0.951663
0.564331 0.955331 0.955331
0.665748 0.958998 0.958998
0.767165 0.962665 0.962665
0.868583 0.966333 0.966333
0.970000 0.970000 0.970000
