presets/luts/faded.cube
# faded — bundled look for apply_lut/list_luts
LUT_3D_SIZE 5
0.050000 0.050000 0.050000
0.252835 0.057335 0.057335
0.455669 0.064669 0.064669
0.658504 0.072004 0.072004
0.861339 0.079339 0.079339
0.074674 0.270174 0.074674
0.277509 0.277509 0.082009
0.480344 0.284844 0.089344
0.683179 0.292179 0.096679
0.886013 0.299513 0.104013
0.099349 0.490349 0.099349
0.302183 0.497684 0.106683
0.505018 0.505018 0.114018
0.707853 0.512353 0.121353
0.910688 0.519688 0.128688
0.124023 0.710523 0.124023
0.326858 0.717858 0.131358
0.529693 0.725193 0.138693
0.732527 0.732527 0.146027
0.935362 0.739862 0.153362
0.148698 0.930698 0.148698
0.351532 0.938032 0.156032
0.554367 0.945367 0.163367
0.757202 0.952702 0.170702
0.960036 0.960036 0.178036
0.052491 0.052491 0.247991
0.255326 0.059826 0.255326
0.458160 0.067160 0.262660
0.660995 0.074495 0.269995
0.863830 0.081830 0.277330
0.077165 0.272665 0.272665
0.280000 0.280000 0.280000
0.482835 0.287335 0.287335
0.685669 0.294669 0.294669
0.888504 0.302004 0.302004
0.101840 0.492840 0.297340
0.304674 0.500174 0.304674
0.507509 0.507509 0.312009
0.710344 0.514844 0.319344
0.913179 0.522179 0.326678
0.126514 0.713014 0.322014
0.329349 0.720349 0.329349
0.532184 0.727684 0.336684
0.735018 0.735018 0.344018
0.937853 0.742353 0.351353
0.151189 0.933189 0.346689
0.354023 0.940523 0.354023
0.556858 0.947858 0.361358
0.759693 0.955193 0.368693
0.962527 0.962527 0.376027
0.054982 0.054982 0.445982
0.257817 0.062317 0.453317
0.460651 0.069651 0.460651
0.663486 0.076986 0.467986
0.866321 0.084321 0.475321
0.079656 0.275156 0.470656
0.282491 0.282491 0.477991
0.485326 0.289826 0.485326
0.688160 0.297160 0.492660
0.890995 0.304495 0.499995
0.104331 0.495331 0.495331
0.307165 0.502665 0.502665
0.510000 0.510000 0.510000
0.712835 0.517335 0.517335
0.915669 0.524669 0.524669
0.129005 0.715505 0.520005
0.331840 0.722840 0.527340
0.534674 0.730174 0.534674
0.737509 0.737509 0.542009
0.940344 0.744844 0.549344
0.153679 0.935679 0.544679
0.356514 0.943014 0.552014
0.559349 0.950349 0.559349
0.762184 0.957684 0.566684
0.965018 0.965018 0.574018
0.057473 0.057473 0.643973
0.260307 0.064807 0.651307
0.463142 0.072142 0.658642
0.665977 0.079477 0.665977
0.868812 0.086812 0.673312
0.082147 0.277647 0.668647
0.284982 0.284982 0.675982
0.487817 0.292317 0.683316
0.690651 0.299651 0.690651
0.893486 0.306986 0.697986
0.106821 0.497821 0.693321
0.309656 0.505156 0.700656
0.512491 0.512491 0.707991
0.715326 0.519826 0.715326
0.918160 0.527160 0.722660
0.131496 0.717996 0.717996
0.334331 0.725331 0.725331
0.537165 0.732665 0.732665
0.740000 0.740000 0.740000
0.942835 0.747335 0.747335
0.156170 0.938170 0.742670
0.359005 0.945505 0.750005
0.561840 0.952840 0.757340
0.764674 0.960174 0.764674
0.967509 0.967509 0.772009
0.059964 0.059964 0.841964
0.262798 0.067298 0.849298
0.465633 0.074633 0.856633
0.668468 0.081968 0.863968
0.871302 0.089302 0.871302
0.084638 0.280138 0.866638
0.287473 0.287473 0.873973
0.490307 0.294807 0.881307
0.693142 0.302142 0.888642
0.895977 0.309477 0.895977
0.109312 0.500312 0.891312
0.312147 0.507647 0.898647
0.514982 0.514982 0.905982
0.717817 0.522317 0.913316
0.920651 0.529651 0.920651
0.133987 0.720487 0.915987
0.336821 0.727822 0.923322
0.539656 0.735156 0.930656
0.742491 0.742491 0.937991
0.945326 0.749826 0.945326
0.158661 0.940661 0.940661
0.361496 0.947996 0.947996
0.564331 0.955331 0.955331
0.767165 0.962665 0.962665
0.970000 0.970000 0.970000
