presets/luts/mono.cube
# mono — bundled look for apply_lut/list_luts
LUT_3D_SIZE 9
0.000000 0.000000 0.000000
0.023555 0.023555 0.023555
0.047450 0.047450 0.047450
0.071683 0.071683 0.071683
0.096256 0.096256 0.096256
0.121167 0.121167 0.121167
0.146418 0.146418 0.146418
0.172007 0.172007 0.172007
0.197936 0.197936 0.197936
0.080590 0.080590 0.080590
0.105286 0.105286 0.105286
0.130321 0.130321 0.130321
0.155695 0.155695 0.155695
0.181408 0.181408 0.181408
0.207459 0.207459 0.207459
0.233850 0.233850 0.233850
0.260580 0.260580 0.260580
0.287649 0.287649 0.287649
0.165017 0.165017 0.165017
0.190853 0.190853 0.190853
0.217028 0.217028 0.217028
0.243542 0.243542 0.243542
0.270396 0.270396 0.270396
0.297588 0.297588 0.297588
0.325119 0.325119 0.325119
0.352989 0.352989 0.352989
0.381199 0.381199 0.381199
0.253279 0.253279 0.253279
0.280256 0.280256 0.280256
0.307572 0.307572 0.307572
0.335226 0.335226 0.335226
0.363220 0.363220 0.363220
0.391553 0.391553 0.391553
0.420224 0.420224 0.420224
0.449235 0.449235 0.449235
0.478584 0.478584 0.478584
0.345379 0.345379 0.345379
0.373496 0.373496 0.373496
0.401952 0.401952 0.401952
0.430747 0.430747 0.430747
0.459881 0.459881 0.459881
0.489354 0.489354 0.489354
0.519026 0.519026 0.519026
0.548403 0.548403 0.548403
0.577441 0.577441 0.577441
0.441314 0.441314 0.441314
0.470572 0.470572 0.470572
0.500168 0.500168 0.500168
0.529761 0.529761 0.529761
0.559014 0.559014 0.559014
0.587929 0.587929 0.587929
0.616504 0.616504 0.616504
0.644741 0.644741 0.644741
0.672639 0.672639 0.672639
0.540450 0.540450 0.540450
0.569580 0.569580 0.569580
0.598371 0.598371 0.598371
0.626824 0.626824 0.626824
0.654937 0.654937 0.654937
0.682711 0.682711 0.682711
0.710146 0.710146 0.710146
0.737243 0.737243 0.737243
0.764000 0.764000 0.764000
0.637098 0.637098 0.637098
0.665088 0.665088 0.665088
0.692738 0.692738 0.692738
0.720050 0.720050 0.720050
0.747023 0.747023 0.747023
0.773657 0.773657 0.773657
0.799952 0.799952 0.799952
0.825908 0.825908 0.825908
0.851525 0.851525 0.851525
0.729909 0.729909 0.729909
0.756759 0.756759 0.756759
0.783269 0.783269 0.783269
0.809441 0.809441 0.809441
0.835273 0.835273 0.835273
0.860767 0.860767 0.860767
0.885921 0.885921 0.885921
0.910736 0.910736 0.910736
0.935213 0.935213 0.935213
0.007962 0.007962 0.007962
0.031632 0.031632 0.031632
0.055642 0.055642 0.055642
0.079990 0.079990 0.079990
0.104678 0.104678 0.104678
0.129705 0.129705 0.129705
0.155070 0.155070 0.155070
0.180775 0.180775 0.180775
0.206818 0.206818 0.206818
0.088939 0.088939 0.088939
0.113750 0.113750 0.113750
0.138900 0.138900 0.138900
0.164389 0.164389 0.164389
0.190217 0.190217 0.190217
0.216384 0.216384 0.216384
0.242890 0.242890 0.242890
0.269735 0.269735 0.269735
0.296919 0.296919 0.296919
0.173753 0.173753 0.173753
0.199704 0.199704 0.199704
0.225995 0.225995 0.225995
0.252624 0.252624 0.252624
0.279592 0.279592 0.279592
0.306900 0.306900 0.306900
0.334546 0.334546 0.334546
0.362531 0.362531 0.362531
0.390856 0.390856 0.390856
0.262403 0.262403 0.262403
0.289495 0.289495 0.289495
0.316925 0.316925 0.316925
0.344695 0.344695 0.344695
0.372804 0.372804 0.372804
0.401252 0.401252 0.401252
0.430038 0.430038 0.430038
0.459164 0.459164 0.459164
0.488629 0.488629 0.488629
0.354889 0.354889 0.354889
0.383121 0.383121 0.383121
0.411693 0.411693 0.411693
0.440603 0.440603 0.440603
0.469852 0.469852 0.469852
0.499440 0.499440 0.499440
0.529041 0.529041 0.529041
0.558303 0.558303 0.558303
0.587226 0.587226 0.587226
0.451212 0.451212 0.451212
0.480585 0.480585 0.480585
0.510256 0.510256 0.510256
0.539733 0.539733 0.539733
0.568872 0.568872 0.568872
0.597671 0.597671 0.597671
0.626132 0.626132 0.626132
0.654253 0.654253 0.654253
0.682036 0.682036 0.682036
0.550381 0.550381 0.550381
0.579396 0.579396 0.579396
0.608072 0.608072 0.608072
0.636409 0.636409 0.636409
0.664407 0.664407 0.664407
0.692066 0.692066 0.692066
0.719386 0.719386 0.719386
0.746367 0.746367 0.746367
0.773010 0.773010 0.773010
0.646641 0.646641 0.646641
0.674516 0.674516 0.674516
0.702052 0.702052 0.702052
0.729248 0.729248 0.729248
0.756106 0.756106 0.756106
0.782625 0.782625 0.782625
0.808805 0.808805 0.808805
0.834645 0.834645 0.834645
0.860147 0.860147 0.860147
0.739066 0.739066 0.739066
0.765800 0.765800 0.765800
0.792195 0.792195 0.792195
0.818251 0.818251 0.818251
0.843969 0.843969 0.843969
0.869347 0.869347 0.869347
0.894386 0.894386 0.894386
0.919087 0.919087 0.919087
0.943448 0.943448 0.943448
0.015962 0.015962 0.015962
0.039748 0.039748 0.039748
0.063873 0.063873 0.063873
0.088336 0.088336 0.088336
0.113139 0.113139 0.113139
0.138281 0.138281 0.138281
0.163762 0.163762 0.163762
0.189581 0.189581 0.189581
0.215740 0.215740 0.215740
0.097327 0.097327 0.097327
0.122253 0.122253 0.122253
0.147518 0.147518 0.147518
0.173122 0.173122 0.173122
0.199065 0.199065 0.199065
0.225347 0.225347 0.225347
0.251969 0.251969 0.251969
0.278929 0.278929 0.278929
0.306228 0.306228 0.306228
0.182528 0.182528 0.182528
0.208594 0.208594 0.208594
0.235000 0.235000 0.235000
0.261744 0.261744 0.261744
0.288828 0.288828 0.288828
0.316250 0.316250 0.316250
0.344012 0.344012 0.344012
0.372112 0.372112 0.372112
0.400552 0.400552 0.400552
0.271565 0.271565 0.271565
0.298772 0.298772 0.298772
0.326318 0.326318 0.326318
0.354203 0.354203 0.354203
0.382427 0.382427 0.382427
0.410990 0.410990 0.410990
0.439892 0.439892 0.439892
0.469132 0.469132 0.469132
0.498712 0.498712 0.498712
0.364439 0.364439 0.364439
0.392786 0.392786 0.392786
0.421473 0.421473 0.421473
0.450498 0.450498 0.450498
0.479862 0.479862 0.479862
0.509531 0.509531 0.509531
0.539016 0.539016 0.539016
0.568163 0.568163 0.568163
0.596971 0.596971 0.596971
0.461149 0.461149 0.461149
0.490637 0.490637 0.490637
0.520305 0.520305 0.520305
0.549667 0.549667 0.549667
0.578690 0.578690 0.578690
0.607375 0.607375 0.607375
0.635720 0.635720 0.635720
0.663726 0.663726 0.663726
0.691394 0.691394 0.691394
0.560272 0.560272 0.560272
0.589172 0.589172 0.589172
0.617733 0.617733 0.617733
0.645955 0.645955 0.645955
0.673838 0.673838 0.673838
0.701382 0.701382 0.701382
0.728587 0.728587 0.728587
0.755453 0.755453 0.755453
0.781980 0.781980 0.781980
0.656146 0.656146 0.656146
0.683905 0.683905 0.683905
0.711326 0.711326 0.711326
0.738407 0.738407 0.738407
0.765150 0.765150 0.765150
0.791554 0.791554 0.791554
0.817618 0.817618 0.817618
0.843344 0.843344 0.843344
0.868730 0.868730 0.868730
0.748183 0.748183 0.748183
0.774802 0.774802 0.774802
0.801082 0.801082 0.801082
0.827023 0.827023 0.827023
0.852625 0.852625 0.852625
0.877889 0.877889 0.877889
0.902813 0.902813 0.902813
0.927398 0.927398 0.927398
0.951644 0.951644 0.951644
0.024002 0.024002 0.024002
0.047903 0.047903 0.047903
0.072143 0.072143 0.072143
0.096721 0.096721 0.096721
0.121639 0.121639 0.121639
0.146896 0.146896 0.146896
0.172492 0.172492 0.172492
0.198427 0.198427 0.198427
0.224701 0.224701 0.224701
0.105754 0.105754 0.105754
0.130795 0.130795 0.130795
0.156175 0.156175 0.156175
0.181895 0.181895 0.181895
0.207953 0.207953 0.207953
0.234350 0.234350 0.234350
0.261086 0.261086 0.261086
0.288162 0.288162 0.288162
0.315576 0.315576 0.315576
0.191342 0.191342 0.191342
0.217524 0.217524 0.217524
0.244045 0.244045 0.244045
0.270904 0.270904 0.270904
0.298103 0.298103 0.298103
0.325640 0.325640 0.325640
0.353517 0.353517 0.353517
0.381733 0.381733 0.381733
0.410287 0.410287 0.410287
0.280767 0.280767 0.280767
0.308089 0.308089 0.308089
0.335750 0.335750 0.335750
0.363750 0.363750 0.363750
0.392089 0.392089 0.392089
0.420767 0.420767 0.420767
0.449784 0.449784 0.449784
0.479140 0.479140 0.479140
0.508805 0.508805 0.508805
0.374028 0.374028 0.374028
0.402490 0.402490 0.402490
0.431292 0.431292 0.431292
0.460432 0.460432 0.460432
0.489912 0.489912 0.489912
0.519582 0.519582 0.519582
0.548953 0.548953 0.548953
0.577984 0.577984 0.577984
0.606677 0.606677 0.606677
0.471125 0.471125 0.471125
0.500728 0.500728 0.500728
0.530314 0.530314 0.530314
0.559561 0.559561 0.559561
0.588470 0.588470 0.588470
0.617039 0.617039 0.617039
0.645269 0.645269 0.645269
0.673160 0.673160 0.673160
0.700713 0.700713 0.700713
0.570125 0.570125 0.570125
0.598910 0.598910 0.598910
0.627356 0.627356 0.627356
0.655463 0.655463 0.655463
0.683230 0.683230 0.683230
0.710659 0.710659 0.710659
0.737749 0.737749 0.737749
0.764500 0.764500 0.764500
0.790912 0.790912 0.790912
0.665611 0.665611 0.665611
0.693255 0.693255 0.693255
0.720561 0.720561 0.720561
0.747527 0.747527 0.747527
0.774155 0.774155 0.774155
0.800443 0.800443 0.800443
0.826393 0.826393 0.826393
0.852003 0.852003 0.852003
0.877275 0.877275 0.877275
0.757261 0.757261 0.757261
0.783765 0.783765 0.783765
0.809930 0.809930 0.809930
0.835756 0.835756 0.835756
0.861243 0.861243 0.861243
0.886391 0.886391 0.886391
0.911200 0.911200 0.911200
0.935670 0.935670 0.935670
0.959801 0.959801 0.959801
0.032081 0.032081 0.032081
0.056097 0.056097 0.056097
0.080452 0.080452 0.080452
0.105146 0.105146 0.105146
0.130179 0.130179 0.130179
0.155551 0.155551 0.155551
0.181262 0.181262 0.181262
0.207311 0.207311 0.207311
0.233700 0.233700 0.233700
0.114220 0.114220 0.114220
0.139376 0.139376 0.139376
0.164872 0.164872 0.164872
0.190706 0.190706 0.190706
0.216879 0.216879 0.216879
0.243392 0.243392 0.243392
0.270243 0.270243 0.270243
0.297433 0.297433 0.297433
0.324963 0.324963 0.324963
0.200196 0.200196 0.200196
0.226492 0.226492 0.226492
0.253128 0.253128 0.253128
0.280103 0.280103 0.280103
0.307417 0.307417 0.307417
0.335069 0.335069 0.335069
0.363061 0.363061 0.363061
0.391392 0.391392 0.391392
0.420061 0.420061 0.420061
0.290008 0.290008 0.290008
0.317445 0.317445 0.317445
0.345221 0.345221 0.345221
0.373336 0.373336 0.373336
0.401790 0.401790 0.401790
0.430583 0.430583 0.430583
0.459715 0.459715 0.459715
0.489186 0.489186 0.489186
0.518859 0.518859 0.518859
0.383656 0.383656 0.383656
0.412233 0.412233 0.412233
0.441150 0.441150 0.441150
0.470405 0.470405 0.470405
0.500000 0.500000 0.500000
0.529595 0.529595 0.529595
0.558850 0.558850 0.558850
0.587767 0.587767 0.587767
0.616344 0.616344 0.616344
0.481141 0.481141 0.481141
0.510814 0.510814 0.510814
0.540285 0.540285 0.540285
0.569417 0.569417 0.569417
0.598210 0.598210 0.598210
0.626664 0.626664 0.626664
0.654779 0.654779 0.654779
0.682555 0.682555 0.682555
0.709992 0.709992 0.709992
0.579939 0.579939 0.579939
0.608608 0.608608 0.608608
0.636939 0.636939 0.636939
0.664931 0.664931 0.664931
0.692583 0.692583 0.692583
0.719897 0.719897 0.719897
0.746872 0.746872 0.746872
0.773508 0.773508 0.773508
0.799804 0.799804 0.799804
0.675037 0.675037 0.675037
0.702567 0.702567 0.702567
0.729757 0.729757 0.729757
0.756608 0.756608 0.756608
0.783121 0.783121 0.783121
0.809294 0.809294 0.809294
0.835128 0.835128 0.835128
0.860624 0.860624 0.860624
0.885780 0.885780 0.885780
0.766300 0.766300 0.766300
0.792689 0.792689 0.792689
0.818738 0.818738 0.818738
0.844449 0.844449 0.844449
0.869821 0.869821 0.869821
0.894854 0.894854 0.894854
0.919548 0.919548 0.919548
0.943903 0.943903 0.943903
0.967919 0.967919 0.967919
0.040199 0.040199 0.040199
0.064330 0.064330 0.064330
0.088800 0.088800 0.088800
0.113609 0.113609 0.113609
0.138757 0.138757 0.138757
0.164244 0.164244 0.164244
0.190070 0.190070 0.190070
0.216235 0.216235 0.216235
0.242739 0.242739 0.242739
0.122725 0.122725 0.122725
0.147997 0.147997 0.147997
0.173607 0.173607 0.173607
0.199557 0.199557 0.199557
0.225845 0.225845 0.225845
0.252473 0.252473 0.252473
0.279439 0.279439 0.279439
0.306745 0.306745 0.306745
0.334389 0.334389 0.334389
0.209088 0.209088 0.209088
0.235500 0.235500 0.235500
0.262251 0.262251 0.262251
0.289341 0.289341 0.289341
0.316770 0.316770 0.316770
0.344537 0.344537 0.344537
0.372644 0.372644 0.372644
0.401090 0.401090 0.401090
0.429875 0.429875 0.429875
0.299287 0.299287 0.299287
0.326840 0.326840 0.326840
0.354731 0.354731 0.354731
0.382961 0.382961 0.382961
0.411530 0.411530 0.411530
0.440439 0.440439 0.440439
0.469686 0.469686 0.469686
0.499272 0.499272 0.499272
0.528875 0.528875 0.528875
0.393323 0.393323 0.393323
0.422016 0.422016 0.422016
0.451047 0.451047 0.451047
0.480418 0.480418 0.480418
0.510088 0.510088 0.510088
0.539568 0.539568 0.539568
0.568708 0.568708 0.568708
0.597510 0.597510 0.597510
0.625972 0.625972 0.625972
0.491195 0.491195 0.491195
0.520860 0.520860 0.520860
0.550216 0.550216 0.550216
0.579233 0.579233 0.579233
0.607911 0.607911 0.607911
0.636250 0.636250 0.636250
0.664250 0.664250 0.664250
0.691911 0.691911 0.691911
0.719233 0.719233 0.719233
0.589713 0.589713 0.589713
0.618267 0.618267 0.618267
0.646483 0.646483 0.646483
0.674360 0.674360 0.674360
0.701897 0.701897 0.701897
0.729096 0.729096 0.729096
0.755955 0.755955 0.755955
0.782476 0.782476 0.782476
0.808658 0.808658 0.808658
0.684424 0.684424 0.684424
0.711838 0.711838 0.711838
0.738914 0.738914 0.738914
0.765650 0.765650 0.765650
0.792047 0.792047 0.792047
0.818105 0.818105 0.818105
0.843825 0.843825 0.843825
0.869205 0.869205 0.869205
0.894246 0.894246 0.894246
0.775299 0.775299 0.775299
0.801573 0.801573 0.801573
0.827508 0.827508 0.827508
0.853104 0.853104 0.853104
0.878361 0.878361 0.878361
0.903279 0.903279 0.903279
0.927857 0.927857 0.927857
0.952097 0.952097 0.952097
0.975998 0.975998 0.975998
0.048356 0.048356 0.048356
0.072602 0.072602 0.072602
0.097187 0.097187 0.097187
0.122111 0.122111 0.122111
0.147375 0.147375 0.147375
0.172977 0.172977 0.172977
0.198918 0.198918 0.198918
0.225198 0.225198 0.225198
0.251817 0.251817 0.251817
0.131270 0.131270 0.131270
0.156656 0.156656 0.156656
0.182382 0.182382 0.182382
0.208446 0.208446 0.208446
0.234850 0.234850 0.234850
0.261593 0.261593 0.261593
0.288674 0.288674 0.288674
0.316095 0.316095 0.316095
0.343854 0.343854 0.343854
0.218020 0.218020 0.218020
0.244547 0.244547 0.244547
0.271413 0.271413 0.271413
0.298618 0.298618 0.298618
0.326162 0.326162 0.326162
0.354045 0.354045 0.354045
0.382267 0.382267 0.382267
0.410828 0.410828 0.410828
0.439728 0.439728 0.439728
0.308606 0.308606 0.308606
0.336274 0.336274 0.336274
0.364280 0.364280 0.364280
0.392625 0.392625 0.392625
0.421310 0.421310 0.421310
0.450333 0.450333 0.450333
0.479695 0.479695 0.479695
0.509363 0.509363 0.509363
0.538851 0.538851 0.538851
0.403029 0.403029 0.403029
0.431837 0.431837 0.431837
0.460984 0.460984 0.460984
0.490469 0.490469 0.490469
0.520138 0.520138 0.520138
0.549502 0.549502 0.549502
0.578527 0.578527 0.578527
0.607214 0.607214 0.607214
0.635561 0.635561 0.635561
0.501288 0.501288 0.501288
0.530868 0.530868 0.530868
0.560108 0.560108 0.560108
0.589010 0.589010 0.589010
0.617573 0.617573 0.617573
0.645797 0.645797 0.645797
0.673682 0.673682 0.673682
0.701228 0.701228 0.701228
0.728435 0.728435 0.728435
0.599448 0.599448 0.599448
0.627888 0.627888 0.627888
0.655988 0.655988 0.655988
0.683750 0.683750 0.683750
0.711172 0.711172 0.711172
0.738256 0.738256 0.738256
0.765000 0.765000 0.765000
0.791406 0.791406 0.791406
0.817472 0.817472 0.817472
0.693772 0.693772 0.693772
0.721071 0.721071 0.721071
0.748031 0.748031 0.748031
0.774653 0.774653 0.774653
0.800935 0.800935 0.800935
0.826878 0.826878 0.826878
0.852482 0.852482 0.852482
0.877747 0.877747 0.877747
0.902673 0.902673 0.902673
0.784260 0.784260 0.784260
0.810419 0.810419 0.810419
0.836238 0.836238 0.836238
0.861719 0.861719 0.861719
0.886861 0.886861 0.886861
0.911664 0.911664 0.911664
0.936127 0.936127 0.936127
0.960252 0.960252 0.960252
0.984038 0.984038 0.984038
0.056552 0.056552 0.056552
0.080913 0.080913 0.080913
0.105614 0.105614 0.105614
0.130653 0.130653 0.130653
0.156031 0.156031 0.156031
0.181749 0.181749 0.181749
0.207805 0.207805 0.207805
0.234200 0.234200 0.234200
0.260934 0.260934 0.260934
0.139853 0.139853 0.139853
0.165355 0.165355 0.165355
0.191195 0.191195 0.191195
0.217375 0.217375 0.217375
0.243894 0.243894 0.243894
0.270752 0.270752 0.270752
0.297948 0.297948 0.297948
0.325484 0.325484 0.325484
0.353359 0.353359 0.353359
0.226990 0.226990 0.226990
0.253633 0.253633 0.253633
0.280614 0.280614 0.280614
0.307934 0.307934 0.307934
0.335593 0.335593 0.335593
0.363591 0.363591 0.363591
0.391928 0.391928 0.391928
0.420604 0.420604 0.420604
0.449619 0.449619 0.449619
0.317964 0.317964 0.317964
0.345747 0.345747 0.345747
0.373868 0.373868 0.373868
0.402329 0.402329 0.402329
0.431128 0.431128 0.431128
0.460267 0.460267 0.460267
0.489744 0.489744 0.489744
0.519415 0.519415 0.519415
0.548788 0.548788 0.548788
0.412774 0.412774 0.412774
0.441697 0.441697 0.441697
0.470959 0.470959 0.470959
0.500560 0.500560 0.500560
0.530148 0.530148 0.530148
0.559397 0.559397 0.559397
0.588307 0.588307 0.588307
0.616879 0.616879 0.616879
0.645111 0.645111 0.645111
0.511371 0.511371 0.511371
0.540836 0.540836 0.540836
0.569962 0.569962 0.569962
0.598748 0.598748 0.598748
0.627196 0.627196 0.627196
0.655305 0.655305 0.655305
0.683075 0.683075 0.683075
0.710505 0.710505 0.710505
0.737597 0.737597 0.737597
0.609144 0.609144 0.609144
0.637469 0.637469 0.637469
0.665454 0.665454 0.665454
0.693100 0.693100 0.693100
0.720408 0.720408 0.720408
0.747376 0.747376 0.747376
0.774005 0.774005 0.774005
0.800296 0.800296 0.800296
0.826247 0.826247 0.826247
0.703081 0.703081 0.703081
0.730265 0.730265 0.730265
0.757110 0.757110 0.757110
0.783616 0.783616 0.783616
0.809783 0.809783 0.809783
0.835611 0.835611 0.835611
0.861100 0.861100 0.861100
0.886250 0.886250 0.886250
0.911061 0.911061 0.911061
0.793182 0.793182 0.793182
0.819225 0.819225 0.819225
0.844930 0.844930 0.844930
0.870295 0.870295 0.870295
0.895322 0.895322 0.895322
0.920010 0.920010 0.920010
0.944358 0.944358 0.944358
0.968368 0.968368 0.968368
0.992038 0.992038 0.992038
0.064787 0.064787 0.064787
0.089264 0.089264 0.089264
0.114079 0.114079 0.114079
0.139233 0.139233 0.139233
0.164727 0.164727 0.164727
0.190559 0.190559 0.190559
0.216731 0.216731 0.216731
0.243241 0.243241 0.243241
0.270091 0.270091 0.270091
0.148475 0.148475 0.148475
0.174092 0.174092 0.174092
0.200048 0.200048 0.200048
0.226343 0.226343 0.226343
0.252977 0.252977 0.252977
0.279950 0.279950 0.279950
0.307262 0.307262 0.307262
0.334912 0.334912 0.334912
0.362902 0.362902 0.362902
0.236000 0.236000 0.236000
0.262757 0.262757 0.262757
0.289854 0.289854 0.289854
0.317289 0.317289 0.317289
0.345063 0.345063 0.345063
0.373176 0.373176 0.373176
0.401629 0.401629 0.401629
0.430420 0.430420 0.430420
0.459550 0.459550 0.459550
0.327361 0.327361 0.327361
0.355259 0.355259 0.355259
0.383496 0.383496 0.383496
0.412071 0.412071 0.412071
0.440986 0.440986 0.440986
0.470239 0.470239 0.470239
0.499832 0.499832 0.499832
0.529428 0.529428 0.529428
0.558686 0.558686 0.558686
0.422559 0.422559 0.422559
0.451597 0.451597 0.451597
0.480974 0.480974 0.480974
0.510646 0.510646 0.510646
0.540119 0.540119 0.540119
0.569253 0.569253 0.569253
0.598048 0.598048 0.598048
0.626504 0.626504 0.626504
0.654621 0.654621 0.654621
0.521416 0.521416 0.521416
0.550765 0.550765 0.550765
0.579776 0.579776 0.579776
0.608447 0.608447 0.608447
0.636780 0.636780 0.636780
0.664774 0.664774 0.664774
0.692428 0.692428 0.692428
0.719744 0.719744 0.719744
0.746721 0.746721 0.746721
0.618801 0.618801 0.618801
0.647011 0.647011 0.647011
0.674881 0.674881 0.674881
0.702412 0.702412 0.702412
0.729604 0.729604 0.729604
0.756458 0.756458 0.756458
0.782972 0.782972 0.782972
0.809147 0.809147 0.809147
0.834983 0.834983 0.834983
0.712351 0.712351 0.712351
0.739420 0.739420 0.739420
0.766150 0.766150 0.766150
0.792541 0.792541 0.792541
0.818592 0.818592 0.818592
0.844305 0.844305 0.844305
0.869679 0.869679 0.869679
0.894714 0.894714 0.894714
0.919410 0.919410 0.919410
0.802064 0.802064 0.802064
0.827993 0.827993 0.827993
0.853582 0.853582 0.853582
0.878833 0.878833 0.878833
0.903744 0.903744 0.903744
0.928317 0.928317 0.928317
0.952550 0.952550 0.952550
0.976445 0.976445 0.976445
1.000000 1.000000 1.000000
