presets/luts/mono.cube
# mono — bundled look for apply_lut/list_luts
LUT_3D_SIZE 5
0.000000 0.000000 0.000000
0.047450 0.047450 0.047450
0.096256 0.096256 0.096256
0.146418 0.146418 0.146418
0.197936 0.197936 0.197936
0.165017 0.165017 0.165017
0.217028 0.217028 0.217028
0.270396 0.270396 0.270396
0.325119 0.325119 0.325119
0.381199 0.381199 0.381199
0.345379 0.345379 0.345379
0.401952 0.401952 0.401952
0.459881 0.459881 0.459881
0.519026 0.519026 0.519026
0.577441 0.577441 0.577441
0.540450 0.540450 0.540450
0.598371 0.598371 0.598371
0.654937 0.654937 0.654937
0.710146 0.710146 0.710146
0.764000 0.764000 0.764000
0.729909 0.729909 0.729909
0.783269 0.783269 0.783269
0.835273 0.835273 0.835273
0.885921 0.885921 0.885921
0.935213 0.935213 0.935213
0.015962 0.015962 0.015962
0.063873 0.063873 0.063873
0.113139 0.113139 0.113139
0.163762 0.163762 0.163762
0.215740 0.215740 0.215740
0.182528 0.182528 0.182528
0.235000 0.235000 0.235000
0.288828 0.288828 0.288828
0.344012 0.344012 0.344012
0.400552 0.400552 0.400552
0.364439 0.364439 0.364439
0.421473 0.421473 0.421473
0.479862 0.479862 0.479862
0.539016 0.539016 0.539016
0.596971 0.596971 0.596971
0.560272 0.560272 0.560272
0.617733 0.617733 0.617733
0.673838 0.673838 0.673838
0.728587 0.728587 0.728587
0.781980 0.781980 0.781980
0.748183 0.748183 0.748183
0.801082 0.801082 0.801082
0.852625 0.852625 0.852625
0.902813 0.902813 0.902813
0.951644 0.951644 0.951644
0.032081 0.032081 0.032081
0.080452 0.080452 0.080452
0.130179 0.130179 0.130179
0.181262 0.181262 0.181262
0.233700 0.233700 0.233700
0.200196 0.200196 0.200196
0.253128 0.253128 0.253128
0.307417 0.307417 0.307417
0.363061 0.363061 0.363061
0.420061 0.420061 0.420061
0.383656 0.383656 0.383656
0.441150 0.441150 0.441150
0.500000 0.500000 0.500000
0.558850 0.558850 0.558850
0.616344 0.616344 0.616344
0.579939 0.579939 0.579939
0.636939 0.636939 0.636939
0.692583 0.692583 0.692583
0.746872 0.746872 0.746872
0.799804 0.799804 0.799804
0.766300 0.766300 0.766300
0.818738 0.818738 0.818738
0.869821 0.869821 0.869821
0.919548 0.919548 0.919548
0.967919 0.967919 0.967919
0.048356 0.048356 0.048356
0.097187 0.097187 0.097187
0.147375 0.147375 0.147375
0.198918 0.198918 0.198918
0.251817 0.251817 0.251817
0.218020 0.218020 0.218020
0.271413 0.271413 0.271413
0.326162 0.326162 0.326162
0.382267 0.382267 0.382267
0.439728 0.439728 0.439728
0.403029 0.403029 0.403029
0.460984 0.460984 0.460984
0.520138 0.520138 0.520138
0.578527 0.578527 0.578527
0.635561 0.635561 0.635561
0.599448 0.599448 0.599448
0.655988 0.655988 0.655988
0.711172 0.711172 0.711172
0.765000 0.765000 0.765000
0.817472 0.817472 0.817472
0.784260 0.784260 0.784260
0.836238 0.836238 0.836238
0.886861 0.886861 0.886861
0.936127 0.936127 0.936127
0.984038 0.984038 0.984038
0.064787 0.064787 0.064787
0.114079 0.114079 0.114079
0.164727 0.164727 0.164727
0.216731 0.216731 0.216731
0.270091 0.270091 0.270091
0.236000 0.236000 0.236000
0.289854 0.289854 0.289854
0.345063 0.345063 0.345063
0.401629 0.401629 0.401629
0.459550 0.459550 0.459550
0.422559 0.422559 0.422559
0.480974 0.480974 0.480974
0.540119 0.540119 0.540119
0.598048 0.598048 0.598048
0.654621 0.654621 0.654621
0.618801 0.618801 0.618801
0.674881 0.674881 0.674881
0.729604 0.729604 0.729604
0.782972 0.782972 0.782972
0.834983 0.834983 0.834983
0.802064 0.802064 0.802064
0.853582 0.853582 0.853582
0.903744 0.903744 0.903744
0.952550 0.952550 0.952550
1.000000 1.000000 1.000000
