presets/luts/mono.cube
# mono — bundled look for apply_lut/list_luts
LUT_3D_SIZE 17
0.000000 0.000000 0.000000
0.011735 0.011735 0.011735
0.023555 0.023555 0.023555
0.035460 0.035460 0.035460
0.047450 0.047450 0.047450
0.059524 0.059524 0.059524
0.071683 0.071683 0.071683
0.083927 0.083927 0.083927
0.096256 0.096256 0.096256
0.108669 0.108669 0.108669
0.121167 0.121167 0.121167
0.133750 0.133750 0.133750
0.146418 0.146418 0.146418
0.159170 0.159170 0.159170
0.172007 0.172007 0.172007
0.184929 0.184929 0.184929
0.197936 0.197936 0.197936
0.039816 0.039816 0.039816
0.051836 0.051836 0.051836
0.063941 0.063941 0.063941
0.076131 0.076131 0.076131
0.088406 0.088406 0.088406
0.100765 0.100765 0.100765
0.113210 0.113210 0.113210
0.125739 0.125739 0.125739
0.138352 0.138352 0.138352
0.151051 0.151051 0.151051
0.163834 0.163834 0.163834
0.176702 0.176702 0.176702
0.189655 0.189655 0.189655
0.202692 0.202692 0.202692
0.215814 0.215814 0.215814
0.229021 0.229021 0.229021
0.242313 0.242313 0.242313
0.080590 0.080590 0.080590
0.092896 0.092896 0.092896
0.105286 0.105286 0.105286
0.117761 0.117761 0.117761
0.130321 0.130321 0.130321
0.142965 0.142965 0.142965
0.155695 0.155695 0.155695
0.168509 0.168509 0.168509
0.181408 0.181408 0.181408
0.194391 0.194391 0.194391
0.207459 0.207459 0.207459
0.220613 0.220613 0.220613
0.233850 0.233850 0.233850
0.247173 0.247173 0.247173
0.260580 0.260580 0.260580
0.274072 0.274072 0.274072
0.287649 0.287649 0.287649
0.122324 0.122324 0.122324
0.134915 0.134915 0.134915
0.147590 0.147590 0.147590
0.160350 0.160350 0.160350
0.173195 0.173195 0.173195
0.186125 0.186125 0.186125
0.199139 0.199139 0.199139
0.212238 0.212238 0.212238
0.225422 0.225422 0.225422
0.238691 0.238691 0.238691
0.252044 0.252044 0.252044
0.265482 0.265482 0.265482
0.279005 0.279005 0.279005
0.292613 0.292613 0.292613
0.306305 0.306305 0.306305
0.320082 0.320082 0.320082
0.333944 0.333944 0.333944
0.165017 0.165017 0.165017
0.177892 0.177892 0.177892
0.190853 0.190853 0.190853
0.203898 0.203898 0.203898
0.217028 0.217028 0.217028
0.230243 0.230243 0.230243
0.243542 0.243542 0.243542
0.256927 0.256927 0.256927
0.270396 0.270396 0.270396
0.283949 0.283949 0.283949
0.297588 0.297588 0.297588
0.311311 0.311311 0.311311
0.325119 0.325119 0.325119
0.339012 0.339012 0.339012
0.352989 0.352989 0.352989
0.367052 0.367052 0.367052
0.381199 0.381199 0.381199
0.208669 0.208669 0.208669
0.221829 0.221829 0.221829
0.235075 0.235075 0.235075
0.248405 0.248405 0.248405
0.261820 0.261820 0.261820
0.275320 0.275320 0.275320
0.288905 0.288905 0.288905
0.302574 0.302574 0.302574
0.316328 0.316328 0.316328
0.330167 0.330167 0.330167
0.344091 0.344091 0.344091
0.358099 0.358099 0.358099
0.372192 0.372192 0.372192
0.386370 0.386370 0.386370
0.400633 0.400633 0.400633
0.414980 0.414980 0.414980
0.429412 0.429412 0.429412
0.253279 0.253279 0.253279
0.266725 0.266725 0.266725
0.280256 0.280256 0.280256
0.293872 0.293872 0.293872
0.307572 0.307572 0.307572
0.321357 0.321357 0.321357
0.335226 0.335226 0.335226
0.349181 0.349181 0.349181
0.363220 0.363220 0.363220
0.377344 0.377344 0.377344
0.391553 0.391553 0.391553
0.405846 0.405846 0.405846
0.420224 0.420224 0.420224
0.434687 0.434687 0.434687
0.449235 0.449235 0.449235
0.463867 0.463867 0.463867
0.478584 0.478584 0.478584
0.298850 0.298850 0.298850
0.312581 0.312581 0.312581
0.326396 0.326396 0.326396
0.340297 0.340297 0.340297
0.354282 0.354282 0.354282
0.368352 0.368352 0.368352
0.382507 0.382507 0.382507
0.396747 0.396747 0.396747
0.411071 0.411071 0.411071
0.425480 0.425480 0.425480
0.439974 0.439974 0.439974
0.454552 0.454552 0.454552
0.469215 0.469215 0.469215
0.483964 0.483964 0.483964
0.498796 0.498796 0.498796
0.513642 0.513642 0.513642
0.528404 0.528404 0.528404
0.345379 0.345379 0.345379
0.359395 0.359395 0.359395
0.373496 0.373496 0.373496
0.387681 0.387681 0.387681
0.401952 0.401952 0.401952
0.416307 0.416307 0.416307
0.430747 0.430747 0.430747
0.445271 0.445271 0.445271
0.459881 0.459881 0.459881
0.474575 0.474575 0.474575
0.489354 0.489354 0.489354
0.504211 0.504211 0.504211
0.519026 0.519026 0.519026
0.533757 0.533757 0.533757
0.548403 0.548403 0.548403
0.562965 0.562965 0.562965
0.577441 0.577441 0.577441
0.392867 0.392867 0.392867
0.407168 0.407168 0.407168
0.421554 0.421554 0.421554
0.436025 0.436025 0.436025
0.450580 0.450580 0.450580
0.465221 0.465221 0.465221
0.479946 0.479946 0.479946
0.494755 0.494755 0.494755
0.509614 0.509614 0.509614
0.524399 0.524399 0.524399
0.539099 0.539099 0.539099
0.553714 0.553714 0.553714
0.568245 0.568245 0.568245
0.582691 0.582691 0.582691
0.597052 0.597052 0.597052
0.611328 0.611328 0.611328
0.625520 0.625520 0.625520
0.441314 0.441314 0.441314
0.455900 0.455900 0.455900
0.470572 0.470572 0.470572
0.485327 0.485327 0.485327
0.500168 0.500168 0.500168
0.515007 0.515007 0.515007
0.529761 0.529761 0.529761
0.544430 0.544430 0.544430
0.559014 0.559014 0.559014
0.573514 0.573514 0.573514
0.587929 0.587929 0.587929
0.602259 0.602259 0.602259
0.616504 0.616504 0.616504
0.630665 0.630665 0.630665
0.644741 0.644741 0.644741
0.658732 0.658732 0.658732
0.672639 0.672639 0.672639
0.490721 0.490721 0.490721
0.505580 0.505580 0.505580
0.520388 0.520388 0.520388
0.535111 0.535111 0.535111
0.549749 0.549749 0.549749
0.564303 0.564303 0.564303
0.578772 0.578772 0.578772
0.593156 0.593156 0.593156
0.607455 0.607455 0.607455
0.621670 0.621670 0.621670
0.635799 0.635799 0.635799
0.649845 0.649845 0.649845
0.663805 0.663805 0.663805
0.677680 0.677680 0.677680
0.691471 0.691471 0.691471
0.705177 0.705177 0.705177
0.718799 0.718799 0.718799
0.540450 0.540450 0.540450
0.555057 0.555057 0.555057
0.569580 0.569580 0.569580
0.584018 0.584018 0.584018
0.598371 0.598371 0.598371
0.612640 0.612640 0.612640
0.626824 0.626824 0.626824
0.640923 0.640923 0.640923
0.654937 0.654937 0.654937
0.668866 0.668866 0.668866
0.682711 0.682711 0.682711
0.696471 0.696471 0.696471
0.710146 0.710146 0.710146
0.723737 0.723737 0.723737
0.737243 0.737243 0.737243
0.750664 0.750664 0.750664
0.764000 0.764000 0.764000
0.589253 0.589253 0.589253
0.603576 0.603576 0.603576
0.617813 0.617813 0.617813
0.631966 0.631966 0.631966
0.646034 0.646034 0.646034
0.660018 0.660018 0.660018
0.673916 0.673916 0.673916
0.687730 0.687730 0.687730
0.701459 0.701459 0.701459
0.715104 0.715104 0.715104
0.728664 0.728664 0.728664
0.742138 0.742138 0.742138
0.755529 0.755529 0.755529
0.768834 0.768834 0.768834
0.782055 0.782055 0.782055
0.795191 0.795191 0.795191
0.808242 0.808242 0.808242
0.637098 0.637098 0.637098
0.651135 0.651135 0.651135
0.665088 0.665088 0.665088
0.678955 0.678955 0.678955
0.692738 0.692738 0.692738
0.706437 0.706437 0.706437
0.720050 0.720050 0.720050
0.733579 0.733579 0.733579
0.747023 0.747023 0.747023
0.760382 0.760382 0.760382
0.773657 0.773657 0.773657
0.786847 0.786847 0.786847
0.799952 0.799952 0.799952
0.812972 0.812972 0.812972
0.825908 0.825908 0.825908
0.838758 0.838758 0.838758
0.851525 0.851525 0.851525
0.683983 0.683983 0.683983
0.697735 0.697735 0.697735
0.711403 0.711403 0.711403
0.724985 0.724985 0.724985
0.738483 0.738483 0.738483
0.751897 0.751897 0.751897
0.765225 0.765225 0.765225
0.778469 0.778469 0.778469
0.791628 0.791628 0.791628
0.804702 0.804702 0.804702
0.817691 0.817691 0.817691
0.830596 0.830596 0.830596
0.843416 0.843416 0.843416
0.856151 0.856151 0.856151
0.868802 0.868802 0.868802
0.881367 0.881367 0.881367
0.893848 0.893848 0.893848
0.729909 0.729909 0.729909
0.743376 0.743376 0.743376
0.756759 0.756759 0.756759
0.770056 0.770056 0.770056
0.783269 0.783269 0.783269
0.796397 0.796397 0.796397
0.809441 0.809441 0.809441
0.822399 0.822399 0.822399
0.835273 0.835273 0.835273
0.848062 0.848062 0.848062
0.860767 0.860767 0.860767
0.873386 0.873386 0.873386
0.885921 0.885921 0.885921
0.898371 0.898371 0.898371
0.910736 0.910736 0.910736
0.923017 0.923017 0.923017
0.935213 0.935213 0.935213
0.003976 0.003976 0.003976
0.015740 0.015740 0.015740
0.027589 0.027589 0.027589
0.039523 0.039523 0.039523
0.051541 0.051541 0.051541
0.063644 0.063644 0.063644
0.075832 0.075832 0.075832
0.088105 0.088105 0.088105
0.100462 0.100462 0.100462
0.112904 0.112904 0.112904
0.125431 0.125431 0.125431
0.138043 0.138043 0.138043
0.150739 0.150739 0.150739
0.163520 0.163520 0.163520
0.176386 0.176386 0.176386
0.189337 0.189337 0.189337
0.202372 0.202372 0.202372
0.043888 0.043888 0.043888
0.055938 0.055938 0.055938
0.068071 0.068071 0.068071
0.080290 0.080290 0.080290
0.092594 0.092594 0.092594
0.104982 0.104982 0.104982
0.117455 0.117455 0.117455
0.130013 0.130013 0.130013
0.142655 0.142655 0.142655
0.155382 0.155382 0.155382
0.168194 0.168194 0.168194
0.181091 0.181091 0.181091
0.194073 0.194073 0.194073
0.207139 0.207139 0.207139
0.220290 0.220290 0.220290
0.233526 0.233526 0.233526
0.246846 0.246846 0.246846
0.084760 0.084760 0.084760
0.097094 0.097094 0.097094
0.109513 0.109513 0.109513
0.122017 0.122017 0.122017
0.134606 0.134606 0.134606
0.147279 0.147279 0.147279
0.160037 0.160037 0.160037
0.172880 0.172880 0.172880
0.185807 0.185807 0.185807
0.198820 0.198820 0.198820
0.211917 0.211917 0.211917
0.225099 0.225099 0.225099
0.238365 0.238365 0.238365
0.251717 0.251717 0.251717
0.265153 0.265153 0.265153
0.278673 0.278673 0.278673
0.292279 0.292279 0.292279
0.126590 0.126590 0.126590
0.139210 0.139210 0.139210
0.151914 0.151914 0.151914
0.164703 0.164703 0.164703
0.177576 0.177576 0.177576
0.190535 0.190535 0.190535
0.203578 0.203578 0.203578
0.216706 0.216706 0.216706
0.229919 0.229919 0.229919
0.243216 0.243216 0.243216
0.256598 0.256598 0.256598
0.270065 0.270065 0.270065
0.283617 0.283617 0.283617
0.297253 0.297253 0.297253
0.310974 0.310974 0.310974
0.324780 0.324780 0.324780
0.338671 0.338671 0.338671
0.169380 0.169380 0.169380
0.182284 0.182284 0.182284
0.195274 0.195274 0.195274
0.208348 0.208348 0.208348
0.221506 0.221506 0.221506
0.234750 0.234750 0.234750
0.248078 0.248078 0.248078
0.261491 0.261491 0.261491
0.274989 0.274989 0.274989
0.288572 0.288572 0.288572
0.302239 0.302239 0.302239
0.315991 0.315991 0.315991
0.329828 0.329828 0.329828
0.343749 0.343749 0.343749
0.357755 0.357755 0.357755
0.371846 0.371846 0.371846
0.386022 0.386022 0.386022
0.213129 0.213129 0.213129
0.226318 0.226318 0.226318
0.239593 0.239593 0.239593
0.252952 0.252952 0.252952
0.266396 0.266396 0.266396
0.279924 0.279924 0.279924
0.293538 0.293538 0.293538
0.307236 0.307236 0.307236
0.321019 0.321019 0.321019
0.334886 0.334886 0.334886
0.348839 0.348839 0.348839
0.362876 0.362876 0.362876
0.376998 0.376998 0.376998
0.391204 0.391204 0.391204
0.405495 0.405495 0.405495
0.419872 0.419872 0.419872
0.434332 0.434332 0.434332
0.257836 0.257836 0.257836
0.271311 0.271311 0.271311
0.284871 0.284871 0.284871
0.298515 0.298515 0.298515
0.312244 0.312244 0.312244
0.326057 0.326057 0.326057
0.339956 0.339956 0.339956
0.353939 0.353939 0.353939
0.368007 0.368007 0.368007
0.382160 0.382160 0.382160
0.396397 0.396397 0.396397
0.410720 0.410720 0.410720
0.425126 0.425126 0.425126
0.439618 0.439618 0.439618
0.454195 0.454195 0.454195
0.468856 0.468856 0.468856
0.483602 0.483602 0.483602
0.303503 0.303503 0.303503
0.317263 0.317263 0.317263
0.331108 0.331108 0.331108
0.345037 0.345037 0.345037
0.359051 0.359051 0.359051
0.373150 0.373150 0.373150
0.387333 0.387333 0.387333
0.401602 0.401602 0.401602
0.415955 0.415955 0.415955
0.430393 0.430393 0.430393
0.444915 0.444915 0.444915
0.459522 0.459522 0.459522
0.474214 0.474214 0.474214
0.488991 0.488991 0.488991
0.503847 0.503847 0.503847
0.518665 0.518665 0.518665
0.533398 0.533398 0.533398
0.350129 0.350129 0.350129
0.364174 0.364174 0.364174
0.378304 0.378304 0.378304
0.392518 0.392518 0.392518
0.406817 0.406817 0.406817
0.421201 0.421201 0.421201
0.435670 0.435670 0.435670
0.450223 0.450223 0.450223
0.464861 0.464861 0.464861
0.479584 0.479584 0.479584
0.494392 0.494392 0.494392
0.509252 0.509252 0.509252
0.524038 0.524038 0.524038
0.538741 0.538741 0.538741
0.553358 0.553358 0.553358
0.567890 0.567890 0.567890
0.582338 0.582338 0.582338
0.397714 0.397714 0.397714
0.412044 0.412044 0.412044
0.426459 0.426459 0.426459
0.440958 0.440958 0.440958
0.455543 0.455543 0.455543
0.470212 0.470212 0.470212
0.484965 0.484965 0.484965
0.499804 0.499804 0.499804
0.514645 0.514645 0.514645
0.529401 0.529401 0.529401
0.544072 0.544072 0.544072
0.558658 0.558658 0.558658
0.573160 0.573160 0.573160
0.587577 0.587577 0.587577
0.601909 0.601909 0.601909
0.616157 0.616157 0.616157
0.630320 0.630320 0.630320
0.446258 0.446258 0.446258
0.460873 0.460873 0.460873
0.475573 0.475573 0.475573
0.490358 0.490358 0.490358
0.505217 0.505217 0.505217
0.520027 0.520027 0.520027
0.534752 0.534752 0.534752
0.549392 0.549392 0.549392
0.563948 0.563948 0.563948
0.578419 0.578419 0.578419
0.592805 0.592805 0.592805
0.607106 0.607106 0.607106
0.621323 0.621323 0.621323
0.635455 0.635455 0.635455
0.649502 0.649502 0.649502
0.663464 0.663464 0.663464
0.677342 0.677342 0.677342
0.495761 0.495761 0.495761
0.510618 0.510618 0.510618
0.525397 0.525397 0.525397
0.540092 0.540092 0.540092
0.554701 0.554701 0.554701
0.569226 0.569226 0.569226
0.583666 0.583666 0.583666
0.598021 0.598021 0.598021
0.612292 0.612292 0.612292
0.626478 0.626478 0.626478
0.640579 0.640579 0.640579
0.654595 0.654595 0.654595
0.668527 0.668527 0.668527
0.682373 0.682373 0.682373
0.696135 0.696135 0.696135
0.709813 0.709813 0.709813
0.723405 0.723405 0.723405
0.545420 0.545420 0.545420
0.559999 0.559999 0.559999
0.574493 0.574493 0.574493
0.588902 0.588902 0.588902
0.603227 0.603227 0.603227
0.617466 0.617466 0.617466
0.631621 0.631621 0.631621
0.645691 0.645691 0.645691
0.659677 0.659677 0.659677
0.673578 0.673578 0.673578
0.687393 0.687393 0.687393
0.701125 0.701125 0.701125
0.714771 0.714771 0.714771
0.728333 0.728333 0.728333
0.741810 0.741810 0.741810
0.755202 0.755202 0.755202
0.768510 0.768510 0.768510
0.594127 0.594127 0.594127
0.608421 0.608421 0.608421
0.622629 0.622629 0.622629
0.636753 0.636753 0.636753
0.650793 0.650793 0.650793
0.664747 0.664747 0.664747
0.678617 0.678617 0.678617
0.692402 0.692402 0.692402
0.706103 0.706103 0.706103
0.719718 0.719718 0.719718
0.733249 0.733249 0.733249
0.746695 0.746695 0.746695
0.760057 0.760057 0.760057
0.773333 0.773333 0.773333
0.786525 0.786525 0.786525
0.799632 0.799632 0.799632
0.812655 0.812655 0.812655
0.641874 0.641874 0.641874
0.655883 0.655883 0.655883
0.669807 0.669807 0.669807
0.683646 0.683646 0.683646
0.697400 0.697400 0.697400
0.711069 0.711069 0.711069
0.724654 0.724654 0.724654
0.738154 0.738154 0.738154
0.751569 0.751569 0.751569
0.764900 0.764900 0.764900
0.778146 0.778146 0.778146
0.791307 0.791307 0.791307
0.804383 0.804383 0.804383
0.817375 0.817375 0.817375
0.830281 0.830281 0.830281
0.843103 0.843103 0.843103
0.855841 0.855841 0.855841
0.688663 0.688663 0.688663
0.702386 0.702386 0.702386
0.716025 0.716025 0.716025
0.729579 0.729579 0.729579
0.743048 0.743048 0.743048
0.756432 0.756432 0.756432
0.769732 0.769732 0.769732
0.782947 0.782947 0.782947
0.796077 0.796077 0.796077
0.809123 0.809123 0.809123
0.822083 0.822083 0.822083
0.834959 0.834959 0.834959
0.847750 0.847750 0.847750
0.860457 0.860457 0.860457
0.873078 0.873078 0.873078
0.885615 0.885615 0.885615
0.898068 0.898068 0.898068
0.734492 0.734492 0.734492
0.747931 0.747931 0.747931
0.761284 0.761284 0.761284
0.774553 0.774553 0.774553
0.787737 0.787737 0.787737
0.800836 0.800836 0.800836
0.813851 0.813851 0.813851
0.826781 0.826781 0.826781
0.839626 0.839626 0.839626
0.852386 0.852386 0.852386
0.865062 0.865062 0.865062
0.877653 0.877653 0.877653
0.890159 0.890159 0.890159
0.902580 0.902580 0.902580
0.914916 0.914916 0.914916
0.927168 0.927168 0.927168
0.939335 0.939335 0.939335
0.007962 0.007962 0.007962
0.019754 0.019754 0.019754
0.031632 0.031632 0.031632
0.043595 0.043595 0.043595
0.055642 0.055642 0.055642
0.067774 0.067774 0.067774
0.079990 0.079990 0.079990
0.092292 0.092292 0.092292
0.104678 0.104678 0.104678
0.117149 0.117149 0.117149
0.129705 0.129705 0.129705
0.142345 0.142345 0.142345
0.155070 0.155070 0.155070
0.167880 0.167880 0.167880
0.180775 0.180775 0.180775
0.193754 0.193754 0.193754
0.206818 0.206818 0.206818
0.047971 0.047971 0.047971
0.060049 0.060049 0.060049
0.072212 0.072212 0.072212
0.084459 0.084459 0.084459
0.096791 0.096791 0.096791
0.109208 0.109208 0.109208
0.121710 0.121710 0.121710
0.134297 0.134297 0.134297
0.146968 0.146968 0.146968
0.159724 0.159724 0.159724
0.172565 0.172565 0.172565
0.185490 0.185490 0.185490
0.198500 0.198500 0.198500
0.211595 0.211595 0.211595
0.224775 0.224775 0.224775
0.238040 0.238040 0.238040
0.251389 0.251389 0.251389
0.088939 0.088939 0.088939
0.101302 0.101302 0.101302
0.113750 0.113750 0.113750
0.126283 0.126283 0.126283
0.138900 0.138900 0.138900
0.151602 0.151602 0.151602
0.164389 0.164389 0.164389
0.177261 0.177261 0.177261
0.190217 0.190217 0.190217
0.203258 0.203258 0.203258
0.216384 0.216384 0.216384
0.229595 0.229595 0.229595
0.242890 0.242890 0.242890
0.256270 0.256270 0.256270
0.269735 0.269735 0.269735
0.283284 0.283284 0.283284
0.296919 0.296919 0.296919
0.130866 0.130866 0.130866
0.143515 0.143515 0.143515
0.156248 0.156248 0.156248
0.169065 0.169065 0.169065
0.181968 0.181968 0.181968
0.194955 0.194955 0.194955
0.208027 0.208027 0.208027
0.221184 0.221184 0.221184
0.234425 0.234425 0.234425
0.247751 0.247751 0.247751
0.261162 0.261162 0.261162
0.274658 0.274658 0.274658
0.288238 0.288238 0.288238
0.301904 0.301904 0.301904
0.315654 0.315654 0.315654
0.329488 0.329488 0.329488
0.343408 0.343408 0.343408
0.173753 0.173753 0.173753
0.186686 0.186686 0.186686
0.199704 0.199704 0.199704
0.212807 0.212807 0.212807
0.225995 0.225995 0.225995
0.239267 0.239267 0.239267
0.252624 0.252624 0.252624
0.266066 0.266066 0.266066
0.279592 0.279592 0.279592
0.293204 0.293204 0.293204
0.306900 0.306900 0.306900
0.320680 0.320680 0.320680
0.334546 0.334546 0.334546
0.348496 0.348496 0.348496
0.362531 0.362531 0.362531
0.376651 0.376651 0.376651
0.390856 0.390856 0.390856
0.217598 0.217598 0.217598
0.230817 0.230817 0.230817
0.244120 0.244120 0.244120
0.257508 0.257508 0.257508
0.270980 0.270980 0.270980
0.284538 0.284538 0.284538
0.298180 0.298180 0.298180
0.311907 0.311907 0.311907
0.325719 0.325719 0.325719
0.339615 0.339615 0.339615
0.353596 0.353596 0.353596
0.367662 0.367662 0.367662
0.381813 0.381813 0.381813
0.396048 0.396048 0.396048
0.410368 0.410368 0.410368
0.424773 0.424773 0.424773
0.439263 0.439263 0.439263
0.262403 0.262403 0.262403
0.275906 0.275906 0.275906
0.289495 0.289495 0.289495
0.303168 0.303168 0.303168
0.316925 0.316925 0.316925
0.330768 0.330768 0.330768
0.344695 0.344695 0.344695
0.358707 0.358707 0.358707
0.372804 0.372804 0.372804
0.386985 0.386985 0.386985
0.401252 0.401252 0.401252
0.415603 0.415603 0.415603
0.430038 0.430038 0.430038
0.444559 0.444559 0.444559
0.459164 0.459164 0.459164
0.473854 0.473854 0.473854
0.488629 0.488629 0.488629
0.308167 0.308167 0.308167
0.321955 0.321955 0.321955
0.335829 0.335829 0.335829
0.349787 0.349787 0.349787
0.363830 0.363830 0.363830
0.377957 0.377957 0.377957
0.392169 0.392169 0.392169
0.406467 0.406467 0.406467
0.420848 0.420848 0.420848
0.435315 0.435315 0.435315
0.449866 0.449866 0.449866
0.464502 0.464502 0.464502
0.479223 0.479223 0.479223
0.494029 0.494029 0.494029
0.508889 0.508889 0.508889
0.523678 0.523678 0.523678
0.538382 0.538382 0.538382
0.354889 0.354889 0.354889
0.368963 0.368963 0.368963
0.383121 0.383121 0.383121
0.397365 0.397365 0.397365
0.411693 0.411693 0.411693
0.426105 0.426105 0.426105
0.440603 0.440603 0.440603
0.455185 0.455185 0.455185
0.469852 0.469852 0.469852
0.484604 0.484604 0.484604
0.499440 0.499440 0.499440
0.514283 0.514283 0.514283
0.529041 0.529041 0.529041
0.543714 0.543714 0.543714
0.558303 0.558303 0.558303
0.572807 0.572807 0.572807
0.587226 0.587226 0.587226
0.402571 0.402571 0.402571
0.416930 0.416930 0.416930
0.431374 0.431374 0.431374
0.445902 0.445902 0.445902
0.460515 0.460515 0.460515
0.475213 0.475213 0.475213
0.489995 0.489995 0.489995
0.504853 0.504853 0.504853
0.519665 0.519665 0.519665
0.534393 0.534393 0.534393
0.549035 0.549035 0.549035
0.563593 0.563593 0.563593
0.578066 0.578066 0.578066
0.592454 0.592454 0.592454
0.606758 0.606758 0.606758
0.620976 0.620976 0.620976
0.635110 0.635110 0.635110
0.451212 0.451212 0.451212
0.465856 0.465856 0.465856
0.480585 0.480585 0.480585
0.495398 0.495398 0.495398
0.510256 0.510256 0.510256
0.525037 0.525037 0.525037
0.539733 0.539733 0.539733
0.554345 0.554345 0.554345
0.568872 0.568872 0.568872
0.583314 0.583314 0.583314
0.597671 0.597671 0.597671
0.611944 0.611944 0.611944
0.626132 0.626132 0.626132
0.640235 0.640235 0.640235
0.654253 0.654253 0.654253
0.668187 0.668187 0.668187
0.682036 0.682036 0.682036
0.500812 0.500812 0.500812
0.515647 0.515647 0.515647
0.530397 0.530397 0.530397
0.545063 0.545063 0.545063
0.559643 0.559643 0.559643
0.574139 0.574139 0.574139
0.588551 0.588551 0.588551
0.602877 0.602877 0.602877
0.617119 0.617119 0.617119
0.631276 0.631276 0.631276
0.645348 0.645348 0.645348
0.659336 0.659336 0.659336
0.673239 0.673239 0.673239
0.687057 0.687057 0.687057
0.700790 0.700790 0.700790
0.714438 0.714438 0.714438
0.728002 0.728002 0.728002
0.550381 0.550381 0.550381
0.564931 0.564931 0.564931
0.579396 0.579396 0.579396
0.593776 0.593776 0.593776
0.608072 0.608072 0.608072
0.622283 0.622283 0.622283
0.636409 0.636409 0.636409
0.650450 0.650450 0.650450
0.664407 0.664407 0.664407
0.678279 0.678279 0.678279
0.692066 0.692066 0.692066
0.705769 0.705769 0.705769
0.719386 0.719386 0.719386
0.732919 0.732919 0.732919
0.746367 0.746367 0.746367
0.759731 0.759731 0.759731
0.773010 0.773010 0.773010
0.598991 0.598991 0.598991
0.613255 0.613255 0.613255
0.627435 0.627435 0.627435
0.641531 0.641531 0.641531
0.655541 0.655541 0.655541
0.669467 0.669467 0.669467
0.683308 0.683308 0.683308
0.697065 0.697065 0.697065
0.710736 0.710736 0.710736
0.724323 0.724323 0.724323
0.737825 0.737825 0.737825
0.751242 0.751242 0.751242
0.764575 0.764575 0.764575
0.777823 0.777823 0.777823
0.790986 0.790986 0.790986
0.804064 0.804064 0.804064
0.817058 0.817058 0.817058
0.646641 0.646641 0.646641
0.660621 0.660621 0.660621
0.674516 0.674516 0.674516
0.688326 0.688326 0.688326
0.702052 0.702052 0.702052
0.715692 0.715692 0.715692
0.729248 0.729248 0.729248
0.742720 0.742720 0.742720
0.756106 0.756106 0.756106
0.769408 0.769408 0.769408
0.782625 0.782625 0.782625
0.795757 0.795757 0.795757
0.808805 0.808805 0.808805
0.821767 0.821767 0.821767
0.834645 0.834645 0.834645
0.847439 0.847439 0.847439
0.860147 0.860147 0.860147
0.693333 0.693333 0.693333
0.707028 0.707028 0.707028
0.720637 0.720637 0.720637
0.734163 0.734163 0.734163
0.747603 0.747603 0.747603
0.760959 0.760959 0.760959
0.774229 0.774229 0.774229
0.787416 0.787416 0.787416
0.800517 0.800517 0.800517
0.813534 0.813534 0.813534
0.826465 0.826465 0.826465
0.839313 0.839313 0.839313
0.852075 0.852075 0.852075
0.864753 0.864753 0.864753
0.877346 0.877346 0.877346
0.889854 0.889854 0.889854
0.902277 0.902277 0.902277
0.739066 0.739066 0.739066
0.752475 0.752475 0.752475
0.765800 0.765800 0.765800
0.779040 0.779040 0.779040
0.792195 0.792195 0.792195
0.805266 0.805266 0.805266
0.818251 0.818251 0.818251
0.831152 0.831152 0.831152
0.843969 0.843969 0.843969
0.856700 0.856700 0.856700
0.869347 0.869347 0.869347
0.881909 0.881909 0.881909
0.894386 0.894386 0.894386
0.906779 0.906779 0.906779
0.919087 0.919087 0.919087
0.931310 0.931310 0.931310
0.943448 0.943448 0.943448
0.011957 0.011957 0.011957
0.023779 0.023779 0.023779
0.035685 0.035685 0.035685
0.047676 0.047676 0.047676
0.059752 0.059752 0.059752
0.071913 0.071913 0.071913
0.084158 0.084158 0.084158
0.096489 0.096489 0.096489
0.108904 0.108904 0.108904
0.121403 0.121403 0.121403
0.133988 0.133988 0.133988
0.146657 0.146657 0.146657
0.159411 0.159411 0.159411
0.172250 0.172250 0.172250
0.185173 0.185173 0.185173
0.198181 0.198181 0.198181
0.211274 0.211274 0.211274
0.052063 0.052063 0.052063
0.064170 0.064170 0.064170
