presets/luts/punch.cube
# punch — bundled look for apply_lut/list_luts
LUT_3D_SIZE 5
0.000000 0.000000 0.000000
0.271482 0.000000 0.000000
0.599504 0.000000 0.000000
0.896344 0.000000 0.000000
1.000000 0.000000 0.000000
0.000000 0.243252 0.000000
0.231477 0.231477 0.000000
0.554983 0.219799 0.000000
0.860131 0.208221 0.000000
1.000000 0.196740 0.000000
0.000000 0.536614 0.000000
0.192585 0.523031 0.000000
0.509349 0.509349 0.000000
0.822803 0.495579 0.000000
1.000000 0.481862 0.000000
0.000000 0.818697 0.000000
0.154808 0.807350 0.000000
0.463310 0.795905 0.000000
0.784362 0.784362 0.000000
1.000000 0.772720 0.000000
0.000000 1.000000 0.000000
0.118145 1.000000 0.000000
0.418340 1.000000 0.000000
0.744806 1.000000 0.000000
1.000000 1.000000 0.000000
0.000000 0.000000 0.279466
0.267393 0.000000 0.267393
0.595060 0.000000 0.255418
0.892739 0.000000 0.243542
1.000000 0.000000 0.231764
0.000000 0.239242 0.239242
0.227500 0.227500 0.227500
0.550427 0.215856 0.215856
0.856413 0.204311 0.204311
1.000000 0.192864 0.192864
0.000000 0.532012 0.200132
0.188721 0.518395 0.188721
0.504680 0.504680 0.177408
0.818973 0.490910 0.166194
1.000000 0.477226 0.155079
0.000000 0.814855 0.162136
0.151056 0.803475 0.151056
0.458720 0.791996 0.140075
0.780419 0.780419 0.129192
1.000000 0.768744 0.118407
0.000000 1.000000 0.125254
0.114505 1.000000 0.114505
0.413862 1.000000 0.103855
0.740751 1.000000 0.093303
1.000000 1.000000 0.082850
0.000000 0.000000 0.616679
0.263315 0.000000 0.603691
0.590605 0.000000 0.590605
0.889123 0.000000 0.577420
1.000000 0.000000 0.564137
0.000000 0.235243 0.572596
0.223535 0.223535 0.559277
0.545859 0.211924 0.545859
0.852684 0.200412 0.532344
1.000000 0.188999 0.518729
0.000000 0.527399 0.527399
0.184868 0.513749 0.513749
0.500000 0.500000 0.500000
0.815132 0.486251 0.486251
1.000000 0.472601 0.472601
0.000000 0.811001 0.481271
0.147316 0.799588 0.467656
0.454141 0.788076 0.454141
0.776465 0.776465 0.440723
1.000000 0.764757 0.427404
0.000000 1.000000 0.435863
0.110877 1.000000 0.422580
0.409395 1.000000 0.409395
0.736685 1.000000 0.396309
1.000000 1.000000 0.383321
0.000000 0.000000 0.917150
0.259249 0.000000 0.906697
0.586138 0.000000 0.896145
0.885495 0.000000 0.885495
1.000000 0.000000 0.874746
0.000000 0.231256 0.881593
0.219581 0.219581 0.870808
0.541280 0.208004 0.859925
0.848944 0.196525 0.848944
1.000000 0.185145 0.837864
0.000000 0.522774 0.844921
0.181027 0.509090 0.833806
0.495320 0.495320 0.822592
0.811279 0.481605 0.811279
1.000000 0.467988 0.799868
0.000000 0.807136 0.807136
0.143587 0.795689 0.795689
0.449573 0.784144 0.784144
0.772500 0.772500 0.772500
1.000000 0.760758 0.760758
0.000000 1.000000 0.768236
0.107261 1.000000 0.756458
0.404940 1.000000 0.744582
0.732607 1.000000 0.732607
1.000000 1.000000 0.720534
0.000000 0.000000 1.000000
0.255194 0.000000 1.000000
0.581660 0.000000 1.000000
0.881855 0.000000 1.000000
1.000000 0.000000 1.000000
0.000000 0.227280 1.000000
0.215638 0.215638 1.000000
0.536690 0.204095 1.000000
0.845192 0.192650 1.000000
1.000000 0.181303 1.000000
0.000000 0.518138 1.000000
0.177197 0.504421 1.000000
0.490651 0.490651 1.000000
0.807415 0.476969 1.000000
1.000000 0.463386 1.000000
0.000000 0.803260 1.000000
0.139869 0.791779 1.000000
0.445017 0.780201 1.000000
0.768523 0.768523 1.000000
1.000000 0.756748 1.000000
0.000000 1.000000 1.000000
0.103656 1.000000 1.000000
0.400496 1.000000 1.000000
0.728518 1.000000 1.000000
1.000000 1.000000 1.000000
