presets/luts/punch.cube
# punch — bundled look for apply_lut/list_luts
LUT_3D_SIZE 9
0.000000 0.000000 0.000000
0.127998 0.000000 0.000000
0.271482 0.000000 0.000000
0.430451 0.000000 0.000000
0.599504 0.000000 0.000000
0.755667 0.000000 0.000000
0.896344 0.000000 0.000000
1.000000 0.000000 0.000000
1.000000 0.000000 0.000000
0.000000 0.115274 0.000000
0.109933 0.109933 0.000000
0.251340 0.104617 0.000000
0.408232 0.099325 0.000000
0.577383 0.094058 0.000000
0.735623 0.088815 0.000000
0.878377 0.083597 0.000000
1.000000 0.078404 0.000000
1.000000 0.073235 0.000000
0.000000 0.243252 0.000000
0.092146 0.237352 0.000000
0.231477 0.231477 0.000000
0.386292 0.225626 0.000000
0.554983 0.219799 0.000000
0.715300 0.213998 0.000000
0.860131 0.208221 0.000000
0.989477 0.202468 0.000000
1.000000 0.196740 0.000000
0.000000 0.383934 0.000000
0.074638 0.377475 0.000000
0.211892 0.371040 0.000000
0.364630 0.364630 0.000000
0.532305 0.358245 0.000000
0.694699 0.351884 0.000000
0.841606 0.345548 0.000000
0.973029 0.339236 0.000000
1.000000 0.332949 0.000000
0.000000 0.536614 0.000000
0.057409 0.529834 0.000000
0.192585 0.523031 0.000000
0.343247 0.516202 0.000000
0.509349 0.509349 0.000000
0.673819 0.502471 0.000000
0.822803 0.495579 0.000000
0.956303 0.488708 0.000000
1.000000 0.481862 0.000000
0.000000 0.684007 0.000000
0.040457 0.677787 0.000000
0.173557 0.671542 0.000000
0.322142 0.665273 0.000000
0.486213 0.658979 0.000000
0.652660 0.652660 0.000000
0.803722 0.646317 0.000000
0.939298 0.639949 0.000000
1.000000 0.633557 0.000000
0.000000 0.818697 0.000000
0.023785 0.813036 0.000000
0.154808 0.807350 0.000000
0.301316 0.801640 0.000000
0.463310 0.795905 0.000000
0.631224 0.790146 0.000000
0.784362 0.784362 0.000000
0.922015 0.778553 0.000000
1.000000 0.772720 0.000000
0.000000 0.940683 0.000000
0.007391 0.935581 0.000000
0.136337 0.930455 0.000000
0.280769 0.925303 0.000000
0.440685 0.920128 0.000000
0.609508 0.914927 0.000000
0.764723 0.909703 0.000000
0.904453 0.904453 0.000000
1.000000 0.899179 0.000000
0.000000 1.000000 0.000000
0.000000 1.000000 0.000000
0.118145 1.000000 0.000000
0.260499 1.000000 0.000000
0.418340 1.000000 0.000000
0.587515 1.000000 0.000000
0.744806 1.000000 0.000000
0.886613 1.000000 0.000000
1.000000 1.000000 0.000000
0.000000 0.000000 0.131578
0.126162 0.000000 0.126162
0.269436 0.000000 0.120771
0.428195 0.000000 0.115405
0.597283 0.000000 0.110064
0.753656 0.000000 0.104747
0.894543 0.000000 0.099454
1.000000 0.000000 0.094186
1.000000 0.000000 0.088943
0.000000 0.113458 0.113458
0.108125 0.108125 0.108125
0.249322 0.102817 0.102817
0.406005 0.097534 0.097534
0.575134 0.092275 0.092275
0.733584 0.087041 0.087041
0.876548 0.081831 0.081831
1.000000 0.076646 0.076646
1.000000 0.071486 0.071486
0.000000 0.241246 0.095616
0.090366 0.235354 0.090366
0.229487 0.229487 0.085141
0.384093 0.223644 0.079941
0.552707 0.217826 0.074765
0.713233 0.212033 0.069613
0.858274 0.206264 0.064486
0.987829 0.200520 0.059384
1.000000 0.194801 0.054307
0.000000 0.381738 0.078053
0.072886 0.375287 0.072886
0.209930 0.368861 0.067744
0.362459 0.362459 0.062626
0.530001 0.356082 0.057533
0.692603 0.349729 0.052464
0.839721 0.343402 0.047420
0.971353 0.337098 0.042401
1.000000 0.330820 0.037406
0.000000 0.534314 0.060769
0.055685 0.527527 0.055685
0.190652 0.520714 0.050625
0.341104 0.513877 0.045590
0.507016 0.507016 0.040580
0.671695 0.500130 0.035594
0.820890 0.493243 0.030633
0.954599 0.486380 0.025696
1.000000 0.479543 0.020784
0.000000 0.681898 0.043763
0.038762 0.675669 0.038762
0.171652 0.669416 0.033785
0.320027 0.663138 0.028833
0.483888 0.656836 0.023905
0.650509 0.650509 0.019002
0.801780 0.644158 0.014124
0.937566 0.637781 0.009270
1.000000 0.631381 0.004441
0.000000 0.816777 0.027036
0.022117 0.811108 0.022117
0.152931 0.805414 0.017223
0.299229 0.799695 0.012354
0.461013 0.793952 0.007509
0.629044 0.788184 0.002689
0.782392 0.782392 0.000000
0.920255 0.776575 0.000000
1.000000 0.770733 0.000000
0.000000 0.938953 0.010587
0.005751 0.933843 0.005751
0.134488 0.928708 0.000940
0.278710 0.923549 0.000000
0.438417 0.918364 0.000000
0.607301 0.913156 0.000000
0.762725 0.907923 0.000000
0.902665 0.902665 0.000000
1.000000 0.897382 0.000000
0.000000 1.000000 0.000000
0.000000 1.000000 0.000000
0.116324 1.000000 0.000000
0.258469 1.000000 0.000000
0.416099 1.000000 0.000000
0.585279 1.000000 0.000000
0.742780 1.000000 0.000000
0.884796 1.000000 0.000000
1.000000 1.000000 0.000000
0.000000 0.000000 0.279466
0.124329 0.000000 0.273417
0.267393 0.000000 0.267393
0.425943 0.000000 0.261393
0.595060 0.000000 0.255418
0.751642 0.000000 0.249468
0.892739 0.000000 0.243542
1.000000 0.000000 0.237640
1.000000 0.000000 0.231764
0.000000 0.111644 0.259215
0.106320 0.106320 0.253249
0.247307 0.101020 0.247307
0.403780 0.095745 0.241390
0.572883 0.090494 0.235498
0.731542 0.085269 0.229630
0.874715 0.080067 0.223787
1.000000 0.074891 0.217968
1.000000 0.069739 0.212174
0.000000 0.239242 0.239242
0.088589 0.233359 0.233359
0.227500 0.227500 0.227500
0.381896 0.221666 0.221666
0.550427 0.215856 0.215856
0.711163 0.210071 0.210071
0.856413 0.204311 0.204311
0.986179 0.198575 0.198575
1.000000 0.192864 0.192864
0.000000 0.379544 0.219548
0.071137 0.373102 0.213747
0.207971 0.366684 0.207971
0.360291 0.360291 0.202220
0.527693 0.353922 0.196493
0.690505 0.347578 0.190791
0.837833 0.341258 0.185113
0.969675 0.334963 0.179460
1.000000 0.328693 0.173832
0.000000 0.532012 0.200132
0.053964 0.525216 0.194414
0.188721 0.518395 0.188721
0.338964 0.511550 0.183052
0.504680 0.504680 0.177408
0.669569 0.497788 0.171789
0.818973 0.490910 0.166194
0.952892 0.484055 0.160624
1.000000 0.477226 0.155079
0.000000 0.679785 0.180995
0.037069 0.673548 0.175360
0.169749 0.667287 0.169749
0.317915 0.661001 0.164164
0.481566 0.654690 0.158602
0.648355 0.648355 0.153066
0.799836 0.641995 0.147554
0.935831 0.635610 0.142066
1.000000 0.629201 0.136604
0.000000 0.814855 0.162136
0.020452 0.809177 0.156584
0.151056 0.803475 0.151056
0.297145 0.797748 0.145553
0.458720 0.791996 0.140075
0.626862 0.786220 0.134621
0.780419 0.780419 0.129192
0.918492 0.774594 0.123787
1.000000 0.768744 0.118407
0.000000 0.937220 0.143556
0.004114 0.932102 0.138086
0.132641 0.926959 0.132641
0.276654 0.921791 0.127221
0.436151 0.916598 0.121826
0.605090 0.911381 0.116455
0.760725 0.906140 0.111108
0.900874 0.900874 0.105786
1.000000 0.895583 0.100489
0.000000 1.000000 0.125254
0.000000 1.000000 0.119867
0.114505 1.000000 0.114505
0.256441 1.000000 0.109168
0.413862 1.000000 0.103855
0.583040 1.000000 0.098567
0.740751 1.000000 0.093303
0.882977 1.000000 0.088064
1.000000 1.000000 0.082850
0.000000 0.000000 0.443667
0.122498 0.000000 0.436984
0.265353 0.000000 0.430326
0.423693 0.000000 0.423693
0.592834 0.000000 0.417084
0.749626 0.000000 0.410500
0.890932 0.000000 0.403940
1.000000 0.000000 0.397405
1.000000 0.000000 0.390895
0.000000 0.109833 0.421284
0.104517 0.104517 0.414684
0.245295 0.099226 0.408109
0.401558 0.093959 0.401558
0.570629 0.088717 0.395032
0.729497 0.083500 0.388531
0.872881 0.078307 0.382054
1.000000 0.073138 0.375602
1.000000 0.067995 0.369175
0.000000 0.237241 0.399180
0.086815 0.231366 0.392663
0.225516 0.225516 0.386170
0.379702 0.219690 0.379702
0.548145 0.213889 0.373259
0.709090 0.208112 0.366841
0.854550 0.202360 0.360447
0.984525 0.196633 0.354077
1.000000 0.190930 0.347733
0.000000 0.377354 0.377354
0.069391 0.370920 0.370920
0.206015 0.364510 0.364510
0.358125 0.358125 0.358125
0.525382 0.351765 0.351765
0.688404 0.345429 0.345429
0.835941 0.339118 0.339118
0.967993 0.332831 0.332831
1.000000 0.326569 0.326569
0.000000 0.529707 0.355807
0.052245 0.522902 0.349455
0.186793 0.516073 0.343128
0.336826 0.509220 0.336826
0.502341 0.502341 0.330549
0.667440 0.495449 0.324296
0.817054 0.488579 0.318067
0.951182 0.481733 0.311863
1.000000 0.474912 0.305684
0.000000 0.677670 0.334538
0.035379 0.671425 0.328269
0.167850 0.665155 0.322025
0.315806 0.658860 0.315806
0.479247 0.652541 0.309611
0.646198 0.646198 0.303441
0.797888 0.639829 0.297295
0.934093 0.633437 0.291174
1.000000 0.627019 0.285078
0.000000 0.812929 0.313548
0.018790 0.807243 0.307362
0.149185 0.801533 0.301201
0.295064 0.795797 0.295064
0.456429 0.790037 0.288952
0.624677 0.784253 0.282865
0.778444 0.778444 0.276802
0.916726 0.772610 0.270764
1.000000 0.766752 0.264750
0.000000 0.935485 0.292836
0.002481 0.930358 0.286733
0.130798 0.925206 0.280654
0.274601 0.920030 0.274601
0.433889 0.914829 0.268571
0.602877 0.909604 0.262567
0.758721 0.904354 0.256587
0.899080 0.899080 0.250631
1.000000 0.893780 0.244701
0.000000 1.000000 0.272403
0.000000 1.000000 0.266383
0.112690 1.000000 0.260387
0.254416 1.000000 0.254416
0.411627 1.000000 0.248469
0.580799 1.000000 0.242548
0.738719 1.000000 0.236650
0.881155 1.000000 0.230778
1.000000 1.000000 0.224930
0.000000 0.000000 0.616679
0.120670 0.000000 0.610197
0.263315 0.000000 0.603691
0.421446 0.000000 0.597160
0.590605 0.000000 0.590605
0.747606 0.000000 0.584025
0.889123 0.000000 0.577420
1.000000 0.000000 0.570791
1.000000 0.000000 0.564137
0.000000 0.108025 0.594776
0.102717 0.102717 0.588212
0.243286 0.097434 0.581623
0.399339 0.092176 0.575010
0.568371 0.086942 0.568371
0.727450 0.081733 0.561709
0.871043 0.076549 0.555021
0.999151 0.071389 0.548309
1.000000 0.066254 0.541573
0.000000 0.235243 0.572596
0.085043 0.229377 0.565949
0.223535 0.223535 0.559277
0.377511 0.217717 0.552580
0.545859 0.211924 0.545859
0.707014 0.206156 0.539114
0.852684 0.200412 0.532344
0.982869 0.194693 0.525549
1.000000 0.188999 0.518729
0.000000 0.375166 0.550136
0.067647 0.368740 0.543406
0.204062 0.362339 0.536652
0.355962 0.355962 0.529873
0.523069 0.349610 0.523069
0.686301 0.343283 0.516241
0.834047 0.336980 0.509388
0.966309 0.330702 0.502510
1.000000 0.324448 0.495618
0.000000 0.527399 0.527399
0.050530 0.520586 0.520586
0.184868 0.513749 0.513749
0.334691 0.506887 0.506887
0.500000 0.500000 0.500000
0.665309 0.493113 0.493113
0.815132 0.486251 0.486251
0.949470 0.479414 0.479414
1.000000 0.472601 0.472601
0.000000 0.675552 0.504382
0.033691 0.669298 0.497490
0.165953 0.663020 0.490612
0.313699 0.656717 0.483759
0.476931 0.650390 0.476931
0.644038 0.644038 0.470127
0.795938 0.637661 0.463348
0.932353 0.631260 0.456594
1.000000 0.624834 0.449864
0.000000 0.811001 0.481271
0.017131 0.805307 0.474451
0.147316 0.799588 0.467656
0.292986 0.793844 0.460886
0.454141 0.788076 0.454141
0.622489 0.782283 0.447420
0.776465 0.776465 0.440723
0.914957 0.770623 0.434051
1.000000 0.764757 0.427404
0.000000 0.933746 0.458427
0.000849 0.928611 0.451691
0.128957 0.923451 0.444979
0.272550 0.918267 0.438291
0.431629 0.913058 0.431629
0.600661 0.907824 0.424990
0.756714 0.902566 0.418377
0.897283 0.897283 0.411788
1.000000 0.891975 0.405224
0.000000 1.000000 0.435863
0.000000 1.000000 0.429209
0.110877 1.000000 0.422580
0.252394 1.000000 0.415975
0.409395 1.000000 0.409395
0.578554 1.000000 0.402840
0.736685 1.000000 0.396309
0.879330 1.000000 0.389803
1.000000 1.000000 0.383321
0.000000 0.000000 0.775070
0.118845 0.000000 0.769222
0.261281 0.000000 0.763350
0.419201 0.000000 0.757452
0.588373 0.000000 0.751531
0.745584 0.000000 0.745584
0.887310 0.000000 0.739613
1.000000 0.000000 0.733617
1.000000 0.000000 0.727597
0.000000 0.106220 0.755299
0.100920 0.100920 0.749369
0.241279 0.095646 0.743413
0.397123 0.090396 0.737433
0.566111 0.085171 0.731429
0.725399 0.079970 0.725399
0.869202 0.074794 0.719346
0.997519 0.069642 0.713267
1.000000 0.064515 0.707164
0.000000 0.233248 0.735250
0.083274 0.227390 0.729236
0.221556 0.221556 0.723198
0.375323 0.215747 0.717135
0.543571 0.209963 0.711048
0.704936 0.204203 0.704936
0.850815 0.198467 0.698799
0.981210 0.192757 0.692638
1.000000 0.187071 0.686452
0.000000 0.372981 0.714922
0.065907 0.366563 0.708826
0.202112 0.360171 0.702705
0.353802 0.353802 0.696559
0.520753 0.347459 0.690389
0.684194 0.341140 0.684194
0.832150 0.334845 0.677975
0.964621 0.328575 0.671731
1.000000 0.322330 0.665462
0.000000 0.525088 0.694316
0.048818 0.518267 0.688137
0.182946 0.511421 0.681933
0.332560 0.504551 0.675704
0.497659 0.497659 0.669451
0.663174 0.490780 0.663174
0.813207 0.483927 0.656872
0.947755 0.477098 0.650545
1.000000 0.470293 0.644193
0.000000 0.673431 0.673431
0.032007 0.667169 0.667169
0.164059 0.660882 0.660882
0.311596 0.654571 0.654571
0.474618 0.648235 0.648235
0.641875 0.641875 0.641875
0.793985 0.635490 0.635490
0.930609 0.629080 0.629080
1.000000 0.622646 0.622646
0.000000 0.809070 0.652267
0.015475 0.803367 0.645923
0.145450 0.797640 0.639553
0.290910 0.791888 0.633159
0.451855 0.786111 0.626741
0.620298 0.780310 0.620298
0.774484 0.774484 0.613830
0.913185 0.768634 0.607337
1.000000 0.762759 0.600820
0.000000 0.932005 0.630825
0.000000 0.926862 0.624398
0.127119 0.921693 0.617946
0.270503 0.916500 0.611469
0.429371 0.911283 0.604968
0.598442 0.906041 0.598442
0.754705 0.900774 0.591891
0.895483 0.895483 0.585316
1.000000 0.890167 0.578716
0.000000 1.000000 0.609105
0.000000 1.000000 0.602595
0.109068 1.000000 0.596060
0.250374 1.000000 0.589500
0.407166 1.000000 0.582916
0.576307 1.000000 0.576307
0.734647 1.000000 0.569674
0.877502 1.000000 0.563016
1.000000 1.000000 0.556333
0.000000 0.000000 0.917150
0.117023 0.000000 0.911936
0.259249 0.000000 0.906697
0.416960 0.000000 0.901433
0.586138 0.000000 0.896145
0.743559 0.000000 0.890832
0.885495 0.000000 0.885495
1.000000 0.000000 0.880133
1.000000 0.000000 0.874746
0.000000 0.104417 0.899511
0.099126 0.099126 0.894214
0.239275 0.093860 0.888892
0.394910 0.088619 0.883545
0.563849 0.083402 0.878174
0.723346 0.078209 0.872779
0.867359 0.073041 0.867359
0.995886 0.067898 0.861914
1.000000 0.062780 0.856444
0.000000 0.231256 0.881593
0.081508 0.225406 0.876213
0.219581 0.219581 0.870808
0.373138 0.213780 0.865379
0.541280 0.208004 0.859925
0.702855 0.202252 0.854447
0.848944 0.196525 0.848944
0.979548 0.190823 0.843416
1.000000 0.185145 0.837864
0.000000 0.370799 0.863396
0.064169 0.364390 0.857934
0.200164 0.358005 0.852446
0.351645 0.351645 0.846934
0.518434 0.345310 0.841398
0.682085 0.338999 0.835836
0.830251 0.332713 0.830251
0.962931 0.326452 0.824640
1.000000 0.320215 0.819005
0.000000 0.522774 0.844921
0.047108 0.515945 0.839376
0.181027 0.509090 0.833806
0.330431 0.502212 0.828211
0.495320 0.495320 0.822592
0.661036 0.488450 0.816948
0.811279 0.481605 0.811279
0.946036 0.474784 0.805586
1.000000 0.467988 0.799868
0.000000 0.671307 0.826168
0.030325 0.665037 0.820540
0.162167 0.658742 0.814887
0.309495 0.652422 0.809209
0.472307 0.646078 0.803507
0.639709 0.639709 0.797780
0.792029 0.633316 0.792029
0.928863 0.626898 0.786253
1.000000 0.620456 0.780452
0.000000 0.807136 0.807136
0.013821 0.801425 0.801425
0.143587 0.795689 0.795689
0.288837 0.789929 0.789929
0.449573 0.784144 0.784144
0.618104 0.778334 0.778334
0.772500 0.772500 0.772500
0.911411 0.766641 0.766641
1.000000 0.760758 0.760758
0.000000 0.930261 0.787826
0.000000 0.925109 0.782032
0.125285 0.919933 0.776213
0.268458 0.914731 0.770370
0.427117 0.909506 0.764502
0.596220 0.904255 0.758610
0.752693 0.898980 0.752693
0.893680 0.893680 0.746751
1.000000 0.888356 0.740785
0.000000 1.000000 0.768236
0.000000 1.000000 0.762360
0.107261 1.000000 0.756458
0.248358 1.000000 0.750532
0.404940 1.000000 0.744582
0.574057 1.000000 0.738607
0.732607 1.000000 0.732607
0.875671 1.000000 0.726583
1.000000 1.000000 0.720534
0.000000 0.000000 1.000000
0.115204 0.000000 1.000000
0.257220 0.000000 1.000000
0.414721 0.000000 1.000000
0.583901 0.000000 1.000000
0.741531 0.000000 1.000000
0.883676 0.000000 1.000000
1.000000 0.000000 1.000000
1.000000 0.000000 1.000000
0.000000 0.102618 1.000000
0.097335 0.097335 1.000000
0.237275 0.092077 1.000000
0.392699 0.086844 1.000000
0.561583 0.081636 1.000000
0.721290 0.076451 1.000000
0.865512 0.071292 0.999060
0.994249 0.066157 0.994249
1.000000 0.061047 0.989413
0.000000 0.229267 1.000000
0.079745 0.223425 1.000000
0.217608 0.217608 1.000000
0.370956 0.211816 0.997311
0.538987 0.206048 0.992491
0.700771 0.200305 0.987646
0.847069 0.194586 0.982777
0.977883 0.188892 0.977883
1.000000 0.183223 0.972964
0.000000 0.368619 0.995559
0.062434 0.362219 0.990730
0.198220 0.355842 0.985876
0.349491 0.349491 0.980998
0.516112 0.343164 0.976095
0.679973 0.336862 0.971167
0.828348 0.330584 0.966215
0.961238 0.324331 0.961238
1.000000 0.318102 0.956237
0.000000 0.520457 0.979216
0.045401 0.513620 0.974304
0.179110 0.506757 0.969367
0.328305 0.499870 0.964406
0.492984 0.492984 0.959420
0.658896 0.486123 0.954410
0.809348 0.479286 0.949375
0.944315 0.472473 0.944315
1.000000 0.465686 0.939231
0.000000 0.669180 0.962594
0.028647 0.662902 0.957599
0.160279 0.656598 0.952580
0.307397 0.650271 0.947536
0.469999 0.643918 0.942467
0.637541 0.637541 0.937374
0.790070 0.631139 0.932256
0.927114 0.624713 0.927114
1.000000 0.618262 0.921947
0.000000 0.805199 0.945693
0.012171 0.799480 0.940616
0.141726 0.793736 0.935514
0.286767 0.787967 0.930387
0.447293 0.782174 0.925235
0.615907 0.776356 0.920059
0.770513 0.770513 0.914859
0.909634 0.764646 0.909634
1.000000 0.758754 0.904384
0.000000 0.928514 0.928514
0.000000 0.923354 0.923354
0.123452 0.918169 0.918169
0.266416 0.912959 0.912959
0.424866 0.907725 0.907725
0.593995 0.902466 0.902466
0.750678 0.897183 0.897183
0.891875 0.891875 0.891875
1.000000 0.886542 0.886542
0.000000 1.000000 0.911057
0.000000 1.000000 0.905814
0.105457 1.000000 0.900546
0.246344 1.000000 0.895253
0.402717 1.000000 0.889936
0.571805 1.000000 0.884595
0.730564 1.000000 0.879229
0.873838 1.000000 0.873838
1.000000 1.000000 0.868422
0.000000 0.000000 1.000000
0.113387 0.000000 1.000000
0.255194 0.000000 1.000000
0.412485 0.000000 1.000000
0.581660 0.000000 1.000000
0.739501 0.000000 1.000000
0.881855 0.000000 1.000000
1.000000 0.000000 1.000000
1.000000 0.000000 1.000000
0.000000 0.100821 1.000000
0.095547 0.095547 1.000000
0.235277 0.090297 1.000000
0.390492 0.085073 1.000000
0.559315 0.079872 1.000000
0.719231 0.074697 1.000000
0.863663 0.069545 1.000000
0.992609 0.064419 1.000000
1.000000 0.059317 1.000000
0.000000 0.227280 1.000000
0.077985 0.221447 1.000000
0.215638 0.215638 1.000000
0.368776 0.209854 1.000000
0.536690 0.204095 1.000000
0.698684 0.198360 1.000000
0.845192 0.192650 1.000000
0.976215 0.186964 1.000000
1.000000 0.181303 1.000000
0.000000 0.366443 1.000000
0.060702 0.360051 1.000000
0.196278 0.353683 1.000000
0.347340 0.347340 1.000000
0.513787 0.341021 1.000000
0.677858 0.334727 1.000000
0.826443 0.328458 1.000000
0.959543 0.322213 1.000000
1.000000 0.315993 1.000000
0.000000 0.518138 1.000000
0.043697 0.511292 1.000000
0.177197 0.504421 1.000000
0.326181 0.497529 1.000000
0.490651 0.490651 1.000000
0.656753 0.483798 1.000000
0.807415 0.476969 1.000000
0.942591 0.470166 1.000000
1.000000 0.463386 1.000000
0.000000 0.667051 1.000000
0.026971 0.660764 1.000000
0.158394 0.654452 1.000000
0.305301 0.648116 1.000000
0.467695 0.641755 1.000000
0.635370 0.635370 1.000000
0.788108 0.628960 1.000000
0.925362 0.622525 1.000000
1.000000 0.616066 1.000000
0.000000 0.803260 1.000000
0.010523 0.797532 1.000000
0.139869 0.791779 1.000000
0.284700 0.786002 1.000000
0.445017 0.780201 1.000000
0.613708 0.774374 1.000000
0.768523 0.768523 1.000000
0.907854 0.762648 1.000000
1.000000 0.756748 1.000000
0.000000 0.926765 1.000000
0.000000 0.921596 1.000000
0.121623 0.916403 1.000000
0.264377 0.911185 1.000000
0.422617 0.905942 1.000000
0.591768 0.900675 1.000000
0.748660 0.895383 1.000000
0.890067 0.890067 1.000000
1.000000 0.884726 1.000000
0.000000 1.000000 1.000000
0.000000 1.000000 1.000000
0.103656 1.000000 1.000000
0.244333 1.000000 1.000000
0.400496 1.000000 1.000000
0.569549 1.000000 1.000000
0.728518 1.000000 1.000000
0.872002 1.000000 1.000000
1.000000 1.000000 1.000000
