presets/luts/punch.cube
# punch — bundled look for apply_lut/list_luts
LUT_3D_SIZE 17
0.000000 0.000000 0.000000
0.062064 0.000000 0.000000
0.127998 0.000000 0.000000
0.197805 0.000000 0.000000
0.271482 0.000000 0.000000
0.349031 0.000000 0.000000
0.430451 0.000000 0.000000
0.515615 0.000000 0.000000
0.599504 0.000000 0.000000
0.679521 0.000000 0.000000
0.755667 0.000000 0.000000
0.827941 0.000000 0.000000
0.896344 0.000000 0.000000
0.960876 0.000000 0.000000
1.000000 0.000000 0.000000
1.000000 0.000000 0.000000
1.000000 0.000000 0.000000
0.000000 0.056049 0.000000
0.053515 0.053515 0.000000
0.118931 0.050988 0.000000
0.188218 0.048466 0.000000
0.261376 0.045951 0.000000
0.338406 0.043442 0.000000
0.419307 0.040939 0.000000
0.504071 0.038442 0.000000
0.588478 0.035951 0.000000
0.669014 0.033467 0.000000
0.745679 0.030988 0.000000
0.818473 0.028516 0.000000
0.887395 0.026050 0.000000
0.952447 0.023590 0.000000
1.000000 0.021136 0.000000
1.000000 0.018688 0.000000
1.000000 0.016247 0.000000
0.000000 0.115274 0.000000
0.045037 0.112601 0.000000
0.109933 0.109933 0.000000
0.178701 0.107272 0.000000
0.251340 0.104617 0.000000
0.327851 0.101968 0.000000
0.408232 0.099325 0.000000
0.492485 0.096688 0.000000
0.577383 0.094058 0.000000
0.658438 0.091434 0.000000
0.735623 0.088815 0.000000
0.808935 0.086203 0.000000
0.878377 0.083597 0.000000
0.943947 0.080998 0.000000
1.000000 0.078404 0.000000
1.000000 0.075817 0.000000
1.000000 0.073235 0.000000
0.000000 0.177675 0.000000
0.036628 0.174862 0.000000
0.101005 0.172055 0.000000
0.169254 0.169254 0.000000
0.241374 0.166459 0.000000
0.317365 0.163670 0.000000
0.397227 0.160887 0.000000
0.480961 0.158111 0.000000
0.566218 0.155341 0.000000
0.647793 0.152577 0.000000
0.725496 0.149819 0.000000
0.799328 0.147067 0.000000
0.869289 0.144321 0.000000
0.935378 0.141582 0.000000
0.997596 0.138848 0.000000
1.000000 0.136121 0.000000
1.000000 0.133400 0.000000
0.000000 0.243252 0.000000
0.028288 0.240299 0.000000
0.092146 0.237352 0.000000
0.159876 0.234411 0.000000
0.231477 0.231477 0.000000
0.306949 0.228548 0.000000
0.386292 0.225626 0.000000
0.469507 0.222710 0.000000
0.554983 0.219799 0.000000
0.637077 0.216896 0.000000
0.715300 0.213998 0.000000
0.789651 0.211106 0.000000
0.860131 0.208221 0.000000
0.926740 0.205341 0.000000
0.989477 0.202468 0.000000
1.000000 0.199601 0.000000
1.000000 0.196740 0.000000
0.000000 0.312005 0.000000
0.020019 0.308912 0.000000
0.083358 0.305826 0.000000
0.150568 0.302745 0.000000
0.221649 0.299671 0.000000
0.296602 0.296602 0.000000
0.375426 0.293540 0.000000
0.458122 0.290484 0.000000
0.543679 0.287434 0.000000
0.626292 0.284390 0.000000
0.705034 0.281353 0.000000
0.779904 0.278322 0.000000
0.850904 0.275296 0.000000
0.918031 0.272277 0.000000
0.981288 0.269264 0.000000
1.000000 0.266257 0.000000
1.000000 0.263257 0.000000
0.000000 0.383934 0.000000
0.011819 0.380702 0.000000
0.074638 0.377475 0.000000
0.141329 0.374255 0.000000
0.211892 0.371040 0.000000
0.286325 0.367832 0.000000
0.364630 0.364630 0.000000
0.446807 0.361435 0.000000
0.532305 0.358245 0.000000
0.615438 0.355061 0.000000
0.694699 0.351884 0.000000
0.770088 0.348713 0.000000
0.841606 0.345548 0.000000
0.909253 0.342389 0.000000
0.973029 0.339236 0.000000
1.000000 0.336090 0.000000
1.000000 0.332949 0.000000
0.000000 0.459039 0.000000
0.003688 0.455667 0.000000
0.065989 0.452301 0.000000
0.132160 0.448940 0.000000
0.202204 0.445586 0.000000
0.276118 0.442238 0.000000
0.353904 0.438897 0.000000
0.435561 0.435561 0.000000
0.520862 0.432232 0.000000
0.604513 0.428908 0.000000
0.684293 0.425591 0.000000
0.760202 0.422280 0.000000
0.832240 0.418975 0.000000
0.900406 0.415677 0.000000
0.964701 0.412384 0.000000
1.000000 0.409098 0.000000
1.000000 0.405818 0.000000
0.000000 0.536614 0.000000
0.000000 0.533227 0.000000
0.057409 0.529834 0.000000
0.123061 0.526436 0.000000
0.192585 0.523031 0.000000
0.265981 0.519619 0.000000
0.343247 0.516202 0.000000
0.424385 0.512778 0.000000
0.509349 0.509349 0.000000
0.593519 0.505913 0.000000
0.673819 0.502471 0.000000
0.750247 0.499024 0.000000
0.822803 0.495579 0.000000
0.891489 0.492140 0.000000
0.956303 0.488708 0.000000
1.000000 0.485282 0.000000
1.000000 0.481862 0.000000
0.000000 0.611899 0.000000
0.000000 0.608652 0.000000
0.048898 0.605399 0.000000
0.114032 0.602140 0.000000
0.183036 0.598874 0.000000
0.255913 0.595603 0.000000
0.332660 0.592326 0.000000
0.413279 0.589042 0.000000
0.497769 0.585752 0.000000
0.582456 0.582456 0.000000
0.663274 0.579154 0.000000
0.740222 0.575845 0.000000
0.813298 0.572531 0.000000
0.882502 0.569210 0.000000
0.947835 0.565884 0.000000
1.000000 0.562551 0.000000
1.000000 0.559212 0.000000
0.000000 0.684007 0.000000
0.000000 0.680900 0.000000
0.040457 0.677787 0.000000
0.105072 0.674668 0.000000
0.173557 0.671542 0.000000
0.245914 0.668411 0.000000
0.322142 0.665273 0.000000
0.402242 0.662129 0.000000
0.486213 0.658979 0.000000
0.571323 0.655823 0.000000
0.652660 0.652660 0.000000
0.730127 0.649492 0.000000
0.803722 0.646317 0.000000
0.873446 0.643136 0.000000
0.939298 0.639949 0.000000
1.000000 0.636756 0.000000
1.000000 0.633557 0.000000
0.000000 0.752940 0.000000
0.000000 0.749973 0.000000
0.032086 0.747000 0.000000
0.096181 0.744020 0.000000
0.164148 0.741034 0.000000
0.235986 0.738043 0.000000
0.311695 0.735045 0.000000
0.391275 0.732041 0.000000
0.474727 0.729030 0.000000
0.560120 0.726014 0.000000
0.641977 0.722991 0.000000
0.719962 0.719962 0.000000
0.794077 0.716928 0.000000
0.864320 0.713887 0.000000
0.930691 0.710839 0.000000
0.993192 0.707786 0.000000
1.000000 0.704727 0.000000
0.000000 0.818697 0.000000
0.000000 0.815870 0.000000
0.023785 0.813036 0.000000
0.087361 0.810196 0.000000
0.154808 0.807350 0.000000
0.226126 0.804498 0.000000
0.301316 0.801640 0.000000
0.380377 0.798776 0.000000
0.463310 0.795905 0.000000
0.548848 0.793029 0.000000
0.631224 0.790146 0.000000
0.709728 0.787257 0.000000
0.784362 0.784362 0.000000
0.855124 0.781461 0.000000
0.922015 0.778553 0.000000
0.985034 0.775640 0.000000
1.000000 0.772720 0.000000
0.000000 0.881278 0.000000
0.000000 0.878590 0.000000
0.015553 0.875896 0.000000
0.078610 0.873197 0.000000
0.145538 0.870490 0.000000
0.216337 0.867778 0.000000
0.291008 0.865060 0.000000
0.369550 0.862335 0.000000
0.451963 0.859605 0.000000
0.537506 0.856868 0.000000
0.620401 0.854125 0.000000
0.699425 0.851376 0.000000
0.774577 0.848620 0.000000
0.845859 0.845859 0.000000
0.913269 0.843091 0.000000
0.976808 0.840317 0.000000
1.000000 0.837537 0.000000
0.000000 0.940683 0.000000
0.000000 0.938135 0.000000
0.007391 0.935581 0.000000
0.069928 0.933021 0.000000
0.136337 0.930455 0.000000
0.206617 0.927882 0.000000
0.280769 0.925303 0.000000
0.358791 0.922719 0.000000
0.440685 0.920128 0.000000
0.526094 0.917531 0.000000
0.609508 0.914927 0.000000
0.689052 0.912318 0.000000
0.764723 0.909703 0.000000
0.836524 0.907081 0.000000
0.904453 0.904453 0.000000
0.968511 0.901819 0.000000
1.000000 0.899179 0.000000
0.000000 0.996912 0.000000
0.000000 0.994504 0.000000
0.000000 0.992089 0.000000
0.061316 0.989669 0.000000
0.127206 0.987243 0.000000
0.196967 0.984810 0.000000
0.270599 0.982371 0.000000
0.348103 0.979926 0.000000
0.429478 0.977475 0.000000
0.514613 0.975018 0.000000
0.598546 0.972554 0.000000
0.678609 0.970085 0.000000
0.754800 0.967609 0.000000
0.827119 0.965127 0.000000
0.895568 0.962639 0.000000
0.960145 0.960145 0.000000
1.000000 0.957645 0.000000
0.000000 1.000000 0.000000
0.000000 1.000000 0.000000
0.000000 1.000000 0.000000
0.052774 1.000000 0.000000
0.118145 1.000000 0.000000
0.187386 1.000000 0.000000
0.260499 1.000000 0.000000
0.337484 1.000000 0.000000
0.418340 1.000000 0.000000
0.503062 1.000000 0.000000
0.587515 1.000000 0.000000
0.668096 1.000000 0.000000
0.744806 1.000000 0.000000
0.817645 1.000000 0.000000
0.886613 1.000000 0.000000
0.951709 1.000000 0.000000
1.000000 1.000000 0.000000
0.000000 0.000000 0.063750
0.061197 0.000000 0.061197
0.127080 0.000000 0.058651
0.196834 0.000000 0.056111
0.270459 0.000000 0.053577
0.347955 0.000000 0.051049
0.429323 0.000000 0.048528
0.514453 0.000000 0.046012
0.598394 0.000000 0.043503
0.678463 0.000000 0.041000
0.754662 0.000000 0.038503
0.826989 0.000000 0.036012
0.895444 0.000000 0.033527
0.960028 0.000000 0.031049
1.000000 0.000000 0.028576
1.000000 0.000000 0.026110
1.000000 0.000000 0.023650
0.000000 0.055188 0.055188
0.052656 0.052656 0.052656
0.118020 0.050131 0.050131
0.187254 0.047611 0.047611
0.260360 0.045098 0.045098
0.337337 0.042591 0.042591
0.418186 0.040090 0.040090
0.502901 0.037595 0.037595
0.587361 0.035107 0.035107
0.667950 0.032624 0.032624
0.744667 0.030148 0.030148
0.817513 0.027678 0.027678
0.886488 0.025214 0.025214
0.951592 0.022756 0.022756
1.000000 0.020304 0.020304
1.000000 0.017859 0.017859
1.000000 0.015419 0.015419
0.000000 0.114366 0.046696
0.044185 0.111694 0.044185
0.109029 0.109029 0.041680
0.177744 0.106370 0.039181
0.250331 0.103717 0.036689
0.326789 0.101070 0.034202
0.407118 0.098429 0.031722
0.491319 0.095794 0.029248
0.576259 0.093166 0.026780
0.657367 0.090544 0.024318
0.734603 0.087928 0.021863
0.807969 0.085318 0.019413
0.877463 0.082714 0.016970
0.943085 0.080116 0.014533
1.000000 0.077525 0.012102
1.000000 0.074939 0.009677
1.000000 0.072360 0.007258
0.000000 0.176719 0.038273
0.035783 0.173908 0.035783
0.100108 0.171103 0.033299
0.168304 0.168304 0.030821
0.240371 0.165511 0.028349
0.316310 0.162724 0.025883
0.396120 0.159944 0.023424
0.479802 0.157170 0.020970
0.565087 0.154401 0.018523
0.646714 0.151639 0.016082
0.724470 0.148883 0.013647
0.798354 0.146134 0.011218
0.868367 0.143390 0.008796
0.934509 0.140653 0.006379
0.996780 0.137921 0.003969
1.000000 0.135196 0.001565
1.000000 0.132477 0.000000
0.000000 0.242249 0.029920
0.027450 0.239298 0.027450
0.091256 0.236353 0.024987
0.158933 0.233414 0.022530
0.230481 0.230481 0.020078
0.305901 0.227555 0.017634
0.385192 0.224635 0.015195
0.468354 0.221721 0.012762
0.553845 0.218813 0.010335
0.635992 0.215911 0.007915
0.714267 0.213015 0.005501
0.788670 0.210126 0.003093
0.859203 0.207242 0.000691
0.925864 0.204365 0.000000
0.988653 0.201494 0.000000
1.000000 0.198629 0.000000
1.000000 0.195770 0.000000
0.000000 0.310954 0.021637
0.019188 0.307863 0.019188
0.082474 0.304779 0.016745
0.149632 0.301700 0.014308
0.220661 0.298628 0.011878
0.295562 0.295562 0.009454
0.374333 0.292502 0.007035
0.456976 0.289448 0.004623
0.542534 0.286400 0.002218
0.625200 0.283358 0.000000
0.703994 0.280323 0.000000
0.778917 0.277293 0.000000
0.849968 0.274270 0.000000
0.917148 0.271253 0.000000
0.980457 0.268242 0.000000
1.000000 0.265238 0.000000
1.000000 0.262239 0.000000
0.000000 0.382836 0.013423
0.010995 0.379605 0.010995
0.073762 0.376381 0.008573
0.140401 0.373162 0.006157
0.210911 0.369950 0.003747
0.285292 0.366744 0.001343
0.363544 0.363544 0.000000
0.445668 0.360351 0.000000
0.531153 0.357163 0.000000
0.614338 0.353982 0.000000
0.693651 0.350806 0.000000
0.769093 0.347637 0.000000
0.840664 0.344474 0.000000
0.908363 0.341318 0.000000
0.972192 0.338167 0.000000
1.000000 0.335022 0.000000
1.000000 0.331884 0.000000
0.000000 0.457893 0.005279
0.002871 0.454523 0.002871
0.065119 0.451159 0.000470
0.131239 0.447801 0.000000
0.201230 0.444449 0.000000
0.275092 0.441103 0.000000
0.352825 0.437763 0.000000
0.434430 0.434430 0.000000
0.519703 0.431102 0.000000
0.603407 0.427781 0.000000
0.683239 0.424466 0.000000
0.759200 0.421157 0.000000
0.831290 0.417854 0.000000
0.899509 0.414558 0.000000
0.963856 0.411267 0.000000
1.000000 0.407983 0.000000
1.000000 0.404705 0.000000
0.000000 0.535464 0.000000
0.000000 0.532076 0.000000
0.056546 0.528681 0.000000
0.122147 0.525280 0.000000
0.191618 0.521873 0.000000
0.264961 0.518459 0.000000
0.342175 0.515040 0.000000
0.423261 0.511614 0.000000
0.508183 0.508183 0.000000
0.592406 0.504745 0.000000
0.672757 0.501301 0.000000
0.749238 0.497853 0.000000
0.821847 0.494410 0.000000
0.890585 0.490974 0.000000
0.955451 0.487544 0.000000
1.000000 0.484120 0.000000
1.000000 0.480702 0.000000
0.000000 0.610797 0.000000
0.000000 0.607548 0.000000
0.048043 0.604293 0.000000
0.113124 0.601032 0.000000
0.182076 0.597764 0.000000
0.254900 0.594491 0.000000
0.331595 0.591211 0.000000
0.412161 0.587925 0.000000
0.496599 0.584633 0.000000
0.581335 0.581335 0.000000
0.662206 0.578031 0.000000
0.739206 0.574721 0.000000
0.812334 0.571404 0.000000
0.881591 0.568081 0.000000
0.946977 0.564752 0.000000
1.000000 0.561417 0.000000
1.000000 0.558076 0.000000
0.000000 0.682953 0.000000
0.000000 0.679844 0.000000
0.039609 0.676729 0.000000
0.104171 0.673607 0.000000
0.172604 0.670480 0.000000
0.244909 0.667346 0.000000
0.321085 0.664206 0.000000
0.401132 0.661060 0.000000
0.485050 0.657908 0.000000
0.570195 0.654750 0.000000
0.651585 0.651585 0.000000
0.729104 0.648415 0.000000
0.802751 0.645238 0.000000
0.872528 0.642055 0.000000
0.938432 0.638866 0.000000
1.000000 0.635671 0.000000
1.000000 0.632469 0.000000
0.000000 0.751933 0.000000
0.000000 0.748964 0.000000
0.031245 0.745988 0.000000
0.095288 0.743007 0.000000
0.163202 0.740019 0.000000
0.234987 0.737025 0.000000
0.310644 0.734025 0.000000
0.390172 0.731019 0.000000
0.473571 0.728007 0.000000
0.558985 0.724988 0.000000
0.640895 0.721963 0.000000
0.718933 0.718933 0.000000
0.793099 0.715896 0.000000
0.863395 0.712852 0.000000
0.929819 0.709803 0.000000
0.992371 0.706748 0.000000
1.000000 0.703686 0.000000
0.000000 0.817738 0.000000
0.000000 0.814908 0.000000
0.022951 0.812072 0.000000
0.086474 0.809231 0.000000
0.153869 0.806383 0.000000
0.225135 0.803528 0.000000
0.300272 0.800668 0.000000
0.379281 0.797802 0.000000
0.462161 0.794929 0.000000
0.547706 0.792050 0.000000
0.630134 0.789166 0.000000
0.708691 0.786275 0.000000
0.783377 0.783377 0.000000
0.854192 0.780474 0.000000
0.921135 0.777564 0.000000
0.984207 0.774649 0.000000
1.000000 0.771727 0.000000
0.000000 0.880366 0.000000
0.000000 0.877676 0.000000
0.014726 0.874980 0.000000
0.077730 0.872278 0.000000
0.144606 0.869570 0.000000
0.215353 0.866856 0.000000
0.289971 0.864135 0.000000
0.368460 0.861409 0.000000
0.450821 0.858676 0.000000
0.536357 0.855937 0.000000
0.619304 0.853192 0.000000
0.698381 0.850441 0.000000
0.773586 0.847683 0.000000
0.844920 0.844920 0.000000
0.912382 0.842150 0.000000
0.975973 0.839374 0.000000
1.000000 0.836592 0.000000
0.000000 0.939818 0.000000
0.000000 0.937268 0.000000
0.006570 0.934712 0.000000
0.069056 0.932150 0.000000
0.135412 0.929582 0.000000
0.205640 0.927007 0.000000
0.279739 0.924426 0.000000
0.357709 0.921839 0.000000
0.439551 0.919246 0.000000
0.524938 0.916647 0.000000
0.608405 0.914042 0.000000
0.688000 0.911431 0.000000
0.763725 0.908813 0.000000
0.835578 0.906189 0.000000
0.903559 0.903559 0.000000
0.967670 0.900923 0.000000
1.000000 0.898281 0.000000
0.000000 0.996095 0.000000
0.000000 0.993684 0.000000
0.000000 0.991268 0.000000
0.060451 0.988846 0.000000
0.126288 0.986417 0.000000
0.195997 0.983982 0.000000
0.269576 0.981541 0.000000
0.347028 0.979094 0.000000
0.428350 0.976641 0.000000
0.513450 0.974182 0.000000
0.597436 0.971716 0.000000
0.677551 0.969245 0.000000
0.753794 0.966767 0.000000
0.826166 0.964283 0.000000
0.894667 0.961793 0.000000
0.959296 0.959296 0.000000
1.000000 0.956794 0.000000
0.000000 1.000000 0.000000
0.000000 1.000000 0.000000
0.000000 1.000000 0.000000
0.051916 1.000000 0.000000
0.117234 1.000000 0.000000
0.186423 1.000000 0.000000
0.259484 1.000000 0.000000
0.336416 1.000000 0.000000
0.417219 1.000000 0.000000
0.501892 1.000000 0.000000
0.586397 1.000000 0.000000
0.667031 1.000000 0.000000
0.743794 1.000000 0.000000
0.816685 1.000000 0.000000
0.885705 1.000000 0.000000
0.950854 1.000000 0.000000
1.000000 1.000000 0.000000
0.000000 0.000000 0.131578
0.060332 0.000000 0.128867
0.126162 0.000000 0.126162
0.195864 0.000000 0.123464
0.269436 0.000000 0.120771
0.346880 0.000000 0.118085
0.428195 0.000000 0.115405
0.513290 0.000000 0.112731
0.597283 0.000000 0.110064
0.677405 0.000000 0.107402
0.753656 0.000000 0.104747
0.826035 0.000000 0.102097
0.894543 0.000000 0.099454
0.959180 0.000000 0.096817
1.000000 0.000000 0.094186
1.000000 0.000000 0.091562
1.000000 0.000000 0.088943
0.000000 0.054327 0.122483
0.051798 0.051798 0.119793
0.117109 0.049274 0.117109
0.186291 0.046757 0.114431
0.259344 0.044246 0.111759
0.336269 0.041741 0.109094
0.417065 0.039242 0.106435
0.501731 0.036749 0.103781
0.586244 0.034263 0.101134
0.666885 0.031783 0.098494
0.743655 0.029308 0.095859
0.816553 0.026840 0.093230
0.885580 0.024378 0.090608
0.950736 0.021923 0.087992
1.000000 0.019473 0.085381
1.000000 0.017030 0.082778
1.000000 0.014592 0.080180
0.000000 0.113458 0.113458
0.043333 0.110788 0.110788
0.108125 0.108125 0.108125
0.176788 0.105468 0.105468
0.249322 0.102817 0.102817
0.325728 0.100172 0.100172
0.406005 0.097534 0.097534
0.490153 0.094901 0.094901
0.575134 0.092275 0.092275
0.656295 0.089655 0.089655
0.733584 0.087041 0.087041
0.807001 0.084433 0.084433
0.876548 0.081831 0.081831
0.942223 0.079236 0.079236
1.000000 0.076646 0.076646
1.000000 0.074063 0.074063
1.000000 0.071486 0.071486
0.000000 0.175764 0.104502
0.034938 0.172955 0.101853
0.099211 0.170152 0.099211
0.167355 0.167355 0.096574
0.239370 0.164564 0.093944
0.315256 0.161779 0.091320
0.395014 0.159001 0.088702
0.478643 0.156229 0.086090
0.563955 0.153463 0.083485
0.645635 0.150703 0.080885
0.723443 0.147949 0.078292
0.797380 0.145201 0.075705
0.867445 0.142460 0.073124
0.933640 0.139724 0.070549
0.995963 0.136995 0.067980
1.000000 0.134272 0.065418
1.000000 0.131555 0.062861
0.000000 0.241246 0.095616
0.026613 0.238297 0.092988
0.090366 0.235354 0.090366
0.157991 0.232417 0.087751
0.229487 0.229487 0.085141
0.304854 0.226563 0.082538
0.384093 0.223644 0.079941
0.467203 0.220732 0.077349
0.552707 0.217826 0.074765
0.634905 0.214927 0.072186
0.713233 0.212033 0.069613
0.787689 0.209146 0.067047
0.858274 0.206264 0.064486
0.924987 0.203389 0.061932
0.987829 0.200520 0.059384
1.000000 0.197657 0.056842
1.000000 0.194801 0.054307
0.000000 0.309904 0.086800
0.018357 0.306815 0.084193
0.081592 0.303733 0.081592
0.148697 0.300656 0.078997
0.219674 0.297586 0.076408
0.294522 0.294522 0.073825
0.373241 0.291464 0.071248
0.455832 0.288412 0.068678
0.541388 0.285366 0.066114
0.624106 0.282327 0.063556
0.702953 0.279293 0.061004
0.777928 0.276266 0.058458
0.849032 0.273245 0.055919
0.916265 0.270230 0.053385
0.979626 0.267221 0.050858
1.000000 0.264219 0.048337
1.000000 0.261222 0.045822
0.000000 0.381738 0.078053
0.010171 0.378509 0.075467
0.072886 0.375287 0.072886
0.139473 0.372071 0.070312
0.209930 0.368861 0.067744
0.284259 0.365657 0.065182
0.362459 0.362459 0.062626
0.444531 0.359267 0.060076
0.530001 0.356082 0.057533
0.613238 0.352903 0.054995
0.692603 0.349729 0.052464
0.768098 0.346562 0.049939
0.839721 0.343402 0.047420
0.907473 0.340247 0.044907
0.971353 0.337098 0.042401
1.000000 0.333956 0.039900
1.000000 0.330820 0.037406
0.000000 0.456748 0.069376
0.002055 0.453380 0.066810
0.064251 0.450018 0.064251
0.130318 0.446662 0.061697
0.200256 0.443312 0.059150
0.274066 0.439968 0.056608
0.351747 0.436630 0.054073
0.433299 0.433299 0.051544
0.518543 0.429974 0.049021
0.602299 0.426655 0.046505
0.682184 0.423342 0.043994
0.758198 0.420035 0.041490
0.830340 0.416734 0.038992
0.898611 0.413440 0.036500
0.963011 0.410151 0.034014
1.000000 0.406869 0.031534
1.000000 0.403593 0.029060
0.000000 0.534314 0.060769
0.000000 0.530923 0.058224
0.055685 0.527527 0.055685
0.121233 0.524123 0.053152
0.190652 0.520714 0.050625
0.263942 0.517299 0.048104
0.341104 0.513877 0.045590
0.422137 0.510450 0.043082
0.507016 0.507016 0.040580
0.591291 0.503576 0.038084
0.671695 0.500130 0.035594
0.748228 0.496683 0.033110
0.820890 0.493243 0.030633
0.889680 0.489808 0.028161
0.954599 0.486380 0.025696
1.000000 0.482958 0.023237
1.000000 0.479543 0.020784
0.000000 0.609694 0.052231
0.000000 0.606443 0.049707
0.047188 0.603186 0.047188
0.112217 0.599923 0.044676
0.181117 0.596653 0.042170
0.253888 0.593378 0.039670
0.330531 0.590096 0.037176
0.411045 0.586808 0.034689
0.495430 0.583514 0.032207
0.580214 0.580214 0.029732
0.661137 0.576907 0.027263
0.738189 0.573595 0.024800
0.811370 0.570276 0.022343
0.880679 0.566951 0.019893
0.946117 0.563621 0.017448
1.000000 0.560283 0.015010
1.000000 0.556940 0.012578
0.000000 0.681898 0.043763
0.000000 0.678787 0.041259
0.038762 0.675669 0.038762
0.103271 0.672546 0.036270
0.171652 0.669416 0.033785
0.243904 0.666280 0.031306
0.320027 0.663138 0.028833
0.400022 0.659990 0.026366
0.483888 0.656836 0.023905
0.569067 0.653676 0.021450
0.650509 0.650509 0.019002
0.728080 0.647336 0.016560
0.801780 0.644158 0.014124
0.871609 0.640973 0.011694
0.937566 0.637781 0.009270
0.999652 0.634584 0.006852
1.000000 0.631381 0.004441
0.000000 0.750925 0.035365
0.000000 0.747954 0.032881
0.030405 0.744977 0.030405
0.094395 0.741993 0.027934
0.162256 0.739003 0.025469
0.233989 0.736007 0.023011
0.309594 0.733005 0.020558
0.389069 0.729997 0.018112
0.472416 0.726982 0.015672
0.557850 0.723962 0.013238
0.639811 0.720935 0.010810
0.717902 0.717902 0.008389
0.792121 0.714863 0.005973
0.862469 0.711818 0.003564
0.928945 0.708766 0.001161
0.991550 0.705709 0.000000
1.000000 0.702645 0.000000
0.000000 0.816777 0.027036
0.000000 0.813946 0.024573
0.022117 0.811108 0.022117
0.085588 0.808264 0.019667
0.152931 0.805414 0.017223
0.224144 0.802558 0.014785
0.299229 0.799695 0.012354
0.378186 0.796827 0.009928
0.461013 0.793952 0.007509
0.546563 0.791071 0.005096
0.629044 0.788184 0.002689
0.707654 0.785291 0.000288
0.782392 0.782392 0.000000
0.853259 0.779487 0.000000
0.920255 0.776575 0.000000
0.983379 0.773657 0.000000
1.000000 0.770733 0.000000
0.000000 0.879453 0.018777
0.000000 0.876761 0.016335
0.013899 0.874063 0.013899
0.076851 0.871359 0.011470
0.143674 0.868649 0.009047
0.214369 0.865933 0.006629
0.288935 0.863210 0.004219
0.367372 0.860481 0.001814
0.449680 0.857746 0.000000
0.535207 0.855005 0.000000
0.618207 0.852258 0.000000
0.697336 0.849505 0.000000
0.772593 0.846745 0.000000
0.843980 0.843980 0.000000
0.911495 0.841208 0.000000
0.975138 0.838430 0.000000
1.000000 0.835646 0.000000
0.000000 0.938953 0.010587
0.000000 0.936401 0.008166
0.005751 0.933843 0.005751
0.068184 0.931278 0.003342
0.134488 0.928708 0.000940
0.204663 0.926131 0.000000
0.278710 0.923549 0.000000
0.356628 0.920960 0.000000
0.438417 0.918364 0.000000
0.523781 0.915763 0.000000
0.607301 0.913156 0.000000
0.686949 0.910542 0.000000
0.762725 0.907923 0.000000
0.834631 0.905297 0.000000
0.902665 0.902665 0.000000
0.966827 0.900027 0.000000
1.000000 0.897382 0.000000
0.000000 0.995277 0.002467
0.000000 0.992865 0.000067
0.000000 0.990446 0.000000
0.059586 0.988022 0.000000
0.125371 0.985591 0.000000
0.195027 0.983154 0.000000
0.268554 0.980711 0.000000
0.345953 0.978262 0.000000
0.427223 0.975807 0.000000
0.512286 0.973345 0.000000
0.596325 0.970878 0.000000
0.676492 0.968404 0.000000
0.752788 0.965924 0.000000
0.825212 0.963438 0.000000
0.893765 0.960946 0.000000
0.958447 0.958447 0.000000
1.000000 0.955943 0.000000
0.000000 1.000000 0.000000
0.000000 1.000000 0.000000
0.000000 1.000000 0.000000
0.051058 1.000000 0.000000
0.116324 1.000000 0.000000
0.185461 1.000000 0.000000
0.258469 1.000000 0.000000
0.335348 1.000000 0.000000
0.416099 1.000000 0.000000
0.500721 1.000000 0.000000
0.585279 1.000000 0.000000
0.665965 1.000000 0.000000
0.742780 1.000000 0.000000
0.815724 1.000000 0.000000
0.884796 1.000000 0.000000
0.949997 1.000000 0.000000
1.000000 1.000000 0.000000
0.000000 0.000000 0.203483
0.059467 0.000000 0.200614
0.125245 0.000000 0.197751
0.194894 0.000000 0.194894
0.268414 0.000000 0.192043
0.345806 0.000000 0.189199
0.427069 0.000000 0.186360
0.512126 0.000000 0.183528
0.596172 0.000000 0.180702
0.676346 0.000000 0.177882
0.752649 0.000000 0.175068
0.825081 0.000000 0.172260
0.893642 0.000000 0.169459
0.958331 0.000000 0.166664
1.000000 0.000000 0.163874
1.000000 0.000000 0.161091
1.000000 0.000000 0.158315
0.000000 0.053468 0.193855
0.050940 0.050940 0.191007
