presets/luts/teal_orange.cube
# teal_orange — bundled look for apply_lut/list_luts
LUT_3D_SIZE 17
0.000000 0.015000 0.070000
0.004095 0.014601 0.068140
0.068189 0.014203 0.066280
0.132283 0.013804 0.064419
0.196378 0.013405 0.062559
0.260472 0.013007 0.060699
0.324567 0.012608 0.058839
0.388661 0.012210 0.056978
0.452756 0.011811 0.055118
0.516850 0.011412 0.053258
0.580945 0.011014 0.051397
0.645039 0.010615 0.049537
0.709134 0.010216 0.047677
0.773228 0.009818 0.045817
0.837323 0.009419 0.043957
0.901417 0.009021 0.042096
0.965512 0.008622 0.040236
0.000000 0.076159 0.063742
0.009459 0.075760 0.061882
0.073553 0.075362 0.060022
0.137648 0.074963 0.058161
0.201742 0.074565 0.056301
0.265837 0.074166 0.054441
0.329931 0.073767 0.052581
0.394026 0.073369 0.050720
0.458120 0.072970 0.048860
0.522215 0.072571 0.047000
0.586309 0.072173 0.045139
0.650404 0.071774 0.043279
0.714498 0.071375 0.041419
0.778593 0.070977 0.039559
0.842687 0.070578 0.037699
0.906782 0.070180 0.035838
0.970876 0.069781 0.033978
0.000000 0.137318 0.057484
0.014823 0.136919 0.055624
0.078917 0.136521 0.053764
0.143012 0.136122 0.051903
0.207106 0.135723 0.050043
0.271201 0.135325 0.048183
0.335295 0.134926 0.046323
0.399390 0.134528 0.044462
0.463484 0.134129 0.042602
0.527578 0.133730 0.040742
0.591673 0.133332 0.038882
0.655768 0.132933 0.037021
0.719862 0.132534 0.035161
0.783957 0.132136 0.033301
0.848051 0.131737 0.031441
0.912146 0.131339 0.029580
0.976240 0.130940 0.027720
0.000000 0.198477 0.051226
0.020187 0.198078 0.049366
0.084281 0.197680 0.047506
0.148375 0.197281 0.045645
0.212470 0.196882 0.043785
0.276564 0.196484 0.041925
0.340659 0.196085 0.040065
0.404753 0.195687 0.038204
0.468848 0.195288 0.036344
0.532942 0.194889 0.034484
0.597037 0.194491 0.032623
0.661131 0.194092 0.030763
0.725226 0.193693 0.028903
0.789320 0.193295 0.027043
0.853415 0.192896 0.025183
0.917509 0.192498 0.023322
0.981604 0.192099 0.021462
0.000000 0.259636 0.044968
0.025550 0.259237 0.043108
0.089645 0.258839 0.041248
0.153740 0.258440 0.039387
0.217834 0.258041 0.037527
0.281929 0.257643 0.035667
0.346023 0.257244 0.033807
0.410118 0.256846 0.031946
0.474212 0.256447 0.030086
0.538307 0.256048 0.028226
0.602401 0.255650 0.026365
0.666496 0.255251 0.024505
0.730590 0.254852 0.022645
0.794685 0.254454 0.020785
0.858779 0.254055 0.018925
0.922874 0.253657 0.017064
0.986968 0.253258 0.015204
0.000000 0.320795 0.038710
0.030914 0.320396 0.036850
0.095009 0.319998 0.034990
0.159104 0.319599 0.033129
0.223198 0.319200 0.031269
0.287293 0.318802 0.029409
0.351387 0.318403 0.027549
0.415482 0.318005 0.025688
0.479576 0.317606 0.023828
0.543670 0.317207 0.021968
0.607765 0.316809 0.020108
0.671860 0.316410 0.018247
0.735954 0.316012 0.016387
0.800049 0.315613 0.014527
0.864143 0.315214 0.012667
0.928238 0.314816 0.010806
0.992332 0.314417 0.008946
0.000000 0.381954 0.032452
0.036279 0.381555 0.030592
0.100373 0.381157 0.028732
0.164467 0.380758 0.026871
0.228562 0.380360 0.025011
0.292656 0.379961 0.023151
0.356751 0.379562 0.021291
0.420845 0.379164 0.019430
0.484940 0.378765 0.017570
0.549034 0.378366 0.015710
0.613129 0.377968 0.013849
0.677223 0.377569 0.011989
0.741318 0.377171 0.010129
0.805412 0.376772 0.008269
0.869507 0.376373 0.006409
0.933601 0.375975 0.004548
0.997696 0.375576 0.002688
0.000000 0.443113 0.026194
0.041642 0.442714 0.024334
0.105737 0.442316 0.022474
0.169831 0.441917 0.020613
0.233926 0.441518 0.018753
0.298021 0.441120 0.016893
0.362115 0.440721 0.015033
0.426210 0.440323 0.013172
0.490304 0.439924 0.011312
0.554399 0.439525 0.009452
0.618493 0.439127 0.007592
0.682588 0.438728 0.005731
0.746682 0.438329 0.003871
0.810777 0.437931 0.002011
0.874871 0.437532 0.000151
0.938721 0.437500 0.000000
1.000000 0.437500 0.000000
0.000000 0.504272 0.019936
0.047006 0.503873 0.018076
0.111101 0.503475 0.016216
0.175196 0.503076 0.014355
0.239290 0.502677 0.012495
0.303385 0.502279 0.010635
0.367479 0.501880 0.008775
0.431573 0.501482 0.006914
0.495668 0.501083 0.005054
0.559763 0.500684 0.003194
0.623857 0.500286 0.001334
0.687876 0.500000 0.000000
0.751705 0.500000 0.000000
0.815534 0.500000 0.000000
0.879363 0.500000 0.000000
0.943191 0.500000 0.000000
1.000000 0.500000 0.000000
0.000000 0.565431 0.013678
0.052371 0.565032 0.011818
0.116465 0.564634 0.009957
0.180560 0.564235 0.008097
0.244654 0.563836 0.006237
0.308748 0.563438 0.004377
0.372843 0.563039 0.002517
0.436937 0.562641 0.000656
0.500860 0.562500 0.000000
0.564689 0.562500 0.000000
0.628517 0.562500 0.000000
0.692346 0.562500 0.000000
0.756175 0.562500 0.000000
0.820004 0.562500 0.000000
0.883833 0.562500 0.000000
0.947661 0.562500 0.000000
1.000000 0.562500 0.000000
0.000000 0.626590 0.007420
0.057734 0.626191 0.005560
0.121829 0.625793 0.003700
0.185923 0.625394 0.001839
0.250015 0.625000 0.000000
0.313844 0.625000 0.000000
0.377673 0.625000 0.000000
0.441501 0.625000 0.000000
0.505330 0.625000 0.000000
0.569159 0.625000 0.000000
0.632988 0.625000 0.000000
0.696816 0.625000 0.000000
0.760645 0.625000 0.000000
0.824474 0.625000 0.000000
0.888302 0.625000 0.000000
0.952131 0.625000 0.000000
1.000000 0.625000 0.000000
0.000000 0.687749 0.001162
0.062999 0.687500 0.000000
0.126827 0.687500 0.000000
0.190656 0.687500 0.000000
0.254485 0.687500 0.000000
0.318314 0.687500 0.000000
0.382142 0.687500 0.000000
0.445971 0.687500 0.000000
0.509800 0.687500 0.000000
0.573629 0.687500 0.000000
0.637458 0.687500 0.000000
0.701286 0.687500 0.000000
0.765115 0.687500 0.000000
0.828944 0.687500 0.000000
0.892772 0.687500 0.000000
0.956601 0.687500 0.000000
1.000000 0.687500 0.000000
0.003640 0.750000 0.000000
0.067469 0.750000 0.000000
0.131298 0.750000 0.000000
0.195126 0.750000 0.000000
0.258955 0.750000 0.000000
0.322784 0.750000 0.000000
0.386613 0.750000 0.000000
0.450441 0.750000 0.000000
0.514270 0.750000 0.000000
0.578099 0.750000 0.000000
0.641927 0.750000 0.000000
0.705756 0.750000 0.000000
0.769585 0.750000 0.000000
0.833414 0.750000 0.000000
0.897242 0.750000 0.000000
0.961071 0.750000 0.000000
1.000000 0.750000 0.000000
0.008110 0.812500 0.000000
0.071939 0.812500 0.000000
0.135767 0.812500 0.000000
0.199596 0.812500 0.000000
0.263425 0.812500 0.000000
0.327254 0.812500 0.000000
0.391082 0.812500 0.000000
0.454911 0.812500 0.000000
0.518740 0.812500 0.000000
0.582569 0.812500 0.000000
0.646397 0.812500 0.000000
0.710226 0.812500 0.000000
0.774055 0.812500 0.000000
0.837884 0.812500 0.000000
0.901713 0.812500 0.000000
0.965541 0.812500 0.000000
1.000000 0.812500 0.000000
0.012580 0.875000 0.000000
0.076409 0.875000 0.000000
0.140237 0.875000 0.000000
0.204066 0.875000 0.000000
0.267895 0.875000 0.000000
0.331724 0.875000 0.000000
0.395552 0.875000 0.000000
0.459381 0.875000 0.000000
0.523210 0.875000 0.000000
0.587039 0.875000 0.000000
0.650868 0.875000 0.000000
0.714696 0.875000 0.000000
0.778525 0.875000 0.000000
0.842354 0.875000 0.000000
0.906183 0.875000 0.000000
0.970011 0.875000 0.000000
1.000000 0.875000 0.000000
0.017050 0.937500 0.000000
0.080879 0.937500 0.000000
0.144707 0.937500 0.000000
0.208536 0.937500 0.000000
0.272365 0.937500 0.000000
0.336194 0.937500 0.000000
0.400023 0.937500 0.000000
0.463851 0.937500 0.000000
0.527680 0.937500 0.000000
0.591509 0.937500 0.000000
0.655338 0.937500 0.000000
0.719166 0.937500 0.000000
0.782995 0.937500 0.000000
0.846824 0.937500 0.000000
0.910652 0.937500 0.000000
0.974481 0.937500 0.000000
1.000000 0.937500 0.000000
0.021520 1.000000 0.000000
0.085349 1.000000 0.000000
0.149177 1.000000 0.000000
0.213006 1.000000 0.000000
0.276835 1.000000 0.000000
0.340664 1.000000 0.000000
0.404492 1.000000 0.000000
0.468321 1.000000 0.000000
0.532150 1.000000 0.000000
0.595979 1.000000 0.000000
0.659807 1.000000 0.000000
0.723636 1.000000 0.000000
0.787465 1.000000 0.000000
0.851294 1.000000 0.000000
0.915122 1.000000 0.000000
0.978951 1.000000 0.000000
1.000000 1.000000 0.000000
0.000000 0.014865 0.131868
0.004636 0.014466 0.130008
0.068730 0.014067 0.128148
0.132825 0.013669 0.126287
0.196919 0.013270 0.124427
0.261014 0.012871 0.122567
0.325109 0.012473 0.120707
0.389203 0.012074 0.118847
0.453298 0.011676 0.116986
0.517392 0.011277 0.115126
0.581487 0.010878 0.113266
0.645581 0.010480 0.111406
0.709676 0.010081 0.109545
0.773770 0.009682 0.107685
0.837865 0.009284 0.105825
0.901959 0.008885 0.103965
0.966054 0.008487 0.102104
0.000000 0.076024 0.125610
0.010000 0.075625 0.123750
0.074095 0.075226 0.121890
0.138189 0.074828 0.120030
0.202284 0.074429 0.118169
0.266378 0.074030 0.116309
0.330473 0.073632 0.114449
0.394567 0.073233 0.112589
0.458661 0.072835 0.110728
0.522756 0.072436 0.108868
0.586851 0.072037 0.107008
0.650945 0.071639 0.105148
0.715040 0.071240 0.103287
0.779134 0.070842 0.101427
0.843229 0.070443 0.099567
0.907323 0.070044 0.097707
0.971418 0.069646 0.095846
0.000000 0.137183 0.119352
0.015364 0.136784 0.117492
0.079459 0.136385 0.115632
0.143553 0.135987 0.113772
0.207647 0.135588 0.111911
0.271742 0.135189 0.110051
0.335836 0.134791 0.108191
0.399931 0.134392 0.106330
0.464025 0.133994 0.104470
0.528120 0.133595 0.102610
0.592214 0.133196 0.100750
0.656309 0.132798 0.098889
0.720403 0.132399 0.097029
0.784498 0.132000 0.095169
0.848592 0.131602 0.093309
0.912687 0.131203 0.091449
0.976781 0.130805 0.089588
0.000000 0.198342 0.113094
0.020728 0.197943 0.111234
0.084823 0.197544 0.109374
0.148917 0.197146 0.107514
0.213011 0.196747 0.105653
0.277106 0.196349 0.103793
0.341201 0.195950 0.101933
0.405295 0.195551 0.100073
0.469390 0.195153 0.098212
0.533484 0.194754 0.096352
0.597579 0.194355 0.094492
0.661673 0.193957 0.092632
0.725768 0.193558 0.090771
0.789862 0.193160 0.088911
0.853957 0.192761 0.087051
0.918051 0.192362 0.085191
0.982146 0.191964 0.083330
0.000000 0.259501 0.106836
0.026092 0.259102 0.104976
0.090187 0.258703 0.103116
0.154281 0.258305 0.101255
0.218376 0.257906 0.099395
0.282470 0.257508 0.097535
0.346564 0.257109 0.095675
0.410659 0.256710 0.093814
0.474753 0.256312 0.091954
0.538848 0.255913 0.090094
0.602943 0.255514 0.088234
0.667037 0.255116 0.086374
0.731132 0.254717 0.084513
0.795226 0.254319 0.082653
0.859321 0.253920 0.080793
0.923415 0.253521 0.078933
0.987510 0.253123 0.077072
0.000000 0.320660 0.100578
0.031456 0.320261 0.098718
0.095550 0.319862 0.096858
0.159645 0.319464 0.094998
0.223739 0.319065 0.093137
0.287834 0.318667 0.091277
0.351928 0.318268 0.089417
0.416023 0.317869 0.087557
0.480117 0.317471 0.085696
0.544212 0.317072 0.083836
0.608306 0.316673 0.081976
0.672401 0.316275 0.080116
0.736495 0.315876 0.078255
0.800590 0.315478 0.076395
0.864684 0.315079 0.074535
0.928779 0.314680 0.072675
0.992873 0.314282 0.070814
0.000000 0.381819 0.094320
0.036820 0.381420 0.092460
0.100914 0.381021 0.090600
0.165009 0.380623 0.088739
0.229104 0.380224 0.086879
0.293198 0.379825 0.085019
0.357293 0.379427 0.083159
0.421387 0.379028 0.081299
0.485482 0.378630 0.079438
0.549576 0.378231 0.077578
0.613671 0.377832 0.075718
0.677765 0.377434 0.073858
0.741860 0.377035 0.071997
0.805954 0.376636 0.070137
0.870049 0.376238 0.068277
0.934143 0.375839 0.066417
0.998237 0.375441 0.064556
0.000000 0.442978 0.088062
0.042184 0.442579 0.086202
0.106278 0.442180 0.084342
0.170373 0.441782 0.082482
0.234467 0.441383 0.080621
0.298562 0.440985 0.078761
0.362656 0.440586 0.076901
0.426751 0.440187 0.075041
0.490845 0.439789 0.073180
0.554940 0.439390 0.071320
0.619035 0.438991 0.069460
0.683129 0.438593 0.067600
0.747224 0.438194 0.065739
0.811318 0.437796 0.063879
0.875344 0.437500 0.062088
0.939172 0.437500 0.060493
1.000000 0.437500 0.058898
0.000000 0.504137 0.081804
0.047548 0.503738 0.079944
0.111642 0.503339 0.078084
0.175737 0.502941 0.076223
0.239832 0.502542 0.074363
0.303926 0.502143 0.072503
0.368020 0.501745 0.070643
0.432115 0.501346 0.068783
0.496209 0.500948 0.066922
0.560304 0.500549 0.065062
0.624398 0.500150 0.063202
0.688327 0.500000 0.061507
0.752156 0.500000 0.059912
0.815985 0.500000 0.058318
0.879814 0.500000 0.056723
0.943642 0.500000 0.055129
1.000000 0.500000 0.053534
0.000000 0.565296 0.075546
0.052912 0.564897 0.073686
0.117006 0.564498 0.071826
0.181101 0.564100 0.069965
0.245196 0.563701 0.068105
0.309290 0.563303 0.066245
0.373385 0.562904 0.064385
0.437479 0.562505 0.062525
0.501311 0.562500 0.060927
0.565140 0.562500 0.059332
0.628969 0.562500 0.057738
0.692797 0.562500 0.056143
0.756626 0.562500 0.054548
0.820455 0.562500 0.052954
0.884284 0.562500 0.051360
0.948113 0.562500 0.049765
1.000000 0.562500 0.048170
0.000000 0.626455 0.069288
0.058276 0.626056 0.067428
0.122370 0.625657 0.065568
0.186465 0.625259 0.063708
0.250466 0.625000 0.061940
0.314295 0.625000 0.060346
0.378124 0.625000 0.058751
0.441953 0.625000 0.057157
0.505781 0.625000 0.055563
0.569610 0.625000 0.053968
0.633439 0.625000 0.052374
0.697268 0.625000 0.050779
0.761096 0.625000 0.049185
0.824925 0.625000 0.047590
0.888754 0.625000 0.045996
0.952582 0.625000 0.044401
1.000000 0.625000 0.042806
0.000000 0.687614 0.063030
0.063450 0.687500 0.061360
0.127279 0.687500 0.059766
0.191107 0.687500 0.058171
0.254936 0.687500 0.056577
0.318765 0.687500 0.054982
0.382594 0.687500 0.053388
0.446422 0.687500 0.051793
0.510251 0.687500 0.050199
0.574080 0.687500 0.048604
0.637909 0.687500 0.047009
0.701738 0.687500 0.045415
0.765566 0.687500 0.043820
0.829395 0.687500 0.042226
0.893224 0.687500 0.040632
0.957052 0.687500 0.039037
1.000000 0.687500 0.037443
0.004091 0.750000 0.057590
0.067920 0.750000 0.055996
0.131749 0.750000 0.054401
0.195578 0.750000 0.052807
0.259406 0.750000 0.051212
0.323235 0.750000 0.049618
0.387064 0.750000 0.048023
0.450892 0.750000 0.046429
0.514721 0.750000 0.044834
0.578550 0.750000 0.043240
0.642379 0.750000 0.041645
0.706207 0.750000 0.040051
0.770036 0.750000 0.038457
0.833865 0.750000 0.036862
0.897694 0.750000 0.035268
0.961523 0.750000 0.033673
1.000000 0.750000 0.032078
0.008561 0.812500 0.052227
0.072390 0.812500 0.050632
0.136219 0.812500 0.049037
0.200047 0.812500 0.047443
0.263876 0.812500 0.045849
0.327705 0.812500 0.044254
0.391534 0.812500 0.042659
0.455363 0.812500 0.041065
0.519191 0.812500 0.039470
0.583020 0.812500 0.037876
0.646849 0.812500 0.036281
0.710677 0.812500 0.034687
0.774506 0.812500 0.033093
0.838335 0.812500 0.031498
0.902164 0.812500 0.029904
0.965993 0.812500 0.028309
1.000000 0.812500 0.026715
0.013031 0.875000 0.046863
0.076860 0.875000 0.045268
0.140689 0.875000 0.043674
0.204517 0.875000 0.042079
0.268346 0.875000 0.040485
0.332175 0.875000 0.038890
0.396004 0.875000 0.037296
0.459832 0.875000 0.035701
0.523661 0.875000 0.034106
0.587490 0.875000 0.032512
0.651319 0.875000 0.030918
0.715148 0.875000 0.029323
0.778976 0.875000 0.027729
0.842805 0.875000 0.026134
0.906634 0.875000 0.024540
0.970463 0.875000 0.022945
1.000000 0.875000 0.021351
0.017501 0.937500 0.041499
0.081330 0.937500 0.039904
0.145159 0.937500 0.038309
0.208987 0.937500 0.036715
0.272816 0.937500 0.035120
0.336645 0.937500 0.033526
0.400474 0.937500 0.031931
0.464303 0.937500 0.030337
0.528131 0.937500 0.028743
0.591960 0.937500 0.027148
0.655789 0.937500 0.025554
0.719618 0.937500 0.023959
0.783446 0.937500 0.022365
0.847275 0.937500 0.020770
0.911104 0.937500 0.019175
0.974932 0.937500 0.017581
1.000000 0.937500 0.015987
0.021971 1.000000 0.036134
0.085800 1.000000 0.034540
0.149629 1.000000 0.032946
0.213457 1.000000 0.031351
0.277286 1.000000 0.029756
0.341115 1.000000 0.028162
0.404944 1.000000 0.026568
0.468772 1.000000 0.024973
0.532601 1.000000 0.023379
0.596430 1.000000 0.021784
0.660259 1.000000 0.020190
0.724087 1.000000 0.018595
0.787916 1.000000 0.017001
0.851745 1.000000 0.015406
0.915574 1.000000 0.013812
0.979402 1.000000 0.012217
1.000000 1.000000 0.010622
0.000000 0.014729 0.193737
0.005178 0.014331 0.191876
0.069272 0.013932 0.190016
0.133366 0.013533 0.188156
0.197461 0.013135 0.186296
0.261555 0.012736 0.184435
0.325650 0.012337 0.182575
0.389744 0.011939 0.180715
0.453839 0.011540 0.178854
0.517934 0.011142 0.176994
0.582028 0.010743 0.175134
0.646123 0.010344 0.173274
0.710217 0.009946 0.171413
0.774312 0.009547 0.169553
0.838406 0.009149 0.167693
0.902501 0.008750 0.165833
0.966595 0.008351 0.163972
0.000000 0.075888 0.187478
0.010542 0.075490 0.185618
0.074636 0.075091 0.183758
0.138731 0.074692 0.181898
0.202825 0.074294 0.180038
0.266919 0.073895 0.178177
0.331014 0.073496 0.176317
0.395108 0.073098 0.174457
0.459203 0.072699 0.172597
0.523297 0.072301 0.170736
0.587392 0.071902 0.168876
0.651486 0.071503 0.167016
0.715581 0.071105 0.165156
0.779675 0.070706 0.163295
0.843770 0.070307 0.161435
0.907864 0.069909 0.159575
0.971959 0.069510 0.157715
0.000000 0.137047 0.181221
0.015906 0.136649 0.179360
0.080000 0.136250 0.177500
0.144095 0.135851 0.175640
0.208189 0.135453 0.173780
0.272284 0.135054 0.171919
0.336378 0.134656 0.170059
0.400473 0.134257 0.168199
0.464567 0.133858 0.166339
0.528662 0.133460 0.164478
0.592756 0.133061 0.162618
0.656851 0.132662 0.160758
0.720945 0.132264 0.158897
0.785040 0.131865 0.157037
0.849134 0.131466 0.155177
0.913228 0.131068 0.153317
0.977323 0.130669 0.151456
0.000000 0.198206 0.174963
0.021270 0.197808 0.173102
0.085364 0.197409 0.171242
0.149458 0.197010 0.169382
0.213553 0.196612 0.167522
0.277647 0.196213 0.165661
0.341742 0.195815 0.163801
0.405836 0.195416 0.161941
0.469931 0.195017 0.160081
0.534026 0.194619 0.158220
0.598120 0.194220 0.156360
0.662215 0.193821 0.154500
0.726309 0.193423 0.152640
0.790404 0.193024 0.150779
0.854498 0.192626 0.148919
0.918593 0.192227 0.147059
0.982687 0.191828 0.145199
0.000000 0.259365 0.168705
0.026634 0.258967 0.166844
0.090728 0.258568 0.164984
0.154823 0.258169 0.163124
0.218917 0.257771 0.161264
0.283012 0.257372 0.159403
0.347106 0.256974 0.157543
0.411201 0.256575 0.155683
0.475295 0.256176 0.153823
0.539389 0.255778 0.151962
0.603484 0.255379 0.150102
0.667578 0.254980 0.148242
0.731673 0.254582 0.146381
0.795767 0.254183 0.144521
0.859862 0.253785 0.142661
0.923956 0.253386 0.140801
0.988051 0.252987 0.138940
0.000000 0.320524 0.162446
0.031997 0.320126 0.160586
0.096092 0.319727 0.158726
0.160187 0.319328 0.156866
0.224281 0.318930 0.155006
0.288376 0.318531 0.153145
0.352470 0.318132 0.151285
0.416565 0.317734 0.149425
0.480659 0.317335 0.147565
0.544754 0.316937 0.145704
0.608848 0.316538 0.143844
0.672942 0.316139 0.141984
0.737037 0.315741 0.140124
0.801131 0.315342 0.138263
0.865226 0.314943 0.136403
0.929320 0.314545 0.134543
0.993415 0.314146 0.132683
0.000000 0.381683 0.156189
0.037362 0.381285 0.154328
0.101456 0.380886 0.152468
0.165550 0.380487 0.150608
0.229645 0.380089 0.148748
0.293739 0.379690 0.146887
0.357834 0.379292 0.145027
0.421928 0.378893 0.143167
0.486023 0.378494 0.141307
0.550118 0.378096 0.139446
0.614212 0.377697 0.137586
0.678307 0.377298 0.135726
0.742401 0.376900 0.133865
0.806496 0.376501 0.132005
0.870590 0.376103 0.130145
0.934685 0.375704 0.128285
0.998779 0.375305 0.126424
0.000000 0.442842 0.149931
0.042725 0.442444 0.148070
0.106820 0.442045 0.146210
0.170914 0.441646 0.144350
0.235009 0.441248 0.142489
0.299104 0.440849 0.140629
0.363198 0.440451 0.138769
0.427293 0.440052 0.136909
0.491387 0.439653 0.135049
0.555481 0.439255 0.133188
0.619576 0.438856 0.131328
0.683670 0.438457 0.129468
0.747765 0.438059 0.127608
0.811859 0.437660 0.125747
0.875795 0.437500 0.124046
0.939624 0.437500 0.122452
1.000000 0.437500 0.120857
0.000000 0.504001 0.143673
0.048090 0.503603 0.141812
0.112184 0.503204 0.139952
0.176279 0.502805 0.138092
0.240373 0.502407 0.136232
0.304468 0.502008 0.134371
0.368562 0.501610 0.132511
0.432656 0.501211 0.130651
0.496751 0.500812 0.128791
0.560845 0.500414 0.126930
0.624940 0.500015 0.125070
0.688779 0.500000 0.123466
0.752607 0.500000 0.121871
0.816436 0.500000 0.120277
0.880265 0.500000 0.118682
0.944094 0.500000 0.117088
1.000000 0.500000 0.115493
0.000000 0.565160 0.137414
0.053454 0.564762 0.135554
0.117548 0.564363 0.133694
0.181643 0.563964 0.131834
0.245737 0.563566 0.129973
0.309831 0.563167 0.128113
0.373926 0.562769 0.126253
0.437934 0.562500 0.124480
0.501763 0.562500 0.122885
0.565591 0.562500 0.121290
0.629420 0.562500 0.119696
0.693249 0.562500 0.118102
0.757077 0.562500 0.116507
0.820906 0.562500 0.114913
0.884735 0.562500 0.113318
0.948564 0.562500 0.111724
1.000000 0.562500 0.110129
0.000000 0.626319 0.131157
0.058817 0.625921 0.129296
0.122912 0.625522 0.127436
0.187006 0.625123 0.125576
0.250918 0.625000 0.123899
0.314746 0.625000 0.122305
0.378575 0.625000 0.120710
0.442404 0.625000 0.119115
0.506232 0.625000 0.117521
0.570061 0.625000 0.115927
0.633890 0.625000 0.114332
0.697719 0.625000 0.112738
0.761548 0.625000 0.111143
0.825376 0.625000 0.109549
0.889205 0.625000 0.107954
0.953034 0.625000 0.106360
1.000000 0.625000 0.104765
0.000072 0.687500 0.124913
0.063901 0.687500 0.123319
0.127730 0.687500 0.121724
0.191559 0.687500 0.120130
0.255387 0.687500 0.118535
0.319216 0.687500 0.116941
0.383045 0.687500 0.115346
0.446874 0.687500 0.113752
0.510702 0.687500 0.112157
0.574531 0.687500 0.110563
0.638360 0.687500 0.108968
0.702189 0.687500 0.107374
0.766018 0.687500 0.105779
0.829846 0.687500 0.104185
0.893675 0.687500 0.102590
0.957504 0.687500 0.100996
1.000000 0.687500 0.099401
0.004542 0.750000 0.119549
0.068371 0.750000 0.117955
0.132200 0.750000 0.116360
0.196029 0.750000 0.114766
0.259858 0.750000 0.113171
0.323686 0.750000 0.111577
0.387515 0.750000 0.109982
0.451344 0.750000 0.108388
0.515173 0.750000 0.106793
0.579001 0.750000 0.105199
0.642830 0.750000 0.103604
0.706659 0.750000 0.102010
0.770487 0.750000 0.100415
0.834316 0.750000 0.098821
0.898145 0.750000 0.097226
0.961974 0.750000 0.095632
1.000000 0.750000 0.094037
0.009012 0.812500 0.114185
0.072841 0.812500 0.112591
0.136670 0.812500 0.110996
0.200499 0.812500 0.109402
0.264327 0.812500 0.107807
0.328156 0.812500 0.106213
0.391985 0.812500 0.104618
0.455814 0.812500 0.103024
0.519643 0.812500 0.101429
0.583471 0.812500 0.099835
0.647300 0.812500 0.098240
0.711129 0.812500 0.096646
0.774957 0.812500 0.095051
0.838786 0.812500 0.093457
0.902615 0.812500 0.091862
0.966444 0.812500 0.090268
1.000000 0.812500 0.088673
0.013482 0.875000 0.108821
0.077311 0.875000 0.107227
0.141140 0.875000 0.105632
0.204969 0.875000 0.104038
0.268797 0.875000 0.102443
0.332626 0.875000 0.100849
0.396455 0.875000 0.099254
0.460284 0.875000 0.097660
0.524112 0.875000 0.096065
0.587941 0.875000 0.094471
0.651770 0.875000 0.092876
0.715599 0.875000 0.091282
0.779427 0.875000 0.089687
0.843256 0.875000 0.088093
0.907085 0.875000 0.086498
0.970914 0.875000 0.084904
1.000000 0.875000 0.083309
0.017952 0.937500 0.103457
0.081781 0.937500 0.101863
0.145610 0.937500 0.100268
0.209439 0.937500 0.098674
0.273267 0.937500 0.097079
0.337096 0.937500 0.095484
0.400925 0.937500 0.093890
0.464754 0.937500 0.092296
0.528582 0.937500 0.090701
0.592411 0.937500 0.089107
0.656240 0.937500 0.087512
0.720069 0.937500 0.085918
0.783898 0.937500 0.084323
0.847726 0.937500 0.082729
0.911555 0.937500 0.081134
0.975384 0.937500 0.079540
1.000000 0.937500 0.077945
0.022422 1.000000 0.098093
0.086251 1.000000 0.096499
0.150080 1.000000 0.094904
0.213909 1.000000 0.093310
0.277737 1.000000 0.091715
0.341566 1.000000 0.090121
0.405395 1.000000 0.088526
0.469224 1.000000 0.086932
0.533052 1.000000 0.085337
0.596881 1.000000 0.083742
0.660710 1.000000 0.082148
0.724539 1.000000 0.080554
0.788367 1.000000 0.078959
0.852196 1.000000 0.077365
0.916025 1.000000 0.075770
0.979854 1.000000 0.074176
1.000000 1.000000 0.072581
0.000000 0.014594 0.255605
0.005719 0.014195 0.253745
0.069814 0.013797 0.251884
0.133908 0.013398 0.250024
0.198002 0.012999 0.248164
0.262097 0.012601 0.246304
0.326192 0.012202 0.244443
0.390286 0.011803 0.242583
0.454381 0.011405 0.240723
0.518475 0.011006 0.238863
0.582569 0.010608 0.237002
0.646664 0.010209 0.235142
0.710758 0.009810 0.233282
0.774853 0.009412 0.231422
0.838947 0.009013 0.229561
0.903042 0.008615 0.227701
0.967136 0.008216 0.225841
0.000000 0.075753 0.249347
0.011083 0.075354 0.247486
