presets/luts/teal_orange.cube
# teal_orange — bundled look for apply_lut/list_luts
LUT_3D_SIZE 5
0.000000 0.015000 0.070000
0.196378 0.013405 0.062559
0.452756 0.011811 0.055118
0.709134 0.010216 0.047677
0.965512 0.008622 0.040236
0.000000 0.259636 0.044968
0.217834 0.258041 0.037527
0.474212 0.256447 0.030086
0.730590 0.254852 0.022645
0.986968 0.253258 0.015204
0.000000 0.504272 0.019936
0.239290 0.502677 0.012495
0.495668 0.501083 0.005054
0.751705 0.500000 0.000000
1.000000 0.500000 0.000000
0.003640 0.750000 0.000000
0.258955 0.750000 0.000000
0.514270 0.750000 0.000000
0.769585 0.750000 0.000000
1.000000 0.750000 0.000000
0.021520 1.000000 0.000000
0.276835 1.000000 0.000000
0.532150 1.000000 0.000000
0.787465 1.000000 0.000000
1.000000 1.000000 0.000000
0.000000 0.014458 0.317473
0.198544 0.012864 0.310032
0.454922 0.011269 0.302591
0.711300 0.009675 0.295150
0.967678 0.008080 0.287709
0.000000 0.259095 0.292441
0.220000 0.257500 0.285000
0.476378 0.255906 0.277559
0.732756 0.254311 0.270118
0.989134 0.252717 0.262677
0.000000 0.503730 0.267409
0.241456 0.502136 0.259968
0.497834 0.500541 0.252527
0.753510 0.500000 0.245788
1.000000 0.500000 0.239410
0.005445 0.750000 0.243466
0.260760 0.750000 0.237088
0.516075 0.750000 0.230710
0.771390 0.750000 0.224332
1.000000 0.750000 0.217954
0.023325 1.000000 0.222010
0.278640 1.000000 0.215632
0.533955 1.000000 0.209254
0.789270 1.000000 0.202876
1.000000 1.000000 0.196498
0.000000 0.013917 0.564946
0.200710 0.012323 0.557505
0.457088 0.010728 0.550064
0.713466 0.009133 0.542623
0.969844 0.007539 0.535182
0.000000 0.258553 0.539914
0.222166 0.256958 0.532473
0.478544 0.255364 0.525032
0.734922 0.253769 0.517591
0.991300 0.252175 0.510150
0.000000 0.503189 0.514882
0.243622 0.501595 0.507441
0.500000 0.500000 0.500000
0.755315 0.500000 0.493622
1.000000 0.500000 0.487244
0.007250 0.750000 0.491300
0.262565 0.750000 0.484922
0.517880 0.750000 0.478544
0.773195 0.750000 0.472166
1.000000 0.750000 0.465788
0.025130 1.000000 0.469844
0.280445 1.000000 0.463466
0.535760 1.000000 0.457088
0.791075 1.000000 0.450710
1.000000 1.000000 0.444332
0.000000 0.013375 0.812419
0.202876 0.011781 0.804978
0.459254 0.010186 0.797537
0.715632 0.008592 0.790096
0.972010 0.006997 0.782655
0.000000 0.258012 0.787387
0.224332 0.256417 0.779946
0.480710 0.254823 0.772505
0.737088 0.253228 0.765064
0.993466 0.251634 0.757623
0.000000 0.502648 0.762355
0.245788 0.501053 0.754914
0.501805 0.500000 0.747834
0.757120 0.500000 0.741456
1.000000 0.500000 0.735078
0.009055 0.750000 0.739134
0.264370 0.750000 0.732756
0.519685 0.750000 0.726378
0.775000 0.750000 0.720000
1.000000 0.750000 0.713622
0.026935 1.000000 0.717678
0.282250 1.000000 0.711300
0.537565 1.000000 0.704922
0.792880 1.000000 0.698544
1.000000 1.000000 0.692166
0.000000 0.012834 1.000000
0.205042 0.011239 1.000000
0.461420 0.009645 1.000000
0.717798 0.008050 1.000000
0.974176 0.006456 1.000000
0.000000 0.257470 1.000000
0.226498 0.255875 1.000000
0.482876 0.254281 1.000000
0.739254 0.252686 1.000000
0.995632 0.251092 1.000000
0.000000 0.502106 1.000000
0.247954 0.500511 1.000000
0.503610 0.500000 0.995668
0.758925 0.500000 0.989290
1.000000 0.500000 0.982912
0.010860 0.750000 0.986968
0.266175 0.750000 0.980590
0.521490 0.750000 0.974212
0.776805 0.750000 0.967834
1.000000 0.750000 0.961456
0.028740 1.000000 0.965512
0.284055 1.000000 0.959134
0.539370 1.000000 0.952756
0.794685 1.000000 0.946378
1.000000 1.000000 0.940000
