presets/luts/teal_orange.cube
# teal_orange — bundled look for apply_lut/list_luts
LUT_3D_SIZE 9
0.000000 0.015000 0.070000
0.068189 0.014203 0.066280
0.196378 0.013405 0.062559
0.324567 0.012608 0.058839
0.452756 0.011811 0.055118
0.580945 0.011014 0.051397
0.709134 0.010216 0.047677
0.837323 0.009419 0.043957
0.965512 0.008622 0.040236
0.000000 0.137318 0.057484
0.078917 0.136521 0.053764
0.207106 0.135723 0.050043
0.335295 0.134926 0.046323
0.463484 0.134129 0.042602
0.591673 0.133332 0.038882
0.719862 0.132534 0.035161
0.848051 0.131737 0.031441
0.976240 0.130940 0.027720
0.000000 0.259636 0.044968
0.089645 0.258839 0.041248
0.217834 0.258041 0.037527
0.346023 0.257244 0.033807
0.474212 0.256447 0.030086
0.602401 0.255650 0.026365
0.730590 0.254852 0.022645
0.858779 0.254055 0.018925
0.986968 0.253258 0.015204
0.000000 0.381954 0.032452
0.100373 0.381157 0.028732
0.228562 0.380360 0.025011
0.356751 0.379562 0.021291
0.484940 0.378765 0.017570
0.613129 0.377968 0.013849
0.741318 0.377171 0.010129
0.869507 0.376373 0.006409
0.997696 0.375576 0.002688
0.000000 0.504272 0.019936
0.111101 0.503475 0.016216
0.239290 0.502677 0.012495
0.367479 0.501880 0.008775
0.495668 0.501083 0.005054
0.623857 0.500286 0.001334
0.751705 0.500000 0.000000
0.879363 0.500000 0.000000
1.000000 0.500000 0.000000
0.000000 0.626590 0.007420
0.121829 0.625793 0.003700
0.250015 0.625000 0.000000
0.377673 0.625000 0.000000
0.505330 0.625000 0.000000
0.632988 0.625000 0.000000
0.760645 0.625000 0.000000
0.888302 0.625000 0.000000
1.000000 0.625000 0.000000
0.003640 0.750000 0.000000
0.131298 0.750000 0.000000
0.258955 0.750000 0.000000
0.386613 0.750000 0.000000
0.514270 0.750000 0.000000
0.641927 0.750000 0.000000
0.769585 0.750000 0.000000
0.897242 0.750000 0.000000
1.000000 0.750000 0.000000
0.012580 0.875000 0.000000
0.140237 0.875000 0.000000
0.267895 0.875000 0.000000
0.395552 0.875000 0.000000
0.523210 0.875000 0.000000
0.650868 0.875000 0.000000
0.778525 0.875000 0.000000
0.906183 0.875000 0.000000
1.000000 0.875000 0.000000
0.021520 1.000000 0.000000
0.149177 1.000000 0.000000
0.276835 1.000000 0.000000
0.404492 1.000000 0.000000
0.532150 1.000000 0.000000
0.659807 1.000000 0.000000
0.787465 1.000000 0.000000
0.915122 1.000000 0.000000
1.000000 1.000000 0.000000
0.000000 0.014729 0.193737
0.069272 0.013932 0.190016
0.197461 0.013135 0.186296
0.325650 0.012337 0.182575
0.453839 0.011540 0.178854
0.582028 0.010743 0.175134
0.710217 0.009946 0.171413
0.838406 0.009149 0.167693
0.966595 0.008351 0.163972
0.000000 0.137047 0.181221
0.080000 0.136250 0.177500
0.208189 0.135453 0.173780
0.336378 0.134656 0.170059
0.464567 0.133858 0.166339
0.592756 0.133061 0.162618
0.720945 0.132264 0.158897
0.849134 0.131466 0.155177
0.977323 0.130669 0.151456
0.000000 0.259365 0.168705
0.090728 0.258568 0.164984
0.218917 0.257771 0.161264
0.347106 0.256974 0.157543
0.475295 0.256176 0.153823
0.603484 0.255379 0.150102
0.731673 0.254582 0.146381
0.859862 0.253785 0.142661
0.988051 0.252987 0.138940
0.000000 0.381683 0.156189
0.101456 0.380886 0.152468
0.229645 0.380089 0.148748
0.357834 0.379292 0.145027
0.486023 0.378494 0.141307
0.614212 0.377697 0.137586
0.742401 0.376900 0.133865
0.870590 0.376103 0.130145
0.998779 0.375305 0.126424
0.000000 0.504001 0.143673
0.112184 0.503204 0.139952
0.240373 0.502407 0.136232
0.368562 0.501610 0.132511
0.496751 0.500812 0.128791
0.624940 0.500015 0.125070
0.752607 0.500000 0.121871
0.880265 0.500000 0.118682
1.000000 0.500000 0.115493
0.000000 0.626319 0.131157
0.122912 0.625522 0.127436
0.250918 0.625000 0.123899
0.378575 0.625000 0.120710
0.506232 0.625000 0.117521
0.633890 0.625000 0.114332
0.761548 0.625000 0.111143
0.889205 0.625000 0.107954
1.000000 0.625000 0.104765
0.004542 0.750000 0.119549
0.132200 0.750000 0.116360
0.259858 0.750000 0.113171
0.387515 0.750000 0.109982
0.515173 0.750000 0.106793
0.642830 0.750000 0.103604
0.770487 0.750000 0.100415
0.898145 0.750000 0.097226
1.000000 0.750000 0.094037
0.013482 0.875000 0.108821
0.141140 0.875000 0.105632
0.268797 0.875000 0.102443
0.396455 0.875000 0.099254
0.524112 0.875000 0.096065
0.651770 0.875000 0.092876
0.779427 0.875000 0.089687
0.907085 0.875000 0.086498
1.000000 0.875000 0.083309
0.022422 1.000000 0.098093
0.150080 1.000000 0.094904
0.277737 1.000000 0.091715
0.405395 1.000000 0.088526
0.533052 1.000000 0.085337
0.660710 1.000000 0.082148
0.788367 1.000000 0.078959
0.916025 1.000000 0.075770
1.000000 1.000000 0.072581
0.000000 0.014458 0.317473
0.070355 0.013661 0.313752
0.198544 0.012864 0.310032
0.326733 0.012067 0.306312
0.454922 0.011269 0.302591
0.583111 0.010472 0.298870
0.711300 0.009675 0.295150
0.839489 0.008878 0.291430
0.967678 0.008080 0.287709
0.000000 0.136776 0.304957
0.081083 0.135979 0.301237
0.209272 0.135182 0.297516
0.337461 0.134385 0.293795
0.465650 0.133587 0.290075
0.593839 0.132790 0.286355
0.722028 0.131993 0.282634
0.850217 0.131196 0.278913
0.978406 0.130399 0.275193
0.000000 0.259095 0.292441
0.091811 0.258297 0.288720
0.220000 0.257500 0.285000
0.348189 0.256703 0.281280
0.476378 0.255906 0.277559
0.604567 0.255108 0.273838
0.732756 0.254311 0.270118
0.860945 0.253514 0.266398
0.989134 0.252717 0.262677
0.000000 0.381412 0.279925
0.102539 0.380615 0.276205
0.230728 0.379818 0.272484
0.358917 0.379021 0.268763
0.487106 0.378223 0.265043
0.615295 0.377426 0.261323
0.743484 0.376629 0.257602
0.871673 0.375832 0.253881
0.999862 0.375034 0.250161
0.000000 0.503730 0.267409
0.113267 0.502933 0.263688
0.241456 0.502136 0.259968
0.369645 0.501339 0.256248
0.497834 0.500541 0.252527
0.625853 0.500000 0.248977
0.753510 0.500000 0.245788
0.881167 0.500000 0.242599
1.000000 0.500000 0.239410
0.000000 0.626049 0.254893
0.123995 0.625251 0.251173
0.251820 0.625000 0.247816
0.379478 0.625000 0.244627
0.507135 0.625000 0.241438
0.634792 0.625000 0.238249
0.762450 0.625000 0.235060
0.890108 0.625000 0.231871
1.000000 0.625000 0.228682
0.005445 0.750000 0.243466
0.133103 0.750000 0.240277
0.260760 0.750000 0.237088
0.388418 0.750000 0.233899
0.516075 0.750000 0.230710
0.643733 0.750000 0.227521
0.771390 0.750000 0.224332
0.899047 0.750000 0.221143
1.000000 0.750000 0.217954
0.014385 0.875000 0.232738
0.142042 0.875000 0.229549
0.269700 0.875000 0.226360
0.397357 0.875000 0.223171
0.525015 0.875000 0.219982
0.652672 0.875000 0.216793
0.780330 0.875000 0.213604
0.907987 0.875000 0.210415
1.000000 0.875000 0.207226
0.023325 1.000000 0.222010
0.150982 1.000000 0.218821
0.278640 1.000000 0.215632
0.406297 1.000000 0.212443
0.533955 1.000000 0.209254
0.661612 1.000000 0.206065
0.789270 1.000000 0.202876
0.916928 1.000000 0.199687
1.000000 1.000000 0.196498
0.000000 0.014188 0.441210
0.071438 0.013390 0.437489
0.199627 0.012593 0.433769
0.327816 0.011796 0.430048
0.456005 0.010999 0.426328
0.584194 0.010201 0.422607
0.712383 0.009404 0.418886
0.840572 0.008607 0.415166
0.968761 0.007810 0.411446
0.000000 0.136506 0.428694
0.082166 0.135709 0.424973
0.210355 0.134911 0.421253
0.338544 0.134114 0.417532
0.466733 0.133317 0.413811
0.594922 0.132520 0.410091
0.723111 0.131722 0.406370
0.851300 0.130925 0.402650
0.979489 0.130128 0.398929
0.000000 0.258824 0.416177
0.092894 0.258026 0.412457
0.221083 0.257229 0.408737
0.349272 0.256432 0.405016
0.477461 0.255635 0.401295
0.605650 0.254837 0.397575
0.733839 0.254040 0.393854
0.862028 0.253243 0.390134
0.990217 0.252446 0.386414
0.000000 0.381142 0.403662
0.103622 0.380344 0.399941
0.231811 0.379547 0.396220
0.360000 0.378750 0.392500
0.488189 0.377953 0.388780
0.616378 0.377155 0.385059
0.744567 0.376358 0.381339
0.872756 0.375561 0.377618
1.000000 0.375000 0.374055
0.000000 0.503460 0.391145
0.114350 0.502663 0.387425
0.242539 0.501865 0.383705
0.370728 0.501068 0.379984
0.498917 0.500271 0.376264
0.626755 0.500000 0.372894
0.754413 0.500000 0.369705
0.882070 0.500000 0.366516
1.000000 0.500000 0.363327
0.000000 0.625778 0.378630
0.125065 0.625000 0.374922
0.252723 0.625000 0.371733
0.380380 0.625000 0.368544
0.508038 0.625000 0.365355
0.635695 0.625000 0.362166
0.763352 0.625000 0.358977
0.891010 0.625000 0.355788
1.000000 0.625000 0.352599
0.006347 0.750000 0.367383
0.134005 0.750000 0.364194
0.261663 0.750000 0.361005
0.389320 0.750000 0.357816
0.516977 0.750000 0.354627
0.644635 0.750000 0.351438
0.772293 0.750000 0.348249
0.899950 0.750000 0.345060
1.000000 0.750000 0.341871
0.015287 0.875000 0.356655
0.142945 0.875000 0.353466
0.270602 0.875000 0.350277
0.398260 0.875000 0.347088
0.525918 0.875000 0.343899
0.653575 0.875000 0.340710
0.781232 0.875000 0.337521
0.908890 0.875000 0.334332
1.000000 0.875000 0.331143
0.024227 1.000000 0.345927
0.151885 1.000000 0.342738
0.279542 1.000000 0.339549
0.407200 1.000000 0.336360
0.534857 1.000000 0.333171
0.662515 1.000000 0.329982
0.790172 1.000000 0.326793
0.917830 1.000000 0.323604
1.000000 1.000000 0.320415
0.000000 0.013917 0.564946
0.072521 0.013120 0.561226
0.200710 0.012323 0.557505
0.328899 0.011525 0.553785
0.457088 0.010728 0.550064
0.585277 0.009931 0.546343
0.713466 0.009133 0.542623
0.841655 0.008336 0.538902
0.969844 0.007539 0.535182
0.000000 0.136235 0.552430
0.083249 0.135438 0.548709
0.211438 0.134640 0.544989
0.339627 0.133843 0.541269
0.467816 0.133046 0.537548
0.596005 0.132249 0.533828
0.724194 0.131451 0.530107
0.852383 0.130654 0.526386
0.980572 0.129857 0.522666
0.000000 0.258553 0.539914
0.093977 0.257756 0.536193
0.222166 0.256958 0.532473
0.350355 0.256161 0.528752
0.478544 0.255364 0.525032
0.606733 0.254567 0.521312
0.734922 0.253769 0.517591
0.863111 0.252972 0.513871
0.991300 0.252175 0.510150
0.000000 0.380871 0.527398
0.104705 0.380074 0.523678
0.232894 0.379277 0.519957
0.361083 0.378479 0.516236
0.489272 0.377682 0.512516
0.617461 0.376885 0.508795
0.745650 0.376088 0.505075
0.873839 0.375290 0.501355
1.000000 0.375000 0.497972
0.000000 0.503189 0.514882
0.115433 0.502392 0.511162
0.243622 0.501595 0.507441
0.371811 0.500797 0.503721
0.500000 0.500000 0.500000
0.627657 0.500000 0.496811
0.755315 0.500000 0.493622
0.882973 0.500000 0.490433
1.000000 0.500000 0.487244
0.000000 0.625507 0.502366
0.125968 0.625000 0.498839
0.253625 0.625000 0.495650
0.381283 0.625000 0.492461
0.508940 0.625000 0.489272
0.636598 0.625000 0.486083
0.764255 0.625000 0.482894
0.891912 0.625000 0.479705
1.000000 0.625000 0.476516
0.007250 0.750000 0.491300
0.134908 0.750000 0.488111
0.262565 0.750000 0.484922
0.390223 0.750000 0.481733
0.517880 0.750000 0.478544
0.645537 0.750000 0.475355
0.773195 0.750000 0.472166
0.900853 0.750000 0.468977
1.000000 0.750000 0.465788
0.016190 0.875000 0.480572
0.143847 0.875000 0.477383
0.271505 0.875000 0.474194
0.399162 0.875000 0.471005
0.526820 0.875000 0.467816
0.654478 0.875000 0.464627
0.782135 0.875000 0.461438
0.909793 0.875000 0.458249
1.000000 0.875000 0.455060
0.025130 1.000000 0.469844
0.152787 1.000000 0.466655
0.280445 1.000000 0.463466
0.408102 1.000000 0.460277
0.535760 1.000000 0.457088
0.663417 1.000000 0.453899
0.791075 1.000000 0.450710
0.918732 1.000000 0.447521
1.000000 1.000000 0.444332
0.000000 0.013646 0.688682
0.073604 0.012849 0.684962
0.201793 0.012052 0.681242
0.329982 0.011254 0.677521
0.458171 0.010457 0.673801
0.586360 0.009660 0.670080
0.714549 0.008863 0.666359
0.842738 0.008066 0.662639
0.970927 0.007268 0.658918
0.000000 0.135964 0.676167
0.084332 0.135167 0.672446
0.212521 0.134370 0.668725
0.340710 0.133573 0.665005
0.468899 0.132775 0.661285
0.597088 0.131978 0.657564
0.725277 0.131181 0.653844
0.853466 0.130383 0.650123
0.981655 0.129586 0.646402
0.000000 0.258282 0.663651
0.095060 0.257485 0.659930
0.223249 0.256688 0.656210
0.351438 0.255891 0.652489
0.479627 0.255093 0.648768
0.607816 0.254296 0.645048
0.736005 0.253499 0.641328
0.864194 0.252702 0.637607
0.992383 0.251904 0.633887
0.000000 0.380600 0.651135
0.105788 0.379803 0.647414
0.233977 0.379006 0.643694
0.362166 0.378209 0.639973
0.490355 0.377411 0.636252
0.618544 0.376614 0.632532
0.746733 0.375817 0.628811
0.874922 0.375020 0.625091
1.000000 0.375000 0.621889
0.000000 0.502918 0.638618
0.116516 0.502121 0.634898
0.244705 0.501324 0.631178
0.372894 0.500526 0.627457
0.500903 0.500000 0.623917
0.628560 0.500000 0.620728
0.756217 0.500000 0.617539
0.883875 0.500000 0.614350
1.000000 0.500000 0.611161
0.000000 0.625236 0.626103
0.126870 0.625000 0.622756
0.254528 0.625000 0.619567
0.382185 0.625000 0.616378
0.509842 0.625000 0.613189
0.637500 0.625000 0.610000
0.765157 0.625000 0.606811
0.892815 0.625000 0.603622
1.000000 0.625000 0.600433
0.008152 0.750000 0.615217
0.135810 0.750000 0.612028
0.263468 0.750000 0.608839
0.391125 0.750000 0.605650
0.518783 0.750000 0.602461
0.646440 0.750000 0.599272
0.774097 0.750000 0.596083
0.901755 0.750000 0.592894
1.000000 0.750000 0.589705
0.017092 0.875000 0.604489
0.144750 0.875000 0.601300
0.272407 0.875000 0.598111
0.400065 0.875000 0.594922
0.527722 0.875000 0.591733
0.655380 0.875000 0.588544
0.783037 0.875000 0.585355
0.910695 0.875000 0.582166
1.000000 0.875000 0.578977
0.026032 1.000000 0.593761
0.153690 1.000000 0.590572
0.281347 1.000000 0.587383
0.409005 1.000000 0.584194
0.536663 1.000000 0.581005
0.664320 1.000000 0.577816
0.791978 1.000000 0.574627
0.919635 1.000000 0.571438
1.000000 1.000000 0.568249
0.000000 0.013375 0.812419
0.074687 0.012578 0.808698
0.202876 0.011781 0.804978
0.331065 0.010984 0.801257
0.459254 0.010186 0.797537
0.587443 0.009389 0.793817
0.715632 0.008592 0.790096
0.843821 0.007795 0.786376
0.972010 0.006997 0.782655
0.000000 0.135693 0.799903
0.085415 0.134896 0.796183
0.213604 0.134099 0.792462
0.341793 0.133302 0.788741
0.469982 0.132504 0.785021
0.598171 0.131707 0.781300
0.726360 0.130910 0.777580
0.854549 0.130113 0.773860
0.982738 0.129315 0.770139
0.000000 0.258012 0.787387
0.096143 0.257214 0.783667
0.224332 0.256417 0.779946
0.352521 0.255620 0.776226
0.480710 0.254823 0.772505
0.608899 0.254025 0.768784
0.737088 0.253228 0.765064
0.865277 0.252431 0.761343
0.993466 0.251634 0.757623
0.000000 0.380329 0.774871
0.106871 0.379532 0.771150
0.235060 0.378735 0.767430
0.363249 0.377938 0.763710
0.491438 0.377140 0.759989
0.619627 0.376343 0.756269
0.747816 0.375546 0.752548
0.875838 0.375000 0.748995
1.000000 0.375000 0.745806
0.000000 0.502648 0.762355
0.117599 0.501850 0.758634
0.245788 0.501053 0.754914
0.373977 0.500256 0.751193
0.501805 0.500000 0.747834
0.629463 0.500000 0.744645
0.757120 0.500000 0.741456
0.884777 0.500000 0.738267
1.000000 0.500000 0.735078
0.000115 0.625000 0.749862
0.127773 0.625000 0.746673
0.255430 0.625000 0.743484
0.383088 0.625000 0.740295
0.510745 0.625000 0.737106
0.638402 0.625000 0.733917
0.766060 0.625000 0.730728
0.893717 0.625000 0.727539
1.000000 0.625000 0.724350
0.009055 0.750000 0.739134
0.136713 0.750000 0.735945
0.264370 0.750000 0.732756
0.392028 0.750000 0.729567
0.519685 0.750000 0.726378
0.647343 0.750000 0.723189
0.775000 0.750000 0.720000
0.902658 0.750000 0.716811
1.000000 0.750000 0.713622
0.017995 0.875000 0.728406
0.145652 0.875000 0.725217
0.273310 0.875000 0.722028
0.400967 0.875000 0.718839
0.528625 0.875000 0.715650
0.656282 0.875000 0.712461
0.783940 0.875000 0.709272
0.911597 0.875000 0.706083
1.000000 0.875000 0.702894
0.026935 1.000000 0.717678
0.154592 1.000000 0.714489
0.282250 1.000000 0.711300
0.409907 1.000000 0.708111
0.537565 1.000000 0.704922
0.665223 1.000000 0.701733
0.792880 1.000000 0.698544
0.920538 1.000000 0.695355
1.000000 1.000000 0.692166
0.000000 0.013105 0.936156
0.075770 0.012307 0.932435
0.203959 0.011510 0.928714
0.332148 0.010713 0.924994
0.460337 0.009916 0.921273
0.588526 0.009118 0.917553
0.716715 0.008321 0.913833
0.844904 0.007524 0.910112
0.973093 0.006727 0.906392
0.000000 0.135423 0.923639
0.086498 0.134626 0.919919
0.214687 0.133828 0.916199
0.342876 0.133031 0.912478
0.471065 0.132234 0.908757
0.599254 0.131437 0.905037
0.727443 0.130639 0.901316
0.855632 0.129842 0.897596
0.983821 0.129045 0.893876
0.000000 0.257741 0.911123
0.097226 0.256943 0.907403
0.225415 0.256146 0.903683
0.353604 0.255349 0.899962
0.481793 0.254552 0.896242
0.609982 0.253754 0.892521
0.738171 0.252957 0.888800
0.866360 0.252160 0.885080
0.994549 0.251363 0.881359
0.000000 0.380059 0.898608
0.107954 0.379261 0.894887
0.236143 0.378464 0.891166
0.364332 0.377667 0.887446
0.492521 0.376870 0.883726
0.620710 0.376072 0.880005
0.748899 0.375275 0.876285
0.876740 0.375000 0.872912
1.000000 0.375000 0.869723
0.000000 0.502377 0.886092
0.118682 0.501579 0.882371
0.246871 0.500782 0.878651
0.375050 0.500000 0.874940
0.502707 0.500000 0.871751
0.630365 0.500000 0.868562
0.758023 0.500000 0.865373
0.885680 0.500000 0.862184
1.000000 0.500000 0.858995
0.001017 0.625000 0.873779
0.128675 0.625000 0.870590
0.256333 0.625000 0.867401
0.383990 0.625000 0.864212
0.511648 0.625000 0.861023
0.639305 0.625000 0.857834
0.766962 0.625000 0.854645
0.894620 0.625000 0.851456
1.000000 0.625000 0.848267
0.009957 0.750000 0.863051
0.137615 0.750000 0.859862
0.265273 0.750000 0.856673
0.392930 0.750000 0.853484
0.520587 0.750000 0.850295
0.648245 0.750000 0.847106
0.775902 0.750000 0.843917
0.903560 0.750000 0.840728
1.000000 0.750000 0.837539
0.018897 0.875000 0.852323
0.146555 0.875000 0.849134
0.274212 0.875000 0.845945
0.401870 0.875000 0.842756
0.529528 0.875000 0.839567
0.657185 0.875000 0.836378
0.784842 0.875000 0.833189
0.912500 0.875000 0.830000
1.000000 0.875000 0.826811
0.027837 1.000000 0.841595
0.155495 1.000000 0.838406
0.283152 1.000000 0.835217
0.410810 1.000000 0.832028
0.538467 1.000000 0.828839
0.666125 1.000000 0.825650
0.793782 1.000000 0.822461
0.921440 1.000000 0.819272
1.000000 1.000000 0.816083
0.000000 0.012834 1.000000
0.076853 0.012037 1.000000
0.205042 0.011239 1.000000
0.333231 0.010442 1.000000
0.461420 0.009645 1.000000
0.589609 0.008848 1.000000
0.717798 0.008050 1.000000
0.845987 0.007253 1.000000
0.974176 0.006456 1.000000
0.000000 0.135152 1.000000
0.087581 0.134355 1.000000
0.215770 0.133557 1.000000
0.343959 0.132760 1.000000
0.472148 0.131963 1.000000
0.600337 0.131166 1.000000
0.728526 0.130368 1.000000
0.856715 0.129571 1.000000
0.984904 0.128774 1.000000
0.000000 0.257470 1.000000
0.098309 0.256673 1.000000
0.226498 0.255875 1.000000
0.354687 0.255078 1.000000
0.482876 0.254281 1.000000
0.611065 0.253484 1.000000
0.739254 0.252686 1.000000
0.867443 0.251889 1.000000
0.995632 0.251092 1.000000
0.000000 0.379788 1.000000
0.109037 0.378991 1.000000
0.237226 0.378194 1.000000
0.365415 0.377396 1.000000
0.493604 0.376599 1.000000
0.621793 0.375802 1.000000
0.749982 0.375005 1.000000
0.877642 0.375000 0.996829
1.000000 0.375000 0.993640
0.000000 0.502106 1.000000
0.119765 0.501309 1.000000
0.247954 0.500511 1.000000
0.375953 0.500000 0.998857
0.503610 0.500000 0.995668
0.631267 0.500000 0.992479
0.758925 0.500000 0.989290
0.886583 0.500000 0.986101
1.000000 0.500000 0.982912
0.001920 0.625000 0.997696
0.129578 0.625000 0.994507
0.257235 0.625000 0.991318
0.384893 0.625000 0.988129
0.512550 0.625000 0.984940
0.640208 0.625000 0.981751
0.767865 0.625000 0.978562
0.895522 0.625000 0.975373
1.000000 0.625000 0.972184
0.010860 0.750000 0.986968
0.138518 0.750000 0.983779
0.266175 0.750000 0.980590
0.393833 0.750000 0.977401
0.521490 0.750000 0.974212
0.649147 0.750000 0.971023
0.776805 0.750000 0.967834
0.904462 0.750000 0.964645
1.000000 0.750000 0.961456
0.019800 0.875000 0.976240
0.147457 0.875000 0.973051
0.275115 0.875000 0.969862
0.402772 0.875000 0.966673
0.530430 0.875000 0.963484
0.658088 0.875000 0.960295
0.785745 0.875000 0.957106
0.913403 0.875000 0.953917
1.000000 0.875000 0.950728
0.028740 1.000000 0.965512
0.156397 1.000000 0.962323
0.284055 1.000000 0.959134
0.411712 1.000000 0.955945
0.539370 1.000000 0.952756
0.667027 1.000000 0.949567
0.794685 1.000000 0.946378
0.922342 1.000000 0.943189
1.000000 1.000000 0.940000
