presets/luts/warm.cube
# warm — bundled look for apply_lut/list_luts
LUT_3D_SIZE 17
0.025000 0.000000 0.000000
0.090625 0.000000 0.000000
0.156250 0.000000 0.000000
0.221875 0.000000 0.000000
0.287500 0.000000 0.000000
0.353125 0.000000 0.000000
0.418750 0.000000 0.000000
0.484375 0.000000 0.000000
0.550000 0.000000 0.000000
0.615625 0.000000 0.000000
0.681250 0.000000 0.000000
0.746875 0.000000 0.000000
0.812500 0.000000 0.000000
0.878125 0.000000 0.000000
0.943750 0.000000 0.000000
1.000000 0.000000 0.000000
1.000000 0.000000 0.000000
0.025000 0.062812 0.000000
0.090625 0.062812 0.000000
0.156250 0.062812 0.000000
0.221875 0.062812 0.000000
0.287500 0.062812 0.000000
0.353125 0.062812 0.000000
0.418750 0.062812 0.000000
0.484375 0.062812 0.000000
0.550000 0.062812 0.000000
0.615625 0.062812 0.000000
0.681250 0.062812 0.000000
0.746875 0.062812 0.000000
0.812500 0.062812 0.000000
0.878125 0.062812 0.000000
0.943750 0.062812 0.000000
1.000000 0.062812 0.000000
1.000000 0.062812 0.000000
0.025000 0.125625 0.000000
0.090625 0.125625 0.000000
0.156250 0.125625 0.000000
0.221875 0.125625 0.000000
0.287500 0.125625 0.000000
0.353125 0.125625 0.000000
0.418750 0.125625 0.000000
0.484375 0.125625 0.000000
0.550000 0.125625 0.000000
0.615625 0.125625 0.000000
0.681250 0.125625 0.000000
0.746875 0.125625 0.000000
0.812500 0.125625 0.000000
0.878125 0.125625 0.000000
0.943750 0.125625 0.000000
1.000000 0.125625 0.000000
1.000000 0.125625 0.000000
0.025000 0.188437 0.000000
0.090625 0.188437 0.000000
0.156250 0.188437 0.000000
0.221875 0.188437 0.000000
0.287500 0.188437 0.000000
0.353125 0.188437 0.000000
0.418750 0.188437 0.000000
0.484375 0.188437 0.000000
0.550000 0.188437 0.000000
0.615625 0.188437 0.000000
0.681250 0.188437 0.000000
0.746875 0.188437 0.000000
0.812500 0.188437 0.000000
0.878125 0.188437 0.000000
0.943750 0.188437 0.000000
1.000000 0.188437 0.000000
1.000000 0.188437 0.000000
0.025000 0.251250 0.000000
0.090625 0.251250 0.000000
0.156250 0.251250 0.000000
0.221875 0.251250 0.000000
0.287500 0.251250 0.000000
0.353125 0.251250 0.000000
0.418750 0.251250 0.000000
0.484375 0.251250 0.000000
0.550000 0.251250 0.000000
0.615625 0.251250 0.000000
0.681250 0.251250 0.000000
0.746875 0.251250 0.000000
0.812500 0.251250 0.000000
0.878125 0.251250 0.000000
0.943750 0.251250 0.000000
1.000000 0.251250 0.000000
1.000000 0.251250 0.000000
0.025000 0.314062 0.000000
0.090625 0.314062 0.000000
0.156250 0.314062 0.000000
0.221875 0.314062 0.000000
0.287500 0.314062 0.000000
0.353125 0.314062 0.000000
0.418750 0.314062 0.000000
0.484375 0.314062 0.000000
0.550000 0.314062 0.000000
0.615625 0.314062 0.000000
0.681250 0.314062 0.000000
0.746875 0.314062 0.000000
0.812500 0.314062 0.000000
0.878125 0.314062 0.000000
0.943750 0.314062 0.000000
1.000000 0.314062 0.000000
1.000000 0.314062 0.000000
0.025000 0.376875 0.000000
0.090625 0.376875 0.000000
0.156250 0.376875 0.000000
0.221875 0.376875 0.000000
0.287500 0.376875 0.000000
0.353125 0.376875 0.000000
0.418750 0.376875 0.000000
0.484375 0.376875 0.000000
0.550000 0.376875 0.000000
0.615625 0.376875 0.000000
0.681250 0.376875 0.000000
0.746875 0.376875 0.000000
0.812500 0.376875 0.000000
0.878125 0.376875 0.000000
0.943750 0.376875 0.000000
1.000000 0.376875 0.000000
1.000000 0.376875 0.000000
0.025000 0.439687 0.000000
0.090625 0.439687 0.000000
0.156250 0.439687 0.000000
0.221875 0.439687 0.000000
0.287500 0.439687 0.000000
0.353125 0.439687 0.000000
0.418750 0.439687 0.000000
0.484375 0.439687 0.000000
0.550000 0.439687 0.000000
0.615625 0.439687 0.000000
0.681250 0.439687 0.000000
0.746875 0.439687 0.000000
0.812500 0.439687 0.000000
0.878125 0.439687 0.000000
0.943750 0.439687 0.000000
1.000000 0.439687 0.000000
1.000000 0.439687 0.000000
0.025000 0.502500 0.000000
0.090625 0.502500 0.000000
0.156250 0.502500 0.000000
0.221875 0.502500 0.000000
0.287500 0.502500 0.000000
0.353125 0.502500 0.000000
0.418750 0.502500 0.000000
0.484375 0.502500 0.000000
0.550000 0.502500 0.000000
0.615625 0.502500 0.000000
0.681250 0.502500 0.000000
0.746875 0.502500 0.000000
0.812500 0.502500 0.000000
0.878125 0.502500 0.000000
0.943750 0.502500 0.000000
1.000000 0.502500 0.000000
1.000000 0.502500 0.000000
0.025000 0.565312 0.000000
0.090625 0.565312 0.000000
0.156250 0.565312 0.000000
0.221875 0.565312 0.000000
0.287500 0.565312 0.000000
0.353125 0.565312 0.000000
0.418750 0.565312 0.000000
0.484375 0.565312 0.000000
0.550000 0.565312 0.000000
0.615625 0.565312 0.000000
0.681250 0.565312 0.000000
0.746875 0.565312 0.000000
0.812500 0.565312 0.000000
0.878125 0.565312 0.000000
0.943750 0.565312 0.000000
1.000000 0.565312 0.000000
1.000000 0.565312 0.000000
0.025000 0.628125 0.000000
0.090625 0.628125 0.000000
0.156250 0.628125 0.000000
0.221875 0.628125 0.000000
0.287500 0.628125 0.000000
0.353125 0.628125 0.000000
0.418750 0.628125 0.000000
0.484375 0.628125 0.000000
0.550000 0.628125 0.000000
0.615625 0.628125 0.000000
0.681250 0.628125 0.000000
0.746875 0.628125 0.000000
0.812500 0.628125 0.000000
0.878125 0.628125 0.000000
0.943750 0.628125 0.000000
1.000000 0.628125 0.000000
1.000000 0.628125 0.000000
0.025000 0.690937 0.000000
0.090625 0.690937 0.000000
0.156250 0.690937 0.000000
0.221875 0.690937 0.000000
0.287500 0.690937 0.000000
0.353125 0.690937 0.000000
0.418750 0.690937 0.000000
0.484375 0.690937 0.000000
0.550000 0.690937 0.000000
0.615625 0.690937 0.000000
0.681250 0.690937 0.000000
0.746875 0.690937 0.000000
0.812500 0.690937 0.000000
0.878125 0.690937 0.000000
0.943750 0.690937 0.000000
1.000000 0.690937 0.000000
1.000000 0.690937 0.000000
0.025000 0.753750 0.000000
0.090625 0.753750 0.000000
0.156250 0.753750 0.000000
0.221875 0.753750 0.000000
0.287500 0.753750 0.000000
0.353125 0.753750 0.000000
0.418750 0.753750 0.000000
0.484375 0.753750 0.000000
0.550000 0.753750 0.000000
0.615625 0.753750 0.000000
0.681250 0.753750 0.000000
0.746875 0.753750 0.000000
0.812500 0.753750 0.000000
0.878125 0.753750 0.000000
0.943750 0.753750 0.000000
1.000000 0.753750 0.000000
1.000000 0.753750 0.000000
0.025000 0.816562 0.000000
0.090625 0.816562 0.000000
0.156250 0.816562 0.000000
0.221875 0.816562 0.000000
0.287500 0.816562 0.000000
0.353125 0.816562 0.000000
0.418750 0.816562 0.000000
0.484375 0.816562 0.000000
0.550000 0.816562 0.000000
0.615625 0.816562 0.000000
0.681250 0.816562 0.000000
0.746875 0.816562 0.000000
0.812500 0.816562 0.000000
0.878125 0.816562 0.000000
0.943750 0.816562 0.000000
1.000000 0.816562 0.000000
1.000000 0.816562 0.000000
0.025000 0.879375 0.000000
0.090625 0.879375 0.000000
0.156250 0.879375 0.000000
0.221875 0.879375 0.000000
0.287500 0.879375 0.000000
0.353125 0.879375 0.000000
0.418750 0.879375 0.000000
0.484375 0.879375 0.000000
0.550000 0.879375 0.000000
0.615625 0.879375 0.000000
0.681250 0.879375 0.000000
0.746875 0.879375 0.000000
0.812500 0.879375 0.000000
0.878125 0.879375 0.000000
0.943750 0.879375 0.000000
1.000000 0.879375 0.000000
1.000000 0.879375 0.000000
0.025000 0.942187 0.000000
0.090625 0.942187 0.000000
0.156250 0.942187 0.000000
0.221875 0.942187 0.000000
0.287500 0.942187 0.000000
0.353125 0.942187 0.000000
0.418750 0.942187 0.000000
0.484375 0.942187 0.000000
0.550000 0.942187 0.000000
0.615625 0.942187 0.000000
0.681250 0.942187 0.000000
0.746875 0.942187 0.000000
0.812500 0.942187 0.000000
0.878125 0.942187 0.000000
0.943750 0.942187 0.000000
1.000000 0.942187 0.000000
1.000000 0.942187 0.000000
0.025000 1.000000 0.000000
0.090625 1.000000 0.000000
0.156250 1.000000 0.000000
0.221875 1.000000 0.000000
0.287500 1.000000 0.000000
0.353125 1.000000 0.000000
0.418750 1.000000 0.000000
0.484375 1.000000 0.000000
0.550000 1.000000 0.000000
0.615625 1.000000 0.000000
0.681250 1.000000 0.000000
0.746875 1.000000 0.000000
0.812500 1.000000 0.000000
0.878125 1.000000 0.000000
0.943750 1.000000 0.000000
1.000000 1.000000 0.000000
1.000000 1.000000 0.000000
0.025000 0.000000 0.058125
0.090625 0.000000 0.058125
0.156250 0.000000 0.058125
0.221875 0.000000 0.058125
0.287500 0.000000 0.058125
0.353125 0.000000 0.058125
0.418750 0.000000 0.058125
0.484375 0.000000 0.058125
0.550000 0.000000 0.058125
0.615625 0.000000 0.058125
0.681250 0.000000 0.058125
0.746875 0.000000 0.058125
0.812500 0.000000 0.058125
0.878125 0.000000 0.058125
0.943750 0.000000 0.058125
1.000000 0.000000 0.058125
1.000000 0.000000 0.058125
0.025000 0.062812 0.058125
0.090625 0.062812 0.058125
0.156250 0.062812 0.058125
0.221875 0.062812 0.058125
0.287500 0.062812 0.058125
0.353125 0.062812 0.058125
0.418750 0.062812 0.058125
0.484375 0.062812 0.058125
0.550000 0.062812 0.058125
0.615625 0.062812 0.058125
0.681250 0.062812 0.058125
0.746875 0.062812 0.058125
0.812500 0.062812 0.058125
0.878125 0.062812 0.058125
0.943750 0.062812 0.058125
1.000000 0.062812 0.058125
1.000000 0.062812 0.058125
0.025000 0.125625 0.058125
0.090625 0.125625 0.058125
0.156250 0.125625 0.058125
0.221875 0.125625 0.058125
0.287500 0.125625 0.058125
0.353125 0.125625 0.058125
0.418750 0.125625 0.058125
0.484375 0.125625 0.058125
0.550000 0.125625 0.058125
0.615625 0.125625 0.058125
0.681250 0.125625 0.058125
0.746875 0.125625 0.058125
0.812500 0.125625 0.058125
0.878125 0.125625 0.058125
0.943750 0.125625 0.058125
1.000000 0.125625 0.058125
1.000000 0.125625 0.058125
0.025000 0.188437 0.058125
0.090625 0.188437 0.058125
0.156250 0.188437 0.058125
0.221875 0.188437 0.058125
0.287500 0.188437 0.058125
0.353125 0.188437 0.058125
0.418750 0.188437 0.058125
0.484375 0.188437 0.058125
0.550000 0.188437 0.058125
0.615625 0.188437 0.058125
0.681250 0.188437 0.058125
0.746875 0.188437 0.058125
0.812500 0.188437 0.058125
0.878125 0.188437 0.058125
0.943750 0.188437 0.058125
1.000000 0.188437 0.058125
1.000000 0.188437 0.058125
0.025000 0.251250 0.058125
0.090625 0.251250 0.058125
0.156250 0.251250 0.058125
0.221875 0.251250 0.058125
0.287500 0.251250 0.058125
0.353125 0.251250 0.058125
0.418750 0.251250 0.058125
0.484375 0.251250 0.058125
0.550000 0.251250 0.058125
0.615625 0.251250 0.058125
0.681250 0.251250 0.058125
0.746875 0.251250 0.058125
0.812500 0.251250 0.058125
0.878125 0.251250 0.058125
0.943750 0.251250 0.058125
1.000000 0.251250 0.058125
1.000000 0.251250 0.058125
0.025000 0.314062 0.058125
0.090625 0.314062 0.058125
0.156250 0.314062 0.058125
0.221875 0.314062 0.058125
0.287500 0.314062 0.058125
0.353125 0.314062 0.058125
0.418750 0.314062 0.058125
0.484375 0.314062 0.058125
0.550000 0.314062 0.058125
0.615625 0.314062 0.058125
0.681250 0.314062 0.058125
0.746875 0.314062 0.058125
0.812500 0.314062 0.058125
0.878125 0.314062 0.058125
0.943750 0.314062 0.058125
1.000000 0.314062 0.058125
1.000000 0.314062 0.058125
0.025000 0.376875 0.058125
0.090625 0.376875 0.058125
0.156250 0.376875 0.058125
0.221875 0.376875 0.058125
0.287500 0.376875 0.058125
0.353125 0.376875 0.058125
0.418750 0.376875 0.058125
0.484375 0.376875 0.058125
0.550000 0.376875 0.058125
0.615625 0.376875 0.058125
0.681250 0.376875 0.058125
0.746875 0.376875 0.058125
0.812500 0.376875 0.058125
0.878125 0.376875 0.058125
0.943750 0.376875 0.058125
1.000000 0.376875 0.058125
1.000000 0.376875 0.058125
0.025000 0.439687 0.058125
0.090625 0.439687 0.058125
0.156250 0.439687 0.058125
0.221875 0.439687 0.058125
0.287500 0.439687 0.058125
0.353125 0.439687 0.058125
0.418750 0.439687 0.058125
0.484375 0.439687 0.058125
0.550000 0.439687 0.058125
0.615625 0.439687 0.058125
0.681250 0.439687 0.058125
0.746875 0.439687 0.058125
0.812500 0.439687 0.058125
0.878125 0.439687 0.058125
0.943750 0.439687 0.058125
1.000000 0.439687 0.058125
1.000000 0.439687 0.058125
0.025000 0.502500 0.058125
0.090625 0.502500 0.058125
0.156250 0.502500 0.058125
0.221875 0.502500 0.058125
0.287500 0.502500 0.058125
0.353125 0.502500 0.058125
0.418750 0.502500 0.058125
0.484375 0.502500 0.058125
0.550000 0.502500 0.058125
0.615625 0.502500 0.058125
0.681250 0.502500 0.058125
0.746875 0.502500 0.058125
0.812500 0.502500 0.058125
0.878125 0.502500 0.058125
0.943750 0.502500 0.058125
1.000000 0.502500 0.058125
1.000000 0.502500 0.058125
0.025000 0.565312 0.058125
0.090625 0.565312 0.058125
0.156250 0.565312 0.058125
0.221875 0.565312 0.058125
0.287500 0.565312 0.058125
0.353125 0.565312 0.058125
0.418750 0.565312 0.058125
0.484375 0.565312 0.058125
0.550000 0.565312 0.058125
0.615625 0.565312 0.058125
0.681250 0.565312 0.058125
0.746875 0.565312 0.058125
0.812500 0.565312 0.058125
0.878125 0.565312 0.058125
0.943750 0.565312 0.058125
1.000000 0.565312 0.058125
1.000000 0.565312 0.058125
0.025000 0.628125 0.058125
0.090625 0.628125 0.058125
0.156250 0.628125 0.058125
0.221875 0.628125 0.058125
0.287500 0.628125 0.058125
0.353125 0.628125 0.058125
0.418750 0.628125 0.058125
0.484375 0.628125 0.058125
0.550000 0.628125 0.058125
0.615625 0.628125 0.058125
0.681250 0.628125 0.058125
0.746875 0.628125 0.058125
0.812500 0.628125 0.058125
0.878125 0.628125 0.058125
0.943750 0.628125 0.058125
1.000000 0.628125 0.058125
1.000000 0.628125 0.058125
0.025000 0.690937 0.058125
0.090625 0.690937 0.058125
0.156250 0.690937 0.058125
0.221875 0.690937 0.058125
0.287500 0.690937 0.058125
0.353125 0.690937 0.058125
0.418750 0.690937 0.058125
0.484375 0.690937 0.058125
0.550000 0.690937 0.058125
0.615625 0.690937 0.058125
0.681250 0.690937 0.058125
0.746875 0.690937 0.058125
0.812500 0.690937 0.058125
0.878125 0.690937 0.058125
0.943750 0.690937 0.058125
1.000000 0.690937 0.058125
1.000000 0.690937 0.058125
0.025000 0.753750 0.058125
0.090625 0.753750 0.058125
0.156250 0.753750 0.058125
0.221875 0.753750 0.058125
0.287500 0.753750 0.058125
0.353125 0.753750 0.058125
0.418750 0.753750 0.058125
0.484375 0.753750 0.058125
0.550000 0.753750 0.058125
0.615625 0.753750 0.058125
0.681250 0.753750 0.058125
0.746875 0.753750 0.058125
0.812500 0.753750 0.058125
0.878125 0.753750 0.058125
0.943750 0.753750 0.058125
1.000000 0.753750 0.058125
1.000000 0.753750 0.058125
0.025000 0.816562 0.058125
0.090625 0.816562 0.058125
0.156250 0.816562 0.058125
0.221875 0.816562 0.058125
0.287500 0.816562 0.058125
0.353125 0.816562 0.058125
0.418750 0.816562 0.058125
0.484375 0.816562 0.058125
0.550000 0.816562 0.058125
0.615625 0.816562 0.058125
0.681250 0.816562 0.058125
0.746875 0.816562 0.058125
0.812500 0.816562 0.058125
0.878125 0.816562 0.058125
0.943750 0.816562 0.058125
1.000000 0.816562 0.058125
1.000000 0.816562 0.058125
0.025000 0.879375 0.058125
0.090625 0.879375 0.058125
0.156250 0.879375 0.058125
0.221875 0.879375 0.058125
0.287500 0.879375 0.058125
0.353125 0.879375 0.058125
0.418750 0.879375 0.058125
0.484375 0.879375 0.058125
0.550000 0.879375 0.058125
0.615625 0.879375 0.058125
0.681250 0.879375 0.058125
0.746875 0.879375 0.058125
0.812500 0.879375 0.058125
0.878125 0.879375 0.058125
0.943750 0.879375 0.058125
1.000000 0.879375 0.058125
1.000000 0.879375 0.058125
0.025000 0.942187 0.058125
0.090625 0.942187 0.058125
0.156250 0.942187 0.058125
0.221875 0.942187 0.058125
0.287500 0.942187 0.058125
0.353125 0.942187 0.058125
0.418750 0.942187 0.058125
0.484375 0.942187 0.058125
0.550000 0.942187 0.058125
0.615625 0.942187 0.058125
0.681250 0.942187 0.058125
0.746875 0.942187 0.058125
0.812500 0.942187 0.058125
0.878125 0.942187 0.058125
0.943750 0.942187 0.058125
1.000000 0.942187 0.058125
1.000000 0.942187 0.058125
0.025000 1.000000 0.058125
0.090625 1.000000 0.058125
0.156250 1.000000 0.058125
0.221875 1.000000 0.058125
0.287500 1.000000 0.058125
0.353125 1.000000 0.058125
0.418750 1.000000 0.058125
0.484375 1.000000 0.058125
0.550000 1.000000 0.058125
0.615625 1.000000 0.058125
0.681250 1.000000 0.058125
0.746875 1.000000 0.058125
0.812500 1.000000 0.058125
0.878125 1.000000 0.058125
0.943750 1.000000 0.058125
1.000000 1.000000 0.058125
1.000000 1.000000 0.058125
0.025000 0.000000 0.116250
0.090625 0.000000 0.116250
0.156250 0.000000 0.116250
0.221875 0.000000 0.116250
0.287500 0.000000 0.116250
0.353125 0.000000 0.116250
0.418750 0.000000 0.116250
0.484375 0.000000 0.116250
0.550000 0.000000 0.116250
0.615625 0.000000 0.116250
0.681250 0.000000 0.116250
0.746875 0.000000 0.116250
0.812500 0.000000 0.116250
0.878125 0.000000 0.116250
0.943750 0.000000 0.116250
1.000000 0.000000 0.116250
1.000000 0.000000 0.116250
0.025000 0.062812 0.116250
0.090625 0.062812 0.116250
0.156250 0.062812 0.116250
0.221875 0.062812 0.116250
0.287500 0.062812 0.116250
0.353125 0.062812 0.116250
0.418750 0.062812 0.116250
0.484375 0.062812 0.116250
0.550000 0.062812 0.116250
0.615625 0.062812 0.116250
0.681250 0.062812 0.116250
0.746875 0.062812 0.116250
0.812500 0.062812 0.116250
0.878125 0.062812 0.116250
0.943750 0.062812 0.116250
1.000000 0.062812 0.116250
1.000000 0.062812 0.116250
0.025000 0.125625 0.116250
0.090625 0.125625 0.116250
0.156250 0.125625 0.116250
0.221875 0.125625 0.116250
0.287500 0.125625 0.116250
0.353125 0.125625 0.116250
0.418750 0.125625 0.116250
0.484375 0.125625 0.116250
0.550000 0.125625 0.116250
0.615625 0.125625 0.116250
0.681250 0.125625 0.116250
0.746875 0.125625 0.116250
0.812500 0.125625 0.116250
0.878125 0.125625 0.116250
0.943750 0.125625 0.116250
1.000000 0.125625 0.116250
1.000000 0.125625 0.116250
0.025000 0.188437 0.116250
0.090625 0.188437 0.116250
0.156250 0.188437 0.116250
0.221875 0.188437 0.116250
0.287500 0.188437 0.116250
0.353125 0.188437 0.116250
0.418750 0.188437 0.116250
0.484375 0.188437 0.116250
0.550000 0.188437 0.116250
0.615625 0.188437 0.116250
0.681250 0.188437 0.116250
0.746875 0.188437 0.116250
0.812500 0.188437 0.116250
0.878125 0.188437 0.116250
0.943750 0.188437 0.116250
1.000000 0.188437 0.116250
1.000000 0.188437 0.116250
0.025000 0.251250 0.116250
0.090625 0.251250 0.116250
0.156250 0.251250 0.116250
0.221875 0.251250 0.116250
0.287500 0.251250 0.116250
0.353125 0.251250 0.116250
0.418750 0.251250 0.116250
0.484375 0.251250 0.116250
0.550000 0.251250 0.116250
0.615625 0.251250 0.116250
0.681250 0.251250 0.116250
0.746875 0.251250 0.116250
0.812500 0.251250 0.116250
0.878125 0.251250 0.116250
0.943750 0.251250 0.116250
1.000000 0.251250 0.116250
1.000000 0.251250 0.116250
0.025000 0.314062 0.116250
0.090625 0.314062 0.116250
0.156250 0.314062 0.116250
0.221875 0.314062 0.116250
0.287500 0.314062 0.116250
0.353125 0.314062 0.116250
0.418750 0.314062 0.116250
0.484375 0.314062 0.116250
0.550000 0.314062 0.116250
0.615625 0.314062 0.116250
0.681250 0.314062 0.116250
0.746875 0.314062 0.116250
0.812500 0.314062 0.116250
0.878125 0.314062 0.116250
0.943750 0.314062 0.116250
1.000000 0.314062 0.116250
1.000000 0.314062 0.116250
0.025000 0.376875 0.116250
0.090625 0.376875 0.116250
0.156250 0.376875 0.116250
0.221875 0.376875 0.116250
0.287500 0.376875 0.116250
0.353125 0.376875 0.116250
0.418750 0.376875 0.116250
0.484375 0.376875 0.116250
0.550000 0.376875 0.116250
0.615625 0.376875 0.116250
0.681250 0.376875 0.116250
0.746875 0.376875 0.116250
0.812500 0.376875 0.116250
0.878125 0.376875 0.116250
0.943750 0.376875 0.116250
1.000000 0.376875 0.116250
1.000000 0.376875 0.116250
0.025000 0.439687 0.116250
0.090625 0.439687 0.116250
0.156250 0.439687 0.116250
0.221875 0.439687 0.116250
0.287500 0.439687 0.116250
0.353125 0.439687 0.116250
0.418750 0.439687 0.116250
0.484375 0.439687 0.116250
0.550000 0.439687 0.116250
0.615625 0.439687 0.116250
0.681250 0.439687 0.116250
0.746875 0.439687 0.116250
0.812500 0.439687 0.116250
0.878125 0.439687 0.116250
0.943750 0.439687 0.116250
1.000000 0.439687 0.116250
1.000000 0.439687 0.116250
0.025000 0.502500 0.116250
0.090625 0.502500 0.116250
0.156250 0.502500 0.116250
0.221875 0.502500 0.116250
0.287500 0.502500 0.116250
0.353125 0.502500 0.116250
0.418750 0.502500 0.116250
0.484375 0.502500 0.116250
0.550000 0.502500 0.116250
0.615625 0.502500 0.116250
0.681250 0.502500 0.116250
0.746875 0.502500 0.116250
0.812500 0.502500 0.116250
0.878125 0.502500 0.116250
0.943750 0.502500 0.116250
1.000000 0.502500 0.116250
1.000000 0.502500 0.116250
0.025000 0.565312 0.116250
0.090625 0.565312 0.116250
0.156250 0.565312 0.116250
0.221875 0.565312 0.116250
0.287500 0.565312 0.116250
0.353125 0.565312 0.116250
0.418750 0.565312 0.116250
0.484375 0.565312 0.116250
0.550000 0.565312 0.116250
0.615625 0.565312 0.116250
0.681250 0.565312 0.116250
0.746875 0.565312 0.116250
0.812500 0.565312 0.116250
0.878125 0.565312 0.116250
0.943750 0.565312 0.116250
1.000000 0.565312 0.116250
1.000000 0.565312 0.116250
0.025000 0.628125 0.116250
0.090625 0.628125 0.116250
0.156250 0.628125 0.116250
0.221875 0.628125 0.116250
0.287500 0.628125 0.116250
0.353125 0.628125 0.116250
0.418750 0.628125 0.116250
0.484375 0.628125 0.116250
0.550000 0.628125 0.116250
0.615625 0.628125 0.116250
0.681250 0.628125 0.116250
0.746875 0.628125 0.116250
0.812500 0.628125 0.116250
0.878125 0.628125 0.116250
0.943750 0.628125 0.116250
1.000000 0.628125 0.116250
1.000000 0.628125 0.116250
0.025000 0.690937 0.116250
0.090625 0.690937 0.116250
0.156250 0.690937 0.116250
0.221875 0.690937 0.116250
0.287500 0.690937 0.116250
0.353125 0.690937 0.116250
0.418750 0.690937 0.116250
0.484375 0.690937 0.116250
0.550000 0.690937 0.116250
0.615625 0.690937 0.116250
0.681250 0.690937 0.116250
0.746875 0.690937 0.116250
0.812500 0.690937 0.116250
0.878125 0.690937 0.116250
0.943750 0.690937 0.116250
1.000000 0.690937 0.116250
1.000000 0.690937 0.116250
0.025000 0.753750 0.116250
0.090625 0.753750 0.116250
0.156250 0.753750 0.116250
0.221875 0.753750 0.116250
0.287500 0.753750 0.116250
0.353125 0.753750 0.116250
0.418750 0.753750 0.116250
0.484375 0.753750 0.116250
0.550000 0.753750 0.116250
0.615625 0.753750 0.116250
0.681250 0.753750 0.116250
0.746875 0.753750 0.116250
0.812500 0.753750 0.116250
0.878125 0.753750 0.116250
0.943750 0.753750 0.116250
1.000000 0.753750 0.116250
1.000000 0.753750 0.116250
0.025000 0.816562 0.116250
0.090625 0.816562 0.116250
0.156250 0.816562 0.116250
0.221875 0.816562 0.116250
0.287500 0.816562 0.116250
0.353125 0.816562 0.116250
0.418750 0.816562 0.116250
0.484375 0.816562 0.116250
0.550000 0.816562 0.116250
0.615625 0.816562 0.116250
0.681250 0.816562 0.116250
0.746875 0.816562 0.116250
0.812500 0.816562 0.116250
0.878125 0.816562 0.116250
0.943750 0.816562 0.116250
1.000000 0.816562 0.116250
1.000000 0.816562 0.116250
0.025000 0.879375 0.116250
0.090625 0.879375 0.116250
0.156250 0.879375 0.116250
0.221875 0.879375 0.116250
0.287500 0.879375 0.116250
0.353125 0.879375 0.116250
0.418750 0.879375 0.116250
0.484375 0.879375 0.116250
0.550000 0.879375 0.116250
0.615625 0.879375 0.116250
0.681250 0.879375 0.116250
0.746875 0.879375 0.116250
0.812500 0.879375 0.116250
0.878125 0.879375 0.116250
0.943750 0.879375 0.116250
1.000000 0.879375 0.116250
1.000000 0.879375 0.116250
0.025000 0.942187 0.116250
0.090625 0.942187 0.116250
0.156250 0.942187 0.116250
0.221875 0.942187 0.116250
0.287500 0.942187 0.116250
0.353125 0.942187 0.116250
0.418750 0.942187 0.116250
0.484375 0.942187 0.116250
0.550000 0.942187 0.116250
0.615625 0.942187 0.116250
0.681250 0.942187 0.116250
0.746875 0.942187 0.116250
0.812500 0.942187 0.116250
0.878125 0.942187 0.116250
0.943750 0.942187 0.116250
1.000000 0.942187 0.116250
1.000000 0.942187 0.116250
0.025000 1.000000 0.116250
0.090625 1.000000 0.116250
0.156250 1.000000 0.116250
0.221875 1.000000 0.116250
0.287500 1.000000 0.116250
0.353125 1.000000 0.116250
0.418750 1.000000 0.116250
0.484375 1.000000 0.116250
0.550000 1.000000 0.116250
0.615625 1.000000 0.116250
0.681250 1.000000 0.116250
0.746875 1.000000 0.116250
0.812500 1.000000 0.116250
0.878125 1.000000 0.116250
0.943750 1.000000 0.116250
1.000000 1.000000 0.116250
1.000000 1.000000 0.116250
0.025000 0.000000 0.174375
0.090625 0.000000 0.174375
0.156250 0.000000 0.174375
0.221875 0.000000 0.174375
0.287500 0.000000 0.174375
0.353125 0.000000 0.174375
0.418750 0.000000 0.174375
0.484375 0.000000 0.174375
0.550000 0.000000 0.174375
0.615625 0.000000 0.174375
0.681250 0.000000 0.174375
0.746875 0.000000 0.174375
0.812500 0.000000 0.174375
0.878125 0.000000 0.174375
0.943750 0.000000 0.174375
1.000000 0.000000 0.174375
1.000000 0.000000 0.174375
0.025000 0.062812 0.174375
0.090625 0.062812 0.174375
