presets/luts/warm.cube
# warm — bundled look for apply_lut/list_luts
LUT_3D_SIZE 5
0.025000 0.000000 0.000000
0.287500 0.000000 0.000000
0.550000 0.000000 0.000000
0.812500 0.000000 0.000000
1.000000 0.000000 0.000000
0.025000 0.251250 0.000000
0.287500 0.251250 0.000000
0.550000 0.251250 0.000000
0.812500 0.251250 0.000000
1.000000 0.251250 0.000000
0.025000 0.502500 0.000000
0.287500 0.502500 0.000000
0.550000 0.502500 0.000000
0.812500 0.502500 0.000000
1.000000 0.502500 0.000000
0.025000 0.753750 0.000000
0.287500 0.753750 0.000000
0.550000 0.753750 0.000000
0.812500 0.753750 0.000000
1.000000 0.753750 0.000000
0.025000 1.000000 0.000000
0.287500 1.000000 0.000000
0.550000 1.000000 0.000000
0.812500 1.000000 0.000000
1.000000 1.000000 0.000000
0.025000 0.000000 0.232500
0.287500 0.000000 0.232500
0.550000 0.000000 0.232500
0.812500 0.000000 0.232500
1.000000 0.000000 0.232500
0.025000 0.251250 0.232500
0.287500 0.251250 0.232500
0.550000 0.251250 0.232500
0.812500 0.251250 0.232500
1.000000 0.251250 0.232500
0.025000 0.502500 0.232500
0.287500 0.502500 0.232500
0.550000 0.502500 0.232500
0.812500 0.502500 0.232500
1.000000 0.502500 0.232500
0.025000 0.753750 0.232500
0.287500 0.753750 0.232500
0.550000 0.753750 0.232500
0.812500 0.753750 0.232500
1.000000 0.753750 0.232500
0.025000 1.000000 0.232500
0.287500 1.000000 0.232500
0.550000 1.000000 0.232500
0.812500 1.000000 0.232500
1.000000 1.000000 0.232500
0.025000 0.000000 0.465000
0.287500 0.000000 0.465000
0.550000 0.000000 0.465000
0.812500 0.000000 0.465000
1.000000 0.000000 0.465000
0.025000 0.251250 0.465000
0.287500 0.251250 0.465000
0.550000 0.251250 0.465000
0.812500 0.251250 0.465000
1.000000 0.251250 0.465000
0.025000 0.502500 0.465000
0.287500 0.502500 0.465000
0.550000 0.502500 0.465000
0.812500 0.502500 0.465000
1.000000 0.502500 0.465000
0.025000 0.753750 0.465000
0.287500 0.753750 0.465000
0.550000 0.753750 0.465000
0.812500 0.753750 0.465000
1.000000 0.753750 0.465000
0.025000 1.000000 0.465000
0.287500 1.000000 0.465000
0.550000 1.000000 0.465000
0.812500 1.000000 0.465000
1.000000 1.000000 0.465000
0.025000 0.000000 0.697500
0.287500 0.000000 0.697500
0.550000 0.000000 0.697500
0.812500 0.000000 0.697500
1.000000 0.000000 0.697500
0.025000 0.251250 0.697500
0.287500 0.251250 0.697500
0.550000 0.251250 0.697500
0.812500 0.251250 0.697500
1.000000 0.251250 0.697500
0.025000 0.502500 0.697500
0.287500 0.502500 0.697500
0.550000 0.502500 0.697500
0.812500 0.502500 0.697500
1.000000 0.502500 0.697500
0.025000 0.753750 0.697500
0.287500 0.753750 0.697500
0.550000 0.753750 0.697500
0.812500 0.753750 0.697500
1.000000 0.753750 0.697500
0.025000 1.000000 0.697500
0.287500 1.000000 0.697500
0.550000 1.000000 0.697500
0.812500 1.000000 0.697500
1.000000 1.000000 0.697500
0.025000 0.000000 0.930000
0.287500 0.000000 0.930000
0.550000 0.000000 0.930000
0.812500 0.000000 0.930000
1.000000 0.000000 0.930000
0.025000 0.251250 0.930000
0.287500 0.251250 0.930000
0.550000 0.251250 0.930000
0.812500 0.251250 0.930000
1.000000 0.251250 0.930000
0.025000 0.502500 0.930000
0.287500 0.502500 0.930000
0.550000 0.502500 0.930000
0.812500 0.502500 0.930000
1.000000 0.502500 0.930000
0.025000 0.753750 0.930000
0.287500 0.753750 0.930000
0.550000 0.753750 0.930000
0.812500 0.753750 0.930000
1.000000 0.753750 0.930000
0.025000 1.000000 0.930000
0.287500 1.000000 0.930000
0.550000 1.000000 0.930000
0.812500 1.000000 0.930000
1.000000 1.000000 0.930000
