presets/luts/warm.cube
# warm — bundled look for apply_lut/list_luts
LUT_3D_SIZE 9
0.025000 0.000000 0.000000
0.156250 0.000000 0.000000
0.287500 0.000000 0.000000
0.418750 0.000000 0.000000
0.550000 0.000000 0.000000
0.681250 0.000000 0.000000
0.812500 0.000000 0.000000
0.943750 0.000000 0.000000
1.000000 0.000000 0.000000
0.025000 0.125625 0.000000
0.156250 0.125625 0.000000
0.287500 0.125625 0.000000
0.418750 0.125625 0.000000
0.550000 0.125625 0.000000
0.681250 0.125625 0.000000
0.812500 0.125625 0.000000
0.943750 0.125625 0.000000
1.000000 0.125625 0.000000
0.025000 0.251250 0.000000
0.156250 0.251250 0.000000
0.287500 0.251250 0.000000
0.418750 0.251250 0.000000
0.550000 0.251250 0.000000
0.681250 0.251250 0.000000
0.812500 0.251250 0.000000
0.943750 0.251250 0.000000
1.000000 0.251250 0.000000
0.025000 0.376875 0.000000
0.156250 0.376875 0.000000
0.287500 0.376875 0.000000
0.418750 0.376875 0.000000
0.550000 0.376875 0.000000
0.681250 0.376875 0.000000
0.812500 0.376875 0.000000
0.943750 0.376875 0.000000
1.000000 0.376875 0.000000
0.025000 0.502500 0.000000
0.156250 0.502500 0.000000
0.287500 0.502500 0.000000
0.418750 0.502500 0.000000
0.550000 0.502500 0.000000
0.681250 0.502500 0.000000
0.812500 0.502500 0.000000
0.943750 0.502500 0.000000
1.000000 0.502500 0.000000
0.025000 0.628125 0.000000
0.156250 0.628125 0.000000
0.287500 0.628125 0.000000
0.418750 0.628125 0.000000
0.550000 0.628125 0.000000
0.681250 0.628125 0.000000
0.812500 0.628125 0.000000
0.943750 0.628125 0.000000
1.000000 0.628125 0.000000
0.025000 0.753750 0.000000
0.156250 0.753750 0.000000
0.287500 0.753750 0.000000
0.418750 0.753750 0.000000
0.550000 0.753750 0.000000
0.681250 0.753750 0.000000
0.812500 0.753750 0.000000
0.943750 0.753750 0.000000
1.000000 0.753750 0.000000
0.025000 0.879375 0.000000
0.156250 0.879375 0.000000
0.287500 0.879375 0.000000
0.418750 0.879375 0.000000
0.550000 0.879375 0.000000
0.681250 0.879375 0.000000
0.812500 0.879375 0.000000
0.943750 0.879375 0.000000
1.000000 0.879375 0.000000
0.025000 1.000000 0.000000
0.156250 1.000000 0.000000
0.287500 1.000000 0.000000
0.418750 1.000000 0.000000
0.550000 1.000000 0.000000
0.681250 1.000000 0.000000
0.812500 1.000000 0.000000
0.943750 1.000000 0.000000
1.000000 1.000000 0.000000
0.025000 0.000000 0.116250
0.156250 0.000000 0.116250
0.287500 0.000000 0.116250
0.418750 0.000000 0.116250
0.550000 0.000000 0.116250
0.681250 0.000000 0.116250
0.812500 0.000000 0.116250
0.943750 0.000000 0.116250
1.000000 0.000000 0.116250
0.025000 0.125625 0.116250
0.156250 0.125625 0.116250
0.287500 0.125625 0.116250
0.418750 0.125625 0.116250
0.550000 0.125625 0.116250
0.681250 0.125625 0.116250
0.812500 0.125625 0.116250
0.943750 0.125625 0.116250
1.000000 0.125625 0.116250
0.025000 0.251250 0.116250
0.156250 0.251250 0.116250
0.287500 0.251250 0.116250
0.418750 0.251250 0.116250
0.550000 0.251250 0.116250
0.681250 0.251250 0.116250
0.812500 0.251250 0.116250
0.943750 0.251250 0.116250
1.000000 0.251250 0.116250
0.025000 0.376875 0.116250
0.156250 0.376875 0.116250
0.287500 0.376875 0.116250
0.418750 0.376875 0.116250
0.550000 0.376875 0.116250
0.681250 0.376875 0.116250
0.812500 0.376875 0.116250
0.943750 0.376875 0.116250
1.000000 0.376875 0.116250
0.025000 0.502500 0.116250
0.156250 0.502500 0.116250
0.287500 0.502500 0.116250
0.418750 0.502500 0.116250
0.550000 0.502500 0.116250
0.681250 0.502500 0.116250
0.812500 0.502500 0.116250
0.943750 0.502500 0.116250
1.000000 0.502500 0.116250
0.025000 0.628125 0.116250
0.156250 0.628125 0.116250
0.287500 0.628125 0.116250
0.418750 0.628125 0.116250
0.550000 0.628125 0.116250
0.681250 0.628125 0.116250
0.812500 0.628125 0.116250
0.943750 0.628125 0.116250
1.000000 0.628125 0.116250
0.025000 0.753750 0.116250
0.156250 0.753750 0.116250
0.287500 0.753750 0.116250
0.418750 0.753750 0.116250
0.550000 0.753750 0.116250
0.681250 0.753750 0.116250
0.812500 0.753750 0.116250
0.943750 0.753750 0.116250
1.000000 0.753750 0.116250
0.025000 0.879375 0.116250
0.156250 0.879375 0.116250
0.287500 0.879375 0.116250
0.418750 0.879375 0.116250
0.550000 0.879375 0.116250
0.681250 0.879375 0.116250
0.812500 0.879375 0.116250
0.943750 0.879375 0.116250
1.000000 0.879375 0.116250
0.025000 1.000000 0.116250
0.156250 1.000000 0.116250
0.287500 1.000000 0.116250
0.418750 1.000000 0.116250
0.550000 1.000000 0.116250
0.681250 1.000000 0.116250
0.812500 1.000000 0.116250
0.943750 1.000000 0.116250
1.000000 1.000000 0.116250
0.025000 0.000000 0.232500
0.156250 0.000000 0.232500
0.287500 0.000000 0.232500
0.418750 0.000000 0.232500
0.550000 0.000000 0.232500
0.681250 0.000000 0.232500
0.812500 0.000000 0.232500
0.943750 0.000000 0.232500
1.000000 0.000000 0.232500
0.025000 0.125625 0.232500
0.156250 0.125625 0.232500
0.287500 0.125625 0.232500
0.418750 0.125625 0.232500
0.550000 0.125625 0.232500
0.681250 0.125625 0.232500
0.812500 0.125625 0.232500
0.943750 0.125625 0.232500
1.000000 0.125625 0.232500
0.025000 0.251250 0.232500
0.156250 0.251250 0.232500
0.287500 0.251250 0.232500
0.418750 0.251250 0.232500
0.550000 0.251250 0.232500
0.681250 0.251250 0.232500
0.812500 0.251250 0.232500
0.943750 0.251250 0.232500
1.000000 0.251250 0.232500
0.025000 0.376875 0.232500
0.156250 0.376875 0.232500
0.287500 0.376875 0.232500
0.418750 0.376875 0.232500
0.550000 0.376875 0.232500
0.681250 0.376875 0.232500
0.812500 0.376875 0.232500
0.943750 0.376875 0.232500
1.000000 0.376875 0.232500
0.025000 0.502500 0.232500
0.156250 0.502500 0.232500
0.287500 0.502500 0.232500
0.418750 0.502500 0.232500
0.550000 0.502500 0.232500
0.681250 0.502500 0.232500
0.812500 0.502500 0.232500
0.943750 0.502500 0.232500
1.000000 0.502500 0.232500
0.025000 0.628125 0.232500
0.156250 0.628125 0.232500
0.287500 0.628125 0.232500
0.418750 0.628125 0.232500
0.550000 0.628125 0.232500
0.681250 0.628125 0.232500
0.812500 0.628125 0.232500
0.943750 0.628125 0.232500
1.000000 0.628125 0.232500
0.025000 0.753750 0.232500
0.156250 0.753750 0.232500
0.287500 0.753750 0.232500
0.418750 0.753750 0.232500
0.550000 0.753750 0.232500
0.681250 0.753750 0.232500
0.812500 0.753750 0.232500
0.943750 0.753750 0.232500
1.000000 0.753750 0.232500
0.025000 0.879375 0.232500
0.156250 0.879375 0.232500
0.287500 0.879375 0.232500
0.418750 0.879375 0.232500
0.550000 0.879375 0.232500
0.681250 0.879375 0.232500
0.812500 0.879375 0.232500
0.943750 0.879375 0.232500
1.000000 0.879375 0.232500
0.025000 1.000000 0.232500
0.156250 1.000000 0.232500
0.287500 1.000000 0.232500
0.418750 1.000000 0.232500
0.550000 1.000000 0.232500
0.681250 1.000000 0.232500
0.812500 1.000000 0.232500
0.943750 1.000000 0.232500
1.000000 1.000000 0.232500
0.025000 0.000000 0.348750
0.156250 0.000000 0.348750
0.287500 0.000000 0.348750
0.418750 0.000000 0.348750
0.550000 0.000000 0.348750
0.681250 0.000000 0.348750
0.812500 0.000000 0.348750
0.943750 0.000000 0.348750
1.000000 0.000000 0.348750
0.025000 0.125625 0.348750
0.156250 0.125625 0.348750
0.287500 0.125625 0.348750
0.418750 0.125625 0.348750
0.550000 0.125625 0.348750
0.681250 0.125625 0.348750
0.812500 0.125625 0.348750
0.943750 0.125625 0.348750
1.000000 0.125625 0.348750
0.025000 0.251250 0.348750
0.156250 0.251250 0.348750
0.287500 0.251250 0.348750
0.418750 0.251250 0.348750
0.550000 0.251250 0.348750
0.681250 0.251250 0.348750
0.812500 0.251250 0.348750
0.943750 0.251250 0.348750
1.000000 0.251250 0.348750
0.025000 0.376875 0.348750
0.156250 0.376875 0.348750
0.287500 0.376875 0.348750
0.418750 0.376875 0.348750
0.550000 0.376875 0.348750
0.681250 0.376875 0.348750
0.812500 0.376875 0.348750
0.943750 0.376875 0.348750
1.000000 0.376875 0.348750
0.025000 0.502500 0.348750
0.156250 0.502500 0.348750
0.287500 0.502500 0.348750
0.418750 0.502500 0.348750
0.550000 0.502500 0.348750
0.681250 0.502500 0.348750
0.812500 0.502500 0.348750
0.943750 0.502500 0.348750
1.000000 0.502500 0.348750
0.025000 0.628125 0.348750
0.156250 0.628125 0.348750
0.287500 0.628125 0.348750
0.418750 0.628125 0.348750
0.550000 0.628125 0.348750
0.681250 0.628125 0.348750
0.812500 0.628125 0.348750
0.943750 0.628125 0.348750
1.000000 0.628125 0.348750
0.025000 0.753750 0.348750
0.156250 0.753750 0.348750
0.287500 0.753750 0.348750
0.418750 0.753750 0.348750
0.550000 0.753750 0.348750
0.681250 0.753750 0.348750
0.812500 0.753750 0.348750
0.943750 0.753750 0.348750
1.000000 0.753750 0.348750
0.025000 0.879375 0.348750
0.156250 0.879375 0.348750
0.287500 0.879375 0.348750
0.418750 0.879375 0.348750
0.550000 0.879375 0.348750
0.681250 0.879375 0.348750
0.812500 0.879375 0.348750
0.943750 0.879375 0.348750
1.000000 0.879375 0.348750
0.025000 1.000000 0.348750
0.156250 1.000000 0.348750
0.287500 1.000000 0.348750
0.418750 1.000000 0.348750
0.550000 1.000000 0.348750
0.681250 1.000000 0.348750
0.812500 1.000000 0.348750
0.943750 1.000000 0.348750
1.000000 1.000000 0.348750
0.025000 0.000000 0.465000
0.156250 0.000000 0.465000
0.287500 0.000000 0.465000
0.418750 0.000000 0.465000
0.550000 0.000000 0.465000
0.681250 0.000000 0.465000
0.812500 0.000000 0.465000
0.943750 0.000000 0.465000
1.000000 0.000000 0.465000
0.025000 0.125625 0.465000
0.156250 0.125625 0.465000
0.287500 0.125625 0.465000
0.418750 0.125625 0.465000
0.550000 0.125625 0.465000
0.681250 0.125625 0.465000
0.812500 0.125625 0.465000
0.943750 0.125625 0.465000
1.000000 0.125625 0.465000
0.025000 0.251250 0.465000
0.156250 0.251250 0.465000
0.287500 0.251250 0.465000
0.418750 0.251250 0.465000
0.550000 0.251250 0.465000
0.681250 0.251250 0.465000
0.812500 0.251250 0.465000
0.943750 0.251250 0.465000
1.000000 0.251250 0.465000
0.025000 0.376875 0.465000
0.156250 0.376875 0.465000
0.287500 0.376875 0.465000
0.418750 0.376875 0.465000
0.550000 0.376875 0.465000
0.681250 0.376875 0.465000
0.812500 0.376875 0.465000
0.943750 0.376875 0.465000
1.000000 0.376875 0.465000
0.025000 0.502500 0.465000
0.156250 0.502500 0.465000
0.287500 0.502500 0.465000
0.418750 0.502500 0.465000
0.550000 0.502500 0.465000
0.681250 0.502500 0.465000
0.812500 0.502500 0.465000
0.943750 0.502500 0.465000
1.000000 0.502500 0.465000
0.025000 0.628125 0.465000
0.156250 0.628125 0.465000
0.287500 0.628125 0.465000
0.418750 0.628125 0.465000
0.550000 0.628125 0.465000
0.681250 0.628125 0.465000
0.812500 0.628125 0.465000
0.943750 0.628125 0.465000
1.000000 0.628125 0.465000
0.025000 0.753750 0.465000
0.156250 0.753750 0.465000
0.287500 0.753750 0.465000
0.418750 0.753750 0.465000
0.550000 0.753750 0.465000
0.681250 0.753750 0.465000
0.812500 0.753750 0.465000
0.943750 0.753750 0.465000
1.000000 0.753750 0.465000
0.025000 0.879375 0.465000
0.156250 0.879375 0.465000
0.287500 0.879375 0.465000
0.418750 0.879375 0.465000
0.550000 0.879375 0.465000
0.681250 0.879375 0.465000
0.812500 0.879375 0.465000
0.943750 0.879375 0.465000
1.000000 0.879375 0.465000
0.025000 1.000000 0.465000
0.156250 1.000000 0.465000
0.287500 1.000000 0.465000
0.418750 1.000000 0.465000
0.550000 1.000000 0.465000
0.681250 1.000000 0.465000
0.812500 1.000000 0.465000
0.943750 1.000000 0.465000
1.000000 1.000000 0.465000
0.025000 0.000000 0.581250
0.156250 0.000000 0.581250
0.287500 0.000000 0.581250
0.418750 0.000000 0.581250
0.550000 0.000000 0.581250
0.681250 0.000000 0.581250
0.812500 0.000000 0.581250
0.943750 0.000000 0.581250
1.000000 0.000000 0.581250
0.025000 0.125625 0.581250
0.156250 0.125625 0.581250
0.287500 0.125625 0.581250
0.418750 0.125625 0.581250
0.550000 0.125625 0.581250
0.681250 0.125625 0.581250
0.812500 0.125625 0.581250
0.943750 0.125625 0.581250
1.000000 0.125625 0.581250
0.025000 0.251250 0.581250
0.156250 0.251250 0.581250
0.287500 0.251250 0.581250
0.418750 0.251250 0.581250
0.550000 0.251250 0.581250
0.681250 0.251250 0.581250
0.812500 0.251250 0.581250
0.943750 0.251250 0.581250
1.000000 0.251250 0.581250
0.025000 0.376875 0.581250
0.156250 0.376875 0.581250
0.287500 0.376875 0.581250
0.418750 0.376875 0.581250
0.550000 0.376875 0.581250
0.681250 0.376875 0.581250
0.812500 0.376875 0.581250
0.943750 0.376875 0.581250
1.000000 0.376875 0.581250
0.025000 0.502500 0.581250
0.156250 0.502500 0.581250
0.287500 0.502500 0.581250
0.418750 0.502500 0.581250
0.550000 0.502500 0.581250
0.681250 0.502500 0.581250
0.812500 0.502500 0.581250
0.943750 0.502500 0.581250
1.000000 0.502500 0.581250
0.025000 0.628125 0.581250
0.156250 0.628125 0.581250
0.287500 0.628125 0.581250
0.418750 0.628125 0.581250
0.550000 0.628125 0.581250
0.681250 0.628125 0.581250
0.812500 0.628125 0.581250
0.943750 0.628125 0.581250
1.000000 0.628125 0.581250
0.025000 0.753750 0.581250
0.156250 0.753750 0.581250
0.287500 0.753750 0.581250
0.418750 0.753750 0.581250
0.550000 0.753750 0.581250
0.681250 0.753750 0.581250
0.812500 0.753750 0.581250
0.943750 0.753750 0.581250
1.000000 0.753750 0.581250
0.025000 0.879375 0.581250
0.156250 0.879375 0.581250
0.287500 0.879375 0.581250
0.418750 0.879375 0.581250
0.550000 0.879375 0.581250
0.681250 0.879375 0.581250
0.812500 0.879375 0.581250
0.943750 0.879375 0.581250
1.000000 0.879375 0.581250
0.025000 1.000000 0.581250
0.156250 1.000000 0.581250
0.287500 1.000000 0.581250
0.418750 1.000000 0.581250
0.550000 1.000000 0.581250
0.681250 1.000000 0.581250
0.812500 1.000000 0.581250
0.943750 1.000000 0.581250
1.000000 1.000000 0.581250
0.025000 0.000000 0.697500
0.156250 0.000000 0.697500
0.287500 0.000000 0.697500
0.418750 0.000000 0.697500
0.550000 0.000000 0.697500
0.681250 0.000000 0.697500
0.812500 0.000000 0.697500
0.943750 0.000000 0.697500
1.000000 0.000000 0.697500
0.025000 0.125625 0.697500
0.156250 0.125625 0.697500
0.287500 0.125625 0.697500
0.418750 0.125625 0.697500
0.550000 0.125625 0.697500
0.681250 0.125625 0.697500
0.812500 0.125625 0.697500
0.943750 0.125625 0.697500
1.000000 0.125625 0.697500
0.025000 0.251250 0.697500
0.156250 0.251250 0.697500
0.287500 0.251250 0.697500
0.418750 0.251250 0.697500
0.550000 0.251250 0.697500
0.681250 0.251250 0.697500
0.812500 0.251250 0.697500
0.943750 0.251250 0.697500
1.000000 0.251250 0.697500
0.025000 0.376875 0.697500
0.156250 0.376875 0.697500
0.287500 0.376875 0.697500
0.418750 0.376875 0.697500
0.550000 0.376875 0.697500
0.681250 0.376875 0.697500
0.812500 0.376875 0.697500
0.943750 0.376875 0.697500
1.000000 0.376875 0.697500
0.025000 0.502500 0.697500
0.156250 0.502500 0.697500
0.287500 0.502500 0.697500
0.418750 0.502500 0.697500
0.550000 0.502500 0.697500
0.681250 0.502500 0.697500
0.812500 0.502500 0.697500
0.943750 0.502500 0.697500
1.000000 0.502500 0.697500
0.025000 0.628125 0.697500
0.156250 0.628125 0.697500
0.287500 0.628125 0.697500
0.418750 0.628125 0.697500
0.550000 0.628125 0.697500
0.681250 0.628125 0.697500
0.812500 0.628125 0.697500
0.943750 0.628125 0.697500
1.000000 0.628125 0.697500
0.025000 0.753750 0.697500
0.156250 0.753750 0.697500
0.287500 0.753750 0.697500
0.418750 0.753750 0.697500
0.550000 0.753750 0.697500
0.681250 0.753750 0.697500
0.812500 0.753750 0.697500
0.943750 0.753750 0.697500
1.000000 0.753750 0.697500
0.025000 0.879375 0.697500
0.156250 0.879375 0.697500
0.287500 0.879375 0.697500
0.418750 0.879375 0.697500
0.550000 0.879375 0.697500
0.681250 0.879375 0.697500
0.812500 0.879375 0.697500
0.943750 0.879375 0.697500
1.000000 0.879375 0.697500
0.025000 1.000000 0.697500
0.156250 1.000000 0.697500
0.287500 1.000000 0.697500
0.418750 1.000000 0.697500
0.550000 1.000000 0.697500
0.681250 1.000000 0.697500
0.812500 1.000000 0.697500
0.943750 1.000000 0.697500
1.000000 1.000000 0.697500
0.025000 0.000000 0.813750
0.156250 0.000000 0.813750
0.287500 0.000000 0.813750
0.418750 0.000000 0.813750
0.550000 0.000000 0.813750
0.681250 0.000000 0.813750
0.812500 0.000000 0.813750
0.943750 0.000000 0.813750
1.000000 0.000000 0.813750
0.025000 0.125625 0.813750
0.156250 0.125625 0.813750
0.287500 0.125625 0.813750
0.418750 0.125625 0.813750
0.550000 0.125625 0.813750
0.681250 0.125625 0.813750
0.812500 0.125625 0.813750
0.943750 0.125625 0.813750
1.000000 0.125625 0.813750
0.025000 0.251250 0.813750
0.156250 0.251250 0.813750
0.287500 0.251250 0.813750
0.418750 0.251250 0.813750
0.550000 0.251250 0.813750
0.681250 0.251250 0.813750
0.812500 0.251250 0.813750
0.943750 0.251250 0.813750
1.000000 0.251250 0.813750
0.025000 0.376875 0.813750
0.156250 0.376875 0.813750
0.287500 0.376875 0.813750
0.418750 0.376875 0.813750
0.550000 0.376875 0.813750
0.681250 0.376875 0.813750
0.812500 0.376875 0.813750
0.943750 0.376875 0.813750
1.000000 0.376875 0.813750
0.025000 0.502500 0.813750
0.156250 0.502500 0.813750
0.287500 0.502500 0.813750
0.418750 0.502500 0.813750
0.550000 0.502500 0.813750
0.681250 0.502500 0.813750
0.812500 0.502500 0.813750
0.943750 0.502500 0.813750
1.000000 0.502500 0.813750
0.025000 0.628125 0.813750
0.156250 0.628125 0.813750
0.287500 0.628125 0.813750
0.418750 0.628125 0.813750
0.550000 0.628125 0.813750
0.681250 0.628125 0.813750
0.812500 0.628125 0.813750
0.943750 0.628125 0.813750
1.000000 0.628125 0.813750
0.025000 0.753750 0.813750
0.156250 0.753750 0.813750
0.287500 0.753750 0.813750
0.418750 0.753750 0.813750
0.550000 0.753750 0.813750
0.681250 0.753750 0.813750
0.812500 0.753750 0.813750
0.943750 0.753750 0.813750
1.000000 0.753750 0.813750
0.025000 0.879375 0.813750
0.156250 0.879375 0.813750
0.287500 0.879375 0.813750
0.418750 0.879375 0.813750
0.550000 0.879375 0.813750
0.681250 0.879375 0.813750
0.812500 0.879375 0.813750
0.943750 0.879375 0.813750
1.000000 0.879375 0.813750
0.025000 1.000000 0.813750
0.156250 1.000000 0.813750
0.287500 1.000000 0.813750
0.418750 1.000000 0.813750
0.550000 1.000000 0.813750
0.681250 1.000000 0.813750
0.812500 1.000000 0.813750
0.943750 1.000000 0.813750
1.000000 1.000000 0.813750
0.025000 0.000000 0.930000
0.156250 0.000000 0.930000
0.287500 0.000000 0.930000
0.418750 0.000000 0.930000
0.550000 0.000000 0.930000
0.681250 0.000000 0.930000
0.812500 0.000000 0.930000
0.943750 0.000000 0.930000
1.000000 0.000000 0.930000
0.025000 0.125625 0.930000
0.156250 0.125625 0.930000
0.287500 0.125625 0.930000
0.418750 0.125625 0.930000
0.550000 0.125625 0.930000
0.681250 0.125625 0.930000
0.812500 0.125625 0.930000
0.943750 0.125625 0.930000
1.000000 0.125625 0.930000
0.025000 0.251250 0.930000
0.156250 0.251250 0.930000
0.287500 0.251250 0.930000
0.418750 0.251250 0.930000
0.550000 0.251250 0.930000
0.681250 0.251250 0.930000
0.812500 0.251250 0.930000
0.943750 0.251250 0.930000
1.000000 0.251250 0.930000
0.025000 0.376875 0.930000
0.156250 0.376875 0.930000
0.287500 0.376875 0.930000
0.418750 0.376875 0.930000
0.550000 0.376875 0.930000
0.681250 0.376875 0.930000
0.812500 0.376875 0.930000
0.943750 0.376875 0.930000
1.000000 0.376875 0.930000
0.025000 0.502500 0.930000
0.156250 0.502500 0.930000
0.287500 0.502500 0.930000
0.418750 0.502500 0.930000
0.550000 0.502500 0.930000
0.681250 0.502500 0.930000
0.812500 0.502500 0.930000
0.943750 0.502500 0.930000
1.000000 0.502500 0.930000
0.025000 0.628125 0.930000
0.156250 0.628125 0.930000
0.287500 0.628125 0.930000
0.418750 0.628125 0.930000
0.550000 0.628125 0.930000
0.681250 0.628125 0.930000
0.812500 0.628125 0.930000
0.943750 0.628125 0.930000
1.000000 0.628125 0.930000
0.025000 0.753750 0.930000
0.156250 0.753750 0.930000
0.287500 0.753750 0.930000
0.418750 0.753750 0.930000
0.550000 0.753750 0.930000
0.681250 0.753750 0.930000
0.812500 0.753750 0.930000
0.943750 0.753750 0.930000
1.000000 0.753750 0.930000
0.025000 0.879375 0.930000
0.156250 0.879375 0.930000
0.287500 0.879375 0.930000
0.418750 0.879375 0.930000
0.550000 0.879375 0.930000
0.681250 0.879375 0.930000
0.812500 0.879375 0.930000
0.943750 0.879375 0.930000
1.000000 0.879375 0.930000
0.025000 1.000000 0.930000
0.156250 1.000000 0.930000
0.287500 1.000000 0.930000
0.418750 1.000000 0.930000
0.550000 1.000000 0.930000
0.681250 1.000000 0.930000
0.812500 1.000000 0.930000
0.943750 1.000000 0.930000
1.000000 1.000000 0.930000
